/* XPM */
static char *backgroundtest[] = {
/* columns rows colors chars-per-pixel */
"128 128 14 1",
"  c #346F19",
". c #36721A",
"X c #39761C",
"o c #3C7B1E",
"O c #3F7D20",
"+ c #407F1F",
"@ c #407F20",
"# c #41801F",
"$ c #448321",
"% c #478823",
"& c #488722",
"* c #498A23",
"= c #4F9025",
"- c #509125",
/* pixels */
"o$*@o=%oO%**OO*Oo$$$@o%-*%o$%*%o$-#O$$$*$...o**%%o@oo%%*@o**$%******$$O$%%$OoO$*o..O%%%O@$%%=*o$*Oo.o-%o=*XX.XX**o##*$o$*oX&*$$o",
"o$*$o=%oO%**O%*OO@$$@o*-*%o$**#o$=##%**%$o..o%*%%$@oo%**Oo**@%******$$o@*%$oo#$*o.XO%$%O@%%%-*oo*OooO*$o==X..Xo-#+#=*$o$=oX&*&$o",
"o$**O%$oO%%%OO$O@$$$OX$%%$o$**%o$=@@%$%$$oo.o%@$%$@Oo@%%Oo%%@%%$$@@@$$OO$@@oO$%*ooo@$$$oo$$$*$XO%@oo@*$o*%.oo+o**o##$$@$*@o*&$@o",
"o$**%oXoOO$%OOO%%$O$oXooX.Xo%*%.$%Oo*#..o$$oX .X$$o$@Xo%oX@$@$$oXXXX$$oooX. o$%%%%$@ooOX.XooooXoo$$%$ooooo.o####&#+oX@*$o$$*$ooo",
"X@**%XXooO%%Xoo%%$$$OXXoX.X@%*%X#*Oo%# X.$%oo .X%$@$@XX%o.@#@@$o..XX$*Ooo...o$$$%%@OoooX.oooooXoOo$%$ooooo.o%%%@#&o.X+*$X$%%$ooo",
"@@%%@oooOO%%%@oOO$$o@$OXooX@$$$ooO$$OOO#@@O@o .X%$XoXXXXX.oOo$%oXO@$**OoXoo.XO$$@@o@%oo@oXX.oo@oooo$@XXX##O#@@oOo&$$&$$$$*$@oo$%",
"%@%ooooooo%%=%Xoo%$X@%O Xooo@$$$o.$%Xo$%$oo%o  X%#  .XX ..ooo$*oX$**==OooO@Xoo@Oooo#%oo%$...o@$ooXX#O..XO#%#Oo.Xo&&&**$$**%XXo$%",
"$@@@@XoOOO@%=@oOO%$o@%XXooo@@@@@o.$#XoO$$oo$#ooo%@XXooXX..oo@$%oo$****OO@$$o.oOooooO%oo%$ooXoo$@XooOOXXoOO$@oooo$$#$**+$***OOo$%",
"oo.$%oXo%%oO$@@oo#%*%@@@@@@oXoooo.ooooOoooo$%#$$$o.$**$XXXXo%@oooX@=@o@$%$%$%oXXO#.o$$$@#o@%oX$@XO#Xo#%#Oo#OX@%$oXXX@@.@****%OOX",
"+o.@%oXO%%#o$@@oo@#*%#@@%%@oXoooo.ooOOOoXo@#$%$$$OX$**$XXX.o%@oooXO*@o@$**%%$oXXOO.o%%@oOo$%XX$@XOOXo##%Oo#OX@%$#...Oo.@****$XXo",
"@OoooOooOoOO$$@Xoo@*@ooo@$$o.Xooooo@O#$oXO@ooooo#@O@@@oOooooo@$$O.oooo@@$OoO#$oX#$oOooo@#OoO##oO#ooXoo##%#+O@ooOOoooooO@@@@@@$OX",
"%+o.X##XXooo$$@X.o#*#oXo@%%oXXX.O#OOO#*OX$OXXX X$$$OXOoOo@@@ @*%@....o%@ooXoO$OX#$#o...%$ooX$%Xo%+XooooO%#XO=OXooO%%XX%@OXOX$%OX",
"@@XoX@oXoooo@@@OoOO%$ooo@%%@ooXXo@@o$$$Oo$$XoXXo@$$@OoO$@ooo.o$$@oXXXo@%XoXo#%OXOO%O.OO%%OXX$$XO##oooooO%#o@=OXooO%%oX%OooooO%Oo",
"oo%#@ooX@%oXXO$**%$o@%oo%%%%%%@Xo$oo%@X@$%**o $$XO%%$o$*@ooo X.%*$@..X$@.X.XO$o.XO%O O%O#X.X@$%@XO#XX.O%ooo@*%$Xo%%#%$OoX#OXX.@*",
".o%%%ooX@*XX.o$*=*$o@%oo%$%***@XO@XO%@XO$**=O.$$X@*%%@$*%oooX.X%*%@XXo%@.X.oo%O..O%O.#*%O.X.@$%@X+#XX.O%ooo@*%%Xo*$#%%ooXO$X..$=",
"#@%#Oooo%%@OXO$$$$$@@@oo@@@$$@o.@$oX@@@$$@@$oo@$OO#$OOO%@@ooooo@$@oXo@%#oo.XoOo.OO$OOO$OOOOOOO@@.o+XooO#oX@%*@oo@%$$%@@$@oo@ooo@",
"=$oooo%**%**@@%@o@$-$XXXXooX   X$%XXXo**%oXXoO$$$oXo$%OXO#Xo**%ooXXo%*%%$oXXXoX.o%%$$oX#$$$$XXoo XXX@*@X.X$&&oX$$$$%oo***X.$%OX.",
"=%ooXo@*%$**@$%oX@*=$XXoXX@X X.XO%XXXO%%%oXoo$$@$o o#%#X#%Xo=%$ooXoo%%%%%XXXXXX.$%$%$oo$$O$$X.oo XX@@*@X.o$&&o.%%$$%Xo***OX%%oX ",
"**%oXXO*%O**@%*@XO$@$$$$XXXXXO##oX#OXXooo$#O$$oXoXooo$#oO%$@#$$%@XXo$%XoOOX#o X.@$o$%$@oOXOOXXXo$$$*&oo .o#ooXoo$%@oXXo@@@o$#Oo.",
"$**OXXo*%O**@%*oX@@o@**$X.XXX#$%o.$#..o.X%$#%%o XXooo$ooo$%#oo#%@XXo%%.XXOX#O  .+$o$%%$XXX XXXo@***-$   .X#o.Xoo$%ooXX.o$$$@#Oo.",
"OO%OOXo$Oo$%%%%@@$$O@$$@ XXXXO##XX#$.Xooo#O$$$oXXXoO#OoooO%#XX##@Xo@$@o@#OXOOXXX@@@$%%$XXXXXXXXO@$$*@XXoXX$+Xoo#@Ooooo.@%$@$#Ooo",
"oXX%%ooXoXoO*%o%*=*$oX..XX.XooooXX#O.Xo$*XX%OXXXXXo%%o#%oX%#XXoX.@$%XX%%%o XO%%#oo$@o$$OOoX     ...XoX$=oX$+X#*&#..o$@.@%Oo#oo$*",
"oXXO*ooXX.oo*%o$===$o...X. XXoooXXOo.Xo$*XX%#XXXXoO%%oO$XX%OXXoXXo$$XX%%%O XO%%$oo$@X$%XXOXXX    ..XXX$-XX$+.o&&#..o@@.o*@o$OX$*",
"O$$OoOOoXXoO%@o@$$@oX.@@XX$$%oXXO$oo#oXO$OOoO%O#O#O%%$OXXX#O.o#XXXO@@@o@%%##@XoXXXOXX@@OXXXXo@@@+X..X$&*@o@+Xoo%%oo.@@@@@@$O@$$O",
"**%X.%#oXXo#%OXO$#XXX $$ X%**XXX#%oX*#.o##oXO%%$%$$%%*O X.##.o$X XX#$$.X*%%%o    .XX.O#X. XX$$%@X.  X***oooooo.#%$X.#$%oX@%o#*oX",
"*%OoX##OoXO$%#o@%#oXXX$$XX%%%oXo$%XX$O.oOooXO$$O$$%$$%o.Xo##Xo$oXXO@@@Xo%%%$@XX..XXXOoOXXXXXO$@@@+XXX&&&$@o$ooX$$@oXoO%Oo%@o@*oo",
"$oXo#oO$%%$$%#o%*oO=*%*%Xo$ooXo##$OXX..ooXoooXooO##XX%#XO%$$#$%%%@OXXo$Oo#Oo$%OXooXo%O XO%#X$$XO**&o OXo$$..o#$oo$%=oX%%%%oO#%%O",
"Oo O%oo%%*$%%#o%*o#=*%%%Xo#oXXo$%%Oo ..XoXXoooXXOOOXX$#XO#$$#$%%%#OXOO$OO##@$%OXo@X@%O Xo*$o$$XO***XXXXX$%.oo$#Oo#%=XX%%%@o@##%#",
"oo XoO#O#$Ooooo%*ooo$%Oo##oXXooooo$OXXXO#Xo%$oXXXO$OXO$$OO%$o#%%$$OXO$%OO#%$#O@o@@oXoX @O$O$$$oOoOoXO@OX$$..X##%$oOOXXOoo@@%%%@o",
"oX ..%%oOOoX X$%*oX o%oX%$X  Oo. X$$XXo$$Xo=%oXXXO*Ooo$*Oo%%XO%OO$O.$%%#o$*$$X@$$$X   X%%o#%$#oX  .oO$@O%#..X#*=%oX.ooo.X%*%%=o.",
"oX.Xo$%oooooXo%%%XX o$Oo$$XXXOoXXX$$XXo$#Xo*$OXXXo$Ooo#%OO%$XO$Oo@oO##$#O$%%$Xo@@@XXXXX$Oo@$OOXX. .oO$OX$O..XO#=%OX.ooooX%=%%*O.",
".XXo##oooX$%oo$XX$$XXo$%ooXo$Xo%%$XX#$=#o X.o%%%OX.$%$X.#$Xo%OXXO o%OOO@*@X$#OO$oo$$$%$XOO$%OOXXoX.@O.X.Xo...XoXo#o.o@@$@%%OO%o.",
".XXO$#oooX$$oo#oX$$oo.%%oo.o%Xo%%$Xo$*=$o.  o%*%#X #%#X o%Xo*oXXX.o*oXo#-+X#$XooXX&&&&&XX+$&XX.+$XX$o ..Xo ...X.o$o.o$$$$%&oo$o.",
"#oOO#$#XoooooXooo##XooooOoooooooo#oo#$#oXXoo#$oooX.O#XoO#Ooo%#X#oXo%$$$$$+o+ooooX.o+@++XX@@X@@XXOoo$$.XXooXoooo@o$oXo$%%$$$o@$oo",
"%%%oo%#.o$oo.. o$#o.X#..##o.Xoo.Xooo#oX..o#o##X ...o#.o%oXo%*#o$oXo$*=*$oooX. XX  .o+X XX@+X$&.Xoo$&$Xo+ooo$$@o$ooXX$%***oX$#Oo$",
"%%#oo%#.o$ooX..##oo o#X.#ooXX#o.oooo#oXXXoooo#XX..XoO.o%#oo#*##%oXo$&&&&+$o...XXXXXoo..XX@XX@$XXo@$$$o$ooo@$$@@%&+oX$%%&*oooOooo",
"$#o#%ooo#%oX$$##oo. o#..oooo.$#..Xo###%%##OXo#$%#OoXXXXO###oo%%#$o##oX$o+$&Xo$+XX@$+...+@.X.XX@@ooooo$&$o@$&$ooO$*$o$$oO#*#X..oo",
"$oo$%Xo$%%XX%$$#o.. o#o.XooX.$#..Xo###*$%##Xo#%%#Oo. XoO%%##o#%$#o#o.X#$o&%.X&o.@&$o  .$@ .. X$$#ooXo&$&@@&$$ooo$*oo%$oo###....o",
"ooo##oo$#%oo#o##OXXOoOoooXXoooo.Xo#oXo##O##Xo####OooXooooo##$##$&o$oX.$oo&$XX++o@@$@++o+XXXXOX@@&$$$++o&&$@$*$&Oo+oo$$oo#%*XX+oo",
" o$oo#$$%%$#.XX#%oo*Oooooo.o%...o#oo....X%#Xoooo%#oooOXX..%**o.$*&&%X..Xoo#.Xo$&XX+$&$$.X$+X$@ o&&**$.o#-*.@***X.Xoo$oXoo%#.o#o ",
".o#oo###%#$oXoX$%Xo%#XoO#o.##X..o$ooX. XX#$XoOoo%OoooooX X$%%oX$&&$$XXXXX+#Xoo$&XX+@*@@Xo$oX$@ o&$&=&.o#*&.+***X.XXX%#XoX%%.X%o.",
".XXXoo#%Oo.Xoo.o#ooXooO#$$$oX#o.o#ooOoXoOO#%OX$$XX .X#$$@XXoo$%oooo.o$$+.o+o#+$&X. +$+X$$$o.XX XXoo$#XXo++oooXX@$$oXo#oOX#%X.Xo#",
"..XXXo#%O...$o.oooX XO#%%%*o.$#.o#oo$Oo$#oO*OX%%X   X$%%OoXXX$*X.oX.o&*$.X+#$oo&X  +$..*&#o...   .X#$XXoXoooX .+$$XXo###X@$X. O*",
"oXXXXo##oo.Xoo.oOOoXooOO#$$oo$#Xo*ooOoXX#O##oX##XX XXoO$oXoooO$o.+oX$$$+XX+#$oo&+X.X+XX*&oooXXXXXoo$oooo+ooo@XX@$ooo$%#OXoOooXO%",
"*O...oo...oX.. ..#%ooX..XX.#%XXo%*ooXXXXX%$ o$XXXX.XX ..  X$*@X.X$oXoX.X+XX&$.Xo&&X. .+$oXo#@@o@o##ooo$&$@.+*$+++.oo%%*O.Xo#####",
"=$...oo...oo.. .X#%#oX.XXX.#%Xoo%*OoXX XX%#.X$XXXX XXX . XXO*O  Xo$oX..X#X.&$ XX**XX.++$@.oo@@o@###oX+$#$+X+*$++oXo&#%*o..o%*##o",
"OOo..ooooOoo....XO#%#Xo#X...X.oo#%%$XO###oX X##ooXXO$XXXooXo#oooo.XXX...X++oX.XXoXXo@+@++$$$$$ooooXXoooo$$$@ooooooooXXoo.o#%#oo#",
"oo#X oooo%OX..XX.O#*#X%*.  ...Xo#$%#X#%%$X.XX###OoX$%Ooo#$XoOoXoo..X.....+$X..XX.X.+&$@oo&$o&$XX+X.XoX.X$&*$.XXo+#o...XXoo##oXO#",
"Xo$o.oooO$oXoooo.oO$OoO$.....XoOO#OOo#*%#..XoooooooO@oooO$oooXooo.Xo..oo.ooooooooo.o%$o@$$$o$$XXoX.OoXXX$%%#oXoooo+XXXoXX@#OXXoo",
".o$X.Oo.o#XX%%%Oooo.o$o.X...X#%%o.XXo#*oX.XoO#X  o$...X.#$oX   XXooo.ooo$oXooo$$%$oo*oX***@XXX..ooO%$Xoo%$Xo%$$XoXoo@@XX.oo.    ",
".o#o oo.o#XX%%*$ooo o%X ....X#%%oX.Xo#*oo..oOoX  o$o ..X#%Oo   XXoooX.oo$o.o$o$&$$XO%oX$**@XX. Xooo%%Xoo$$.+%%$oXooo@@oX.Xo.    ",
"o#$$OoXooo..ooo$$$OOooo.ooo#OOoooooo.oo$#X.oooXXoOOoooo@$$OOOOoOoooXo$@$$X.o$&o+$$oO$o$$$@@ooXXXXXX%%@@OOO#oo$%ooXo$$%@X XO.XOO.",
"%%%%$XXXXo   .o$**%$Oo. oo%%$o..o$$#..X$%...X. X%%oXoXo*%##$%%#%$OoX$%%$oXXXo*oo#$#Oo$%$O.@&ooooX..%%%%%oo%o.$%oX.@%%%%o oo.o%#X",
"#$$%$oXXooX..oo$*%$$OoXXoo$%#ooXo##o.Xo$#XooXX X$oooooo%#O#$%$##$ooo$%$$ooXo$$ooO#$@@$%@OXo$ooooo X%%%%#oo%@X@$ooXo$%%$o.XoXo@OX",
"oXX#%oo%#XXooO$oo%%oooo$##$#oXo#o..XooooXoo%oo. ..Xo$#@ooX##OX.Xooo$ooooXo#&#ooXXXO$$$@XX@XX$$o+%o.Xoooo%@.o$X X...oXooooX.%$oX ",
"XXX#%OO*o..o$oooX%%oooo$##$oX.o%o...ooO..oO#oo   ..o$#ooXXOOOX X.Xo%X.ooo#&&#oXX.X#$$@@.XoX.$$Xo*oX.oo.o%#.o%X X. .XXXXoo..%$X..",
"Xoo#oooooo$oooo.XooooOOoXooO##OoooOoXooooO@ooooo  Xoooo.oooXXX o+@@$#+Xo#&$oo$@.OXOOXOOXXoX.$$o$@oooOooO$$Xo#O XX XOOOOXXoX@@#XX",
".o%Oooo.#**% ...X  .o#X..Xo#*=%.o$*% . o%%$.oO$$ XXooX. o#...  O$$&$**.o=*$.o*@.$o   Xooo.X.o$&o .o@OXo%$$@@#XXXX Xo##X. ##Xo*O ",
"oo#oooo.o%*$.ooXX ..o%X..Xo#%*#.o%*%...o$$OXoo$$  XXoX. o#XXXXXO$@@$**.+&&#Xo*+ o$...OOooXXXo$$o..O@OX@%$#@#$XXooXXX##XXX##Xo*O ",
"%oXXX#o...oo o%$#ooXO%X..o%OXXoooo$#XXooOXXOoo$#XXXX.oo.XX$OXOO#+.+&++.XXoo+@@o.ooXo$oXo@$o.@$oo$OXX..@%OXO#%OO$$@OOXX##o#O##oo.",
"$o   ##.  .X o*%%oooo$X..o*O..Xooo$$oXXoo oOOo## Xo XOo.XX$%oo#O+.+&+X...Xo$$oXXoo.$*oXoo*$.##.o%Oo...O%oXo$%@o%%$@o..$$+oo$#XX.",
"*#oXX#oooooX.o$OooooO#Oooo#oXXXOooooooooXoooO#oo oooooooXo#oXo#oX +$oX+o.XX$$oXXo$oo$XX$$$o.$$Xo#OOX..o#oX$$$oX$%OoXoo$$$#ooO##o",
"*%oooooO$*oXoooXX.X%OX#%%#XXXXXo.   ooX. oo #*oXXoo$# o%$#oX.O%o  X$XX*# .X&$oo.oooo...%$ooo%%..X#$.....XX%@X..$$@XX$%#%*$o.o%%$",
"*%$oooo#$*oX.ooooXo$OX#$%#XXXXXoo  .ooX Xoo O%oXXoo$$Xo$$OooXO%X. +$Xo*#.XX&$ooXoooo...$$ooo$%XXX#$oX...Xo%@XX.$$#oX$$@$*$o o%$$",
"&$oooXX.O%oo$o.oX%%%O.@%Xo@o. .+oo..ooXXo@O.XX.. .o##XO%oXO#$oX#&++X@$+oX@&&$.+$XX$@oX.X@$oXXX&$Xoo@oXo@@@oXXO#Xo%oXo..oOoX.oOOO",
"&oXo#XX.O%oo$o...%*%O.%%.o%o  o$#oX.ooXoo@o....  .o%#X#*o X@%o $*&+.@@oXo$&&+ +&X.$$+X..X$+. X*$XXo$+Xo$%%XXX$%Xo%OX...oOX..Xooo",
"ooXo+oooOO@@oooXXO##Oo@@.ooo Xo@oo.oO@@oXoOXOXoXXO#ooO@@oX###o.$$++.OOooXo$++Xo+oo$@++XXo&+ XX@@XXOooXo@%%Xoo@@oO%ooXoXoOoooO#oo",
".X...$%*o.$%ooOXX..XooX.oo  .+$@ooooo@%o.XXOo$$%**%oX%@.o#%$X. o+.XXX XXoo..X$X.+o$$+o+.X&+ oo.XXoo..XXo@@O%%Oo###o.O@Ooo##%##O.",
"X....#%%O.#%ooOoX..XXOXX#o.. #$@oXooo@%X.XXo@$%***%oX*@.o#$$o..++ .X..XX@o..X$X oo$$##oXX&+ oo..ooo..XoX@%$@%oo@%#o.OOooo#=#=%O.",
".ooo$%$oooXo$$o..##.o@X.%O.Xooo@o.@@XooooXo@OXo@@@O@@O@%#O%#.o+o+.+@$$X.X@$+oooooXo+&oXXo$$@$&$@Xo@oOXXXo@$Oo@@oO#@%oo$%%Oo#%%o.",
"Xo#&*&# XOXX*o ..%%.X$X.*@.o+.X$o.%*XXXO@Xo@X.XOoOX$*.O%OX%# o$oX.+$&&   $*$+.o#X.X+*o..o$$&&&*@.o$$@XX.Xo%o.o%ooX#%.X%%*ooo#=o.",
"ooo$$%o.ooXo%Oooo$$.O$XX$@Xo+.o$oX%%XXXooOO%O.OOOOX@@XO%OX#OooooXX+$&$ X.$&@o.o$XXX+$+ooo@$$$$&@Xo$$oXX.XX@o.#%oXo@%oX$%%oXO##o.",
"=$ooX.XoX.O@@$**$oXXO$X..o@@oooooo%%.ooX.$*$oOXO@oXoo@OXXXXo$o....X@oXXo@oX.. X@ooXX.o&*$.X+X.XXOoXoX.XX.Xoo.#%#@oOX$o.XOX...Xoo",
"*&#oXXo#o.@$@%*%%.XoO@X..o%@oooooo##.X+X.$**oXXo@oXoo@oXX..o$o ...X@XX.X@X.   XooXoX.o**@.XoXXXXooooOOXOXX$oXo%#@oXX@o XO. ...oO",
"+ooX..ooo@OOOOooo$$$@$OXXoOooXXooXooXo#oOOOO@$o@oO@oXXooo+oO@ooXXXXX@$OXoo+oXXXo@@XX.o$o@XoXX@@@@XX$$$o..o$oooXoo*o.XX.oOOOoO#Oo",
".Xo...Xo$$XXooX..**$$$@oX.ooX .$oo...o%+XX..@*$@Xo%X  o#$%%$+oooooo.$&$OX+$oOXXX$@  .o&oo@X.@&@$$XX%**@..Xo@%X..o*o   .oo%%##*Oo",
"..XX..Xo$%OXoXXXX**$$@@ooXooo.o$O..OoO@OXOX.o$@@ooOo.XO%$$%$o@ooo@O.@$$@XOoOoOXX@@  X@$Oo@OX@&@@$oo$*$oOooX@$O.XO$o .XXoo#$O###O",
"oX.$$XX$$$@o.X@@oXX*@..X$OXoO#$#OO$*%o...$$Oo.$%@o.$%%%%oXo$$%%oooo..X$$...Xo$OOXXXO@$@oo@$$@@$$$%%%@X$**$XOOXo@o....o$$%o.XX.O=",
"oo.o%XX$$$@O X@@@Xo*o...$@XoO%%%O.%*$O  .$$oo.$*Oo.$**%%o.o$%%%#O$o...$@ ...o$oX .X@$o@XX@$&@+#&$%%%o.$**$OooXo$o.XX.o$%%o....#=",
"$$o+o.o$@XOO.XX@$Xo$o.o@%$OooO@oOO@@$O XXooXoooo$oXO@@OooXo@@@@@@oX.Xo$$XOXO@*o.Xo$@o$$XX@@o+oo@%$$o@$oo$$oOXoO@$OOX@$o@$OoXXOO$",
"%$$oX.o#o..o...$%oooo.@%%@%o.OoXO$OXoo oo.. o#oo$ooo.oX..ooXXXo%$oX.Xo%%ooooO%o.o#*#o##X.++.X+.+*#oXo*o.#%#o.o#%$$@o&%.Xo$#oO%oX",
"$$$oo.o#+.o+o..+%Oooo.@%%%#X.oooO$OOOX.oOXX.O%oo@O.oooX.XooXXXo$$oX.oo$#$oooO#oX##*#oo#o+@X XXX+##oo$*oX###X.o#$$*oo$$Xo$$#oo%oo",
"oXXoo%#o..$#%o..X$@Xo#%*%@XXXXo@OoOO...oO@@$%%oo$oXo++#o#%oo$oX$$oo$ooX..o@XXXo#+Xoo##&#@XX +$&+XXXooo$&OX.XoooXo$oo$$$oo$$$Oo#*",
"oX.Xo%@..X#*#+...%%.o$%**#..X.o%oXOX.  oO%%%%#Xo%oXO+$#o%%oo%o.$$Xo$#o...o$XX.O#oXoo*##*@. .#&*+..XooXo*X. XOXX.o$oo$$$$o#$#oX%*",
"oXXo$%@ooOOo#o.XoOO.oo@@%o.XXOooOOoXXOX@$OoO##OOooXoo@ooo@o@%oX@$XXooooX.OO.Xoo$@OOo#Oo+@XX X+&@.XXoooooO#OooOOoooooo$o@$OOooO##",
"ooX%*%$oO#X....oO..  ...oX...$@.o@XX@@%*%.Xooo$%.XX.X%#.X.#@%o @+XX.Xo#o.XX X$@o**.XoX X+&@ ..&@.XX X%oo###o.$*Oo.$%o..@*o..O=#o",
"OOO#%%%oO#X...XoOX......oX...$@.O%X.@@%%%XXooo@%.XX..%oX.Xo%%o @@X..Xo#+.XX.o$oo**.Xo...+&@ .X$@XXX X$oo#%#oX$%OoX$%XX.@%OXXo%$O",
"%##oXoO%oX.XXoOoOoO%OO@@Xo@ooX..@*X.ooXoo@o.ooooXo@X.XooooooXXX@+oX.oo+o..X$@XXXXOXo$o.+$$@.++XX+o..oOoo#OOoXXoo@$oo@@oOo$%ooo#%",
"%$+..o##o..XXo#Oooo*$o$%Xo%#o.  @*X.XX.XX%@.o@oXXO$X .oo@ooo..oo+oX o+oX...$$XX.X XoooX$$&+.@#.X#o..X+ooo$ooX..O#%Oo$##o.%=o.Xo*",
"#+oo.oo#o.oooO$###o%@oOooo%$oo..O$ooXX.XXOOXooooOO#OoXXooOoX.Xoo+XXXXX+oXXX+o.XXXXOOooo+@$+X$$.X+oX+oooXoo$oXoX$%Ooo$%OooO$ooO$$",
"..oo#ooooXO#%##%####oo.o%%%@#+X.XoOo..oXX.o$oX%%%O.#$o..XX.. Xo$#.XoX.$$ooXX..XoXX&@X$&oo+oX$$...o#&#ooXoo%$Xoo%O..X$#XO#oo%%%Oo",
".Xoo#o+OXX###$$#%%#Ooooo%%%$$oo..oOO XOXo.X$o.%%%O.O$.. XX.. Xo$$.o$X.&$#oo....oXo*@X@&oXooo&$. Xo#*#ooXXo%$ooo$OX..$$XO#OX%*##O",
"XXX+%#O##%#OooO#@ooXo%@oooO$%oX.XooXXXXXo@oo@%ooOO.OOX.O..@O.XoOo$$$XXXXoXXoX.X.XO@@Xo$XX$@oo@@+XXXXo#oXoo$$o$$oX.oooXXoo@@###%O",
"XX.+#oO#%##oXXO#%X..o%#oXoo%%o..XoXXoX..X$$.@%ooXXX..XOX..$@ X@..&$$oo. .XoooX..XX@X o#Xo$$oXX&@X...X#o.o$$oXo$XXX##...Xo#%oO*#o",
"XX.+%OO###ooXXOO@oX.o%ooXoo#@oXXoOXXoo.XoooXo$oXXXXOOOOOO.@@XOO..$$@@o.XXoX$oXXXXXOX.+@Xo$$oXo$@XXXXX%oXo$O$O$#+oXo&XXoooo#oO%#o",
"Xo+##XXooo...o#oooooo.oooooX.Xo$%$X.oXXXo.o$oXoXOXX@@%O..X.X$X  .$$$$$.o$oXoo$$&@oXX.+$$$oX.oo..+#$.o*o.ooo$*$o&#Xo#X.%#ooXoo%%#",
"oo$#$XXoX..  X#oo+ooo Xooooo Xo%$$..ooXXX.X$oXooXXX@&&@.oX..*o  .+$$$+.o&+X++$&&$@X. +$$$@X.o@.Xo#&.X&+ Xo@$*$o*$.ooXX$$oXXXo$$$",
"ooXo@@@XoooX.o#OOoO#oooo$@o@OoXoooo$Xo@oXOooo+@@.X.O@Oo@o$XO$O.o+oo+XX+$@oX@+XX+$$Xo++X@@@o.Xo.Xo#o+@+@@XooOooXXOXo$$$$$XXXXoo$&",
"oX o$%$ o%+o.Xo%%oo*$Xoo*$.#*XX ..$$o@*X $$Xo#$$  .Xo.X$&%oo$oX++.XX..&#+XX+X.. $&Xo$X +@$o.XX.X#oX&@.@*oX.XX.. .O$$$$$+XX....$*",
"oo.o$$@ o$O+.o+##oo%$ooo%@.o%oX .X$$Xo$o.$oXo+$@X.XOX.o$%$oo$o.o+XXX.X$o+Xo+o...$$oo+XXX@$OXXX.o$oX#@X@&oXoXXXX..O$$$$$oXXXoX.$*",
"XXXoXXXX@%*%o#=@.XXXO%%%XXX X$$ ooooXXO$$Xooo.XX$$oXX.X$o.ooXoXX.$+++o.XX+$$@+X.@$&@.XXXXXooooXo%o.Xoooo..%$o$%o .Xo$$.o&Oo$$#oX",
".XXXo..X#%%%o@=o.XX.+**%XXXX %$.XooXXXX$$XX@o..X&$oX..ooX ++XXoX.$+o++..X+$$@+X.@$$+..XX..X+oX.o&o.oXooX.o*$X$*...Xo$o.o*oo$$#o.",
"ooooXXX@O#@o@@@oooXO#$$#oooooooooOXXOO$$$Xo$ooo$$$+$@ X+oooO.XoXXo+XoXo+@@oo+@X.o@&@.o@@o.XXXo@o$oX$o.oXo@$$o@ooOoo$$o.o*$+@++oX",
"##%o  o%+ooo%@.$$Xo%#oooO#$#OXo*oXXXoo$@OXo$$o$&$$o&&..o$$$o ooo. Xo.X$&$oX.o@+ X@*@.+&*@.  .o*$..o&$...$$$O$o.$$$*$X..$*$#oXX+#",
"#$%o..o%$ooo$o.#$XX%$ooO##O##Xo*oX.Xo$$$oXO$$o$$&$o$&.Xo$$@o X$oX.XXXX$&$oXXX$o.o@*@X@&&o.X.Xo&$XXX$@...$$$$$o.$&$$$oX.@*%$oOX@$",
"Xo%oo.X%oo$$o.o@@ooooooO%$Xo@%%ooXX.X@*@oXo$OXOO$+XXoo$$o... o@@@@+.$$XX$oX+@@@$$$O@@@@oX.o#oooo..XXo$$@XXXo$ooXoo@$@$$@ooo$@.@$",
".o#oX.X$oo%$.oOOooooXXoO%$XoO*%ooX..X@*$o.X$oXXX$oX.Xo&&O    oo$$$X.$&XX+X.+$+@&$$@@$@@XX o*$ooX....X%%$. Xo@@o. X@&$&*$.XX$$X+&",
"Xoooooo%@X@@.o%@oooOoXoo$oXo$$@oooX.Oo$oOoOOXXoXoXXXoo$$OXXXXoo$$+oo&&XXo+o+@$@+$&@Oo@$oXo##ooooXXX.o$@$oooOOOoXX@O@O@$o.oo$oXo@",
"oX.oo%%#oX..X$*@ooO%O XoX XO$XX@oo..#+XXX$@.  O+...o$+XX.O$$@X.@+.o&$$OXX$$oo&+.$*ooo@$oo##O..%@++ooXooo$$&+XooX@&@ XXXX.ooX.XX.",
"oo oo%%#oXX.X@*@ooO%OXooXXo@$XX$+o.X$oXoo$$.X o@X..ooooXXO$$$o.o$.+&&$OOX@$o+&+X$$oOX@$oo%#OXX**$$$oXooo$**@XXoo@&@ .XXX.oo.XooX",
"%oooo$oo@$@@ooooO%$oO$oXO$OOXXX%&$++o+$oo$$.O@.O$$oooX..O$OXX..oX.o&$@XXoooXo*@Xo@$o..XXO##oO@$@o$*XXooooo@@$oooo+XXX.X..oo.o*$*",
"%oXoo#oXo%%$oooo$%$.o*oX#$$XXXo**&#+Xo&+o$$.@$..$&$o.X..ooX.....X.o&$o Xoo..+*+.Xo$+...oO#OO$%$@+$%XXooo.Xo@&oooXX X.... oo o***",
"*OooO$OXoO%@oXoOO$OoO%Oo$$oooooO@@@OXO$@$$oO@&X.$$$XXo@oO+ooXXXXo.X@@XXX@@X +$@+o@%@.oXOOO##@@@OO%$OOXOoXooO@Ooo@XX+X@XXXXXX@*&$",
"*OXOO$OXXo%%   O%ooO@@$%*$.o$$OX..XoOO$&&OOX$*XX@oo..$*=+ @$$@@$+  . X X&@@X  +@$%%O.O%%#oO%. ..OO%%@ O$@#ooooo%@ @$&$@X   X@&$o",
"*%Xoo$OoXO%@.  $%oo$@O%%*$ o%$$XX.oXO@@&*ooo$&XX@@o.X$*=+ @@@@o@@  XXX X$@@XX X$$$%OX#%%OoO#X....O%%#.X#$@oXXoo%@ @@*$$+.X X$&@o",
"*$ooo$OXoO%@ooOooO$*Ooooooo@$$$$$@XX$@@@o@$ooo..XXXoooooX.O@XXXX+@@@X.++X$&oX +@%%oooOOoO$$#OX@@OOO%$.XO%%.Xoooo++@@XX&@XX@@oXo@",
"%OooXooXo@%@O$*o.$%*OX.X.o@OO$$*&$.X&$$XX$$@oX.. ..o+oX..XooX   X@&*X.#+.$&++Xo@*%XXoooXo%##oo*$.XOO$ XX%%..ooo.X++X X*@XoooX.o$",
"OOoooooooOOOO$$ooO$%Oooo.o@oo$$$$$XO&$@OO@@OOXXXXXXO@oo.X@oXXXXXX$$$X.$@X$&+X@@@%%oXoooXo##Ooo*$OOO%%XXX$$X.oooooX@X.X$@oo$OX.oo",
".Xo@%oXooXXX$o.Xo$$OO$%$.Xooooo o$$&@X.$$XX. .$&$&*$ooXo@$X.@@@oO@@.. @@$$#XX$$@oX$+o..ooooo@#ooOOX$*%O XOO.o@%@@ XXXXXX.$*$oX..",
" Xo%*XXooXXX$o.XXO$O$$%$..ooooXXo$&$oX $*X.  .$&$**$oXXo$$X.@@@oX$+ ..+@#$+.X&&$..%#o..ooooo#OXo#XX%**o XXXOo%%$@ X+...X.$*$ooX.",
".o@OOXo@o.oO$OXXXX#$Oo%$@oooXooo$$@@OOO@@OOOXXO@o@&oXooX@$XX@O+@@XXXXo@@++ooo+$$oo%@OOooooO$@@@@#OXO%%O.XXXO@@OoO.XXOOXOo$@ooo@@",
" XoXXXo%o o$$$o XXo%OX$*%@ X .o$$$XX@@o@o$o$ooXX.o$XX@@.@@++@XX$$.XX@$$+.XXooo$$%%%##%%ooX@%$@%$OOXO#%O.X.Xo*oXX.X..##X#*@o..o%*",
"XooX.oo@o o$$OoX.Xo%oX$*$o..X X$$$Xo@$@@$$$oooooXo$X.@@X@@++$XX@$XXX@$$o.XXooo$$%@%@###ooX@%@$@%#OOOOOO.oXXo%oXXO..X$OX#$ooXXX$*",
"Oo.o@XXoooX.oo oXXX$o oooo.XXoXXooXX$*&@ooo.o$$&oO$@XXO&+ +@$OX&&@X @@XX$+Xoo+oo@%%%$oXoOooXoXXXO##XX.OOOOOOoX.$O..OOOXXXoO...O$",
"$o O*X XXo .oX XoXX$o.XoXX XXoX Xo.X&**oXoO.oo$$oo$+oXo*+ X@@@X&*$O +$.X#oXXoooX$%%%$X oOoX.X.XXX%%X. oO++$#o. %% ..O+XX.Xo.  oO",
"$O oOoo Xo.Xoo.XoXX$#XXoOOXXXXXXooXX$$$+XoO.oo&&o$$oXX@@XXX@$@X@@&@X@+.XooXXooo.o$%%%o.OO@@OOoXXX@#XXOOOo+@#.Xo%$OOOoooX.oooXO@$",
"%O   $o .XXo%oXoooO%$%X.%%*o .X Xo...Xoo$$O o$&**&$o.$$XX XX$@X.X$+ XX .XoX.ooX.oo@$=OXXo**%%#..X##.o*@Oo++X.#*%OoOOoXooXoO$$%%*",
"*o   $O Xooo%#ooXoO%%%XX%**X X  .o...Xoo+$@ +$&**&oX.$$o. .X@+X .$@XXX .XXX.ooX.oo@%*@XXo**%%$...##.o%$oo+oo.#*@OoO@ooooXoO$%$**"
};
