/* XPM */
static char *Bed[] = {
/* columns rows colors chars-per-pixel */
"128 128 249 2",
"   c black",
".  c #06070B",
"X  c #0F0A01",
"o  c #0A090B",
"O  c #070810",
"+  c #080A14",
"@  c #120C01",
"#  c #130F08",
"$  c #151008",
"%  c #1D1403",
"&  c #19191D",
"*  c #1C1C22",
"=  c #201602",
"-  c #251A04",
";  c #291C04",
":  c #261F15",
">  c #2E2006",
",  c #272017",
"<  c #2A231D",
"1  c #382705",
"2  c #25252A",
"3  c #252630",
"4  c #282630",
"5  c #2A2936",
"6  c #2B2C3D",
"7  c #2D3434",
"8  c #312B24",
"9  c #33343F",
"0  c #2D3345",
"q  c #2F3048",
"w  c #2E3355",
"e  c #2A335C",
"r  c #303149",
"t  c #393941",
"y  c #2F3760",
"u  c #313A69",
"i  c #383F6E",
"p  c #333E71",
"a  c #314157",
"s  c #31445B",
"d  c #354864",
"f  c #344B6A",
"g  c #3A416E",
"h  c #384C6D",
"j  c #344375",
"k  c #364179",
"l  c #394171",
"z  c #34516E",
"x  c #375B7B",
"c  c #385477",
"v  c #385D7E",
"b  c #422C05",
"n  c #4A3205",
"m  c #553A07",
"M  c #553A08",
"N  c #5B3D05",
"B  c #5A3E0C",
"V  c #443D36",
"C  c #613F00",
"Z  c #5F4007",
"A  c #5E4009",
"S  c #634103",
"D  c #634308",
"F  c #684506",
"G  c #694708",
"H  c #6C490A",
"J  c #754C00",
"K  c #734E09",
"L  c #7E5304",
"P  c #7D550A",
"I  c #785516",
"U  c #7A5715",
"Y  c #454E5B",
"T  c #494953",
"R  c #4A5769",
"E  c #6E6864",
"W  c #6C6C77",
"Q  c #6D6D78",
"!  c #3B4783",
"~  c #3A4A84",
"^  c #3E4A8B",
"/  c #3E4E91",
"(  c #385F81",
")  c #385A8B",
"_  c #395F92",
"`  c #396082",
"'  c #3A668E",
"]  c #3C6897",
"[  c #3C68A5",
"{  c #3D69AB",
"}  c #3E6FB3",
"|  c #3F70B4",
" . c #404C8F",
".. c #414F94",
"X. c #425398",
"o. c #455398",
"O. c #525E9E",
"+. c #4756A2",
"@. c #415BA1",
"#. c #4857A5",
"$. c #4858A5",
"%. c #4A5BAB",
"&. c #4B5FB0",
"*. c #597091",
"=. c #4464AB",
"-. c #4769B4",
";. c #4B68BA",
":. c #4372BC",
">. c #5261AC",
",. c #5E6BAF",
"<. c #5C6BB2",
"1. c #646FA8",
"2. c #6771AB",
"3. c #607BA4",
"4. c #6E76AB",
"5. c #6573B0",
"6. c #6C79B0",
"7. c #6E7BBB",
"8. c #727BB2",
"9. c #4477C2",
"0. c #4478C3",
"q. c #467FCD",
"w. c #4877C4",
"e. c #4B7BCF",
"r. c #4A7FD4",
"t. c #507ECB",
"y. c #6584B2",
"u. c #7B83B3",
"i. c #4582CA",
"p. c #458BCF",
"a. c #4C80D5",
"s. c #4B85DA",
"d. c #498AD7",
"f. c #4792DF",
"g. c #5487D5",
"h. c #5D8DD4",
"j. c #5B91DB",
"k. c #4B8BE1",
"l. c #4C97EE",
"z. c #499AEA",
"x. c #4B9EF5",
"c. c #4EA0F7",
"v. c #4CA6FF",
"b. c #4DA8FF",
"n. c #51A3F7",
"m. c #54A5F9",
"M. c #56A8FB",
"N. c #5BACFE",
"B. c #608BCF",
"V. c #618ED2",
"C. c #6398DC",
"Z. c #6996D5",
"A. c #6F9BD5",
"S. c #6A9DDC",
"D. c #709CD5",
"F. c #729ED8",
"G. c #789ED3",
"H. c #7AA2D8",
"J. c #7BA4DA",
"K. c #71A4E2",
"L. c #7DB1EB",
"P. c #80570A",
"I. c #855A0B",
"U. c #895A02",
"Y. c #8F6008",
"T. c #896116",
"R. c #976403",
"E. c #996608",
"W. c #866324",
"Q. c #896626",
"!. c #8A6827",
"~. c #8B6928",
"^. c #B67802",
"/. c #B17E1D",
"(. c #857F7D",
"). c #87807F",
"_. c #C68201",
"`. c #CB8501",
"'. c #D38A02",
"]. c #D98E02",
"[. c #DC9001",
"{. c #C48B20",
"}. c #D29523",
"|. c #EC9A00",
" X c #888996",
".X c #8B8B98",
"XX c #918A87",
"oX c #858DB9",
"OX c #9696A2",
"+X c #999DBC",
"@X c #A3A3AD",
"#X c #BCB5B3",
"$X c #8D96C5",
"%X c #959CC0",
"&X c #939CCC",
"*X c #86ACDE",
"=X c #9AA2CC",
"-X c #87B3E7",
";X c #81B4ED",
":X c #88B3E7",
">X c #8AB6E9",
",X c #8FBBED",
"<X c #92BBEB",
"1X c #99BFEC",
"2X c #A0A7CA",
"3X c #A6ABC3",
"4X c #AEAEC0",
"5X c #A5ADD5",
"6X c #AFB5D2",
"7X c #AFB6D9",
"8X c #B7B7C7",
"9X c #BEBECD",
"0X c #8FC3F9",
"qX c #9BC1EE",
"wX c #93C6FB",
"eX c #97CAFE",
"rX c #9DC9F7",
"tX c #A2CDFA",
"yX c #A6D2FF",
"uX c #ACD3FB",
"iX c #B0D7FF",
"pX c #CCC6C0",
"aX c #C5C5D2",
"sX c #C9C9D5",
"dX c #CDCDD9",
"fX c #CDD0DF",
"gX c #D2CBC4",
"hX c #DBD5C9",
"jX c #D1D1DA",
"kX c #C8CFE0",
"lX c #CDD0E4",
"zX c #D5D6E2",
"xX c #D5DBE7",
"cX c #DEDEE6",
"vX c #DADEED",
"bX c #DAE0EB",
"nX c #E4DDD1",
"mX c #E7E1D4",
"MX c #E8E1D4",
"NX c #E4E4EA",
"BX c #E8E8ED",
"VX c #E7EDF4",
"CX c #EDEDF1",
"ZX c #EFF4FA",
"AX c #F2F2F4",
"SX c #F1F5FA",
"DX c #F3F9FE",
"FX c #FDFDFD",
"GX c None",
/* pixels */
"GXGXGXGXGXGXGXGXGXGXGXGXGXGXGXGXGXGXGXGXGXGXGXGXGXGXGXGXGXGXGXGXGXGXGXGXGXGXGXGXGXGXGXGXGXGXGXGXGXGXGXGXGXGXGXGXGXGXGXGXGXGXGXGXGXGXGXGXGXGXGXGXGXGXGXGXGXGXGXGXGXGXGXGXGXGXGXGXGXGXGXGXGXGXGXGXGXGXGXGXGXGXGXGXGXGXGXGXGXGXGXGXGXGXGXGXGXGXGXGXGXGXGXGXGXGXGXGX",
"GXGXGXGXGXGXGXGXGXGXGXGXGXGXGXGXGXGXGXGXGXGXGXGXGXGXGXGXGXGXGXGXGXGXGXGXGXGXGXGXGXGXGXGXGXGXGXGXGXGXGXGXGXGXGXGXGXGXGXGXGXGXGXGXGXGXGXGXGXGXGXGXGXGXGXGXGXGXGXGXGXGXGXGXGXGXGXGXGXGXGXGXGXGXGXGXGXGXGXGXGXGXGXGXGXGXGXGXGXGXGXGXGXGXGXGXGXGXGXGXGXGXGXGXGXGXGXGX",
"GXGXGXGXGXGXGXGXGXGXGXGXGXGXGXGXGXGXGXGXGXGXGXGXGXGXGXGXGXGXGXGXGXGXGXGXGXGXGXGXGXGXGXGXGXGXGXGXGXGXGXGXGXGXGXGXGXGXGXGXGXGXGXGXGXGXGXGXGXGXGXGXGXGXGXGXGXGXGXGXGXGXGXGXGXGXGXGXGXGXGXGXGXGXGXGXGXGXGXGXGXGXGXGXGXGXGXGXGXGXGXGXGXGXGXGXGXGXGXGXGXGXGXGXGXGXGXGX",
"GXGXGXGXGXGXGXGXGXGXGXGXGXGXGXGXGXGXGXGXGXGXGXGXGXGXGXGXGXGXGXGXGXGXGXGXGXGXGXGXGXGXGXGXGXGXGXGXGXGXGXGXGXGXGXGXGXGXGXGXGXGXGXGXGXGXGXGXGXGXGXGXGXGXGXGXGXGXGXGXGXGXGXGXGXGXGXGXGXGXGXGXGXGXGXGXGXGXGXGXGXGXGXGXGXGXGXGXGXGXGXGXGXGXGXGXGXGXGXGXGXGXGXGXGXGXGXGX",
"GXGXGXGXGXGXGXGXGXGXGXGXGXGXGXGXGXGXGXGXGXGXGXGXGXGXGXGXGXGXGXGXGXGXGXGXGXGXGXGXGXGXGXGXGXGXGXGXGXGXGXGXGXGXGXGXGXGXGXGXGXGXGXGXGXGXGXGXGXGXGXGXGXGXGXGXGXGXGXGXGXGXGXGXGXGXGXGXGXGXGXGXGXGXGXGXGXGXGXGXGXGXGXGXGXGXGXGXGXGXGXGXGXGXGXGXGXGXGXGXGXGXGXGXGXGXGXGX",
"GXGXGXGXGXGXGXGXGXGXGXGXGXGXGXGXGXGXGXGXGXGXGXGXGXGXGXGXGXGXGXGXGXGXGXGXGXGXGXGXGXGXGXGXGXGXGXGXGXGXGXGXGXGXGXGXGXGXGXGXGXGXGXGXGXGXGXGXGXGXGXGXGXGXGXGXGXGXGXGXGXGXGXGXGXGXGXGXGXGXGXGXGXGXGXGXGXGXGXGXGXGXGXGXGXGXGXGXGXGXGXGXGXGXGXGXGXGXGXGXGXGXGXGXGXGXGXGX",
"GXGXGXGXGXGXGXGXGXGXGXGXGXGXGXGXGXGXGXGXGXGXGXGXGXGXGXGXGXGXGXGXGXGXGXGXGXGXGXGXGXGXGXGXGXGXGXGXGXGXGXGXGXGXGXGXGXGXGXGXGXGXGXGXGXGXGXGXGXGXGXGXGXGXGXGXGXGXGXGXGXGXGXGXGXGXGXGXGXGXGXGXGXGXGXGXGXGXGXGXGXGXGXGXGXGXGXGXGXGXGXGXGXGXGXGXGXGXGXGXGXGXGXGXGXGXGXGX",
"B B B B B B B A J J J J J J J J J J J J J J J J J J J J J J J J J J J J J J J J J J J J J J J J J J J J J J J J J J J J J J J K J J J J J J J J J J J J J J J J J J J J J J J J J J J J J J J J J J J J J J J J J J J J J J J J F F F F F F F F F GXGXGXGXGXGXGX",
"B B B B B B B A K J J J J J J J J J J J J J J J J J J J J J J J J J J J J J J J J J J J J J J J J J J J J J J J J J J J J J J J J J J J J J J J J J J J J J J J J J J J J J J J J J J J J J J J J J J J J J J J J J J J J J J J F H F F F F F F F GXGXGXGXGXGXGX",
"B B B B B B B B K J J J J J J J J J J J J J J J J J J J J J J J J J J J J J J J J J J J J J J J J J J J J J J J J J J J J J J J J J J J J J J J J J J J J J J J J J J J J J J J J J J J J J J J J J J J J J J J J J J J J J J J F C F F F F F F F GXGXGXGXGXGXGX",
"B B B B B B B A H J J J J J J J J J J J J J J J J J J J J J J J J J J J J J J J J J J J J J J J J J J J J J J J J J J J J J J J J J J J J J J J J J J J J J J J J J J J J J J J J J J J J J J J J J J J J J J J J J J J J J J J F F F F F D F F F GXGXGXGXGXGXGX",
"B B B B B B B A J J J J J J J J J J J J J L J J J J J J J J J J J J J J J J J J J J J J J J J J J J J J J J J J J J J J J J J J J J J J J J J J J J J J J J J J J J J J J J J J J J J J J J J J J J J J J J J J J J J J J J J J F F F F F F F F F GXGXGXGXGXGXGX",
"B B B B B B B B J J J J J J J J J J J J J J J J J J J J J J J J J J J J J J J J J J J J J J J J J J J J J J J J J J J J J J J J J J J J J J J J J J J J J J J J J J J J J J J J J J J J J J J J J J J J J J J J J J J J J J J J F F F F F F F D F GXGXGXGXGXGXGX",
"B B B B B B B A F J J J J J J J J J J J J J J J J J J J J J J J J J J J J J J J J J J J J J J J J J J J J J J J J J J J J J J J J J J J J J J J J J J J J J J J J J J J J J J J J J J J J J J J J J J J J J J J J J J J J J J J H F F F F F F F F GXGXGXGXGXGXGX",
"B B B B B B B B J J J J J J J J J J J J J J J J J J J J J J J J J J J J J J J J J J J J J J J J J J J J J J J J J J J J J J J J J J J J J J J J J J J J J J J J J J J J J J J J J J J J J J J J J J J J J J J J J J J J J J L J F F F F D F F D F GXGXGXGXGXGXGX",
"M M n M M M n B N C C C C C S C C S C C C C S C S S C S S S S F I I I I I I I I Q.~.~.~.~.!.!.!.Q.W.W.Q.W.W.Q.W.W.W.W.I W.W.W.I W.W.Q.W.W.W.W.Q.!.!.!.~.~.~.~.~.Q.W.W.W.W.W.W.W.K F H F F F F S S S S S S S S C S S S S S C C C N m N N N N N N N GXGXGXGXGXGXGX",
"> > > > > > > ; @ @ @ @ @ @ @ @ @ @ @ @ @ @ @ @ @ @ @ @ @ @ @ , E ).).).(.(.).XXhXmXmXmXMXMXMXnXgXgXgXgXgXgXgXpX#X#X#X#X#X#X#X#XgXgXgXgXgXgXgXgXhXMXnXMXMXMXnXnXgXgXgXgXgXgXgX#XV 8 8 8 8 8 8 8 % @ @ @ @ @ @ @ @ @ @ @ @ @ @ @ = = = = = = = = = GXGXGXGXGXGXGX",
"- - - - - - - % X                                             & Q .X.X.X X X XOXAXFXFXFXFXFXFXFXBXNXNXNXNXNXNXcXkXsXkXsXkXsXsXdXNXNXNXNXNXNXNXVXFXFXFXFXFXFXFXFXCXNXNXNXNXNXNXdXt 3 3 * 2 4 * * .                               X @ @ @ @ @ @ @ @ GXGXGXGXGXGXGX",
"- - - - - - - %                                               & W .X X X X X XOXAXFXFXFXFXFXFXFXBXNXNXNXNXNXNXcXdXaXsXsXsXaXsXsXNXNXNXNXNXNXNXBXFXFXFXFXFXFXFXFXBXNXNXNXNXNXNXdXt 2 2 3 2 3 3 * .                               X @ @ @ # @ @ @ @ GXGXGXGXGXGXGX",
"- - - - - - ; % X                                             & W .X X X X X XOXAXFXFXFXFXFXFXAXBXNXNXNXNXNXNXcXdXsXsXsXsXsXsXdXcXNXNXNXNXNXNXNXFXFXFXFXFXFXFXFXBXNXNXNXNXNXNXsXt * 2 4 2 * 3 * .                             X X @ @ @ @ @ @ @ @ GXGXGXGXGXGXGX",
"- ; ; - - - - %                                               * Q .X.X X X X XOXBXFXFXFXFXFXFXFXBXNXNXNXNXNXNXcXdXsXsXsXsXaXsXsXcXNXNXNXNXNXNXNXAXFXFXFXFXFXFXSXNXNXNXNXNXNXNXgXt 4 4 * 2 2 2 * .                               X @ @ # @ @ @ @ @ GXGXGXGXGXGXGX",
"- - - - - - - =                                               & Q .X X X X X XOXAXFXFXFXFXFXFXFXNXNXNXNXNXNXNXcXdXsXsXsXsXsXsXsXNXNXNXNXNXNXNXBXFXFXFXFXFXFXFXFXNXNXNXNXNXNXNXsXt * 2 2 3 2 2 * .                               X @ @ @ @ @ # @ @ GXGXGXGXGXGXGX",
"- - - - - - - % X                                             & Q .X X X X X XOXAXFXFXFXFXFXFXAXBXNXNXNXNXNXNXcXdXsXaXsXsXsXsXsXcXNXNXNXNXNXNXBXSXFXFXFXFXFXFXFXBXNXNXNXNXNXNXsXt 3 * 2 2 * 2 & .                               X @ @ @ @ @ @ @ @ GXGXGXGXGXGXGX",
"- - - - - - - % o . . o . O O O o + + o + O + O + + + + + + + 4 Q OXOXOXOXOXOX@XAXFXFXFXFXFXFXFXBXNXBXNXBXBXBXcXzXdXdXfXdXjXjXjXNXBXNXBXNXBXBXVXFXFXFXFXFXFXFXFXBXNXBXBXNXBXBXjXT 9 t 9 t 0 0 6 & + + + + + + + O . . O . . O . # $ $ $ $ $ $ $ $ GXGXGXGXGXGXGX",
"- - - - - - - < q e e e e e e y p k p p k p p k ....o.........1.lXAXAXAXAXAXAXAXFXFXFXFXFXFXFXFXFXFXFXFXFXFXFXSXFXSXFXAXFXAXFXSXFXFXFXFXFXFXFXFXFXFXFXFXFXFXFXFXFXFXFXFXFXFXFXCX2X+X+X%X+X%X%XoXO./ ........../ e e e e e e e e 5 4 4 4 4 4 4 4 4 GXGXGXGXGXGXGX",
"- - - - - - - , w u u u u u u p ^ ^  .^  .^ / / $.%.%.%.%.%.%.7.vXFXFXFXFXFXFXFXFXFXFXFXFXFXFXFXFXFXFXFXFXFXFXFXFXFXFXFXFXFXFXFXFXFXFXFXFXFXFXFXFXFXFXFXFXFXFXFXFXFXFXFXFXFXFXSX7X5X5X5X5X5X5X&X<.%.%.%.%.%.%.#.p u u u u u u y 0 5 5 5 5 5 5 5 5 GXGXGXGXGXGXGX",
"- - - - - - - , w u u u u u u u ! ^ ^ ^ ^ ^ ^ ^ $.%.%.%.%.%.%.7.vXFXFXFXFXFXFXFXFXFXFXFXFXFXFXFXFXFXFXFXFXFXFXFXFXFXFXFXFXFXFXFXFXFXFXFXFXFXFXFXFXFXFXFXFXFXFXFXFXFXFXFXFXFXFXAX7X5X5X5X5X5X5X&X<.#.%.%.%.%.%.#.p u y u u u u y 6 5 5 5 5 5 5 5 5 GXGXGXGXGXGXGX",
"; - - - - - - , w u u u u y u u ! ^ ^ ^ ^ ^ ^ ^ $.%.%.%.%.%.$.7.vXFXFXFXFXFXFXFXFXFXFXFXFXFXFXFXFXFXFXFXFXFXFXFXFXFXFXFXFXFXFXFXFXFXFXFXFXFXFXFXFXFXFXFXFXFXFXFXFXFXFXFXFXFXFXSX7X5X5X5X5X5X5X&X<.%.%.%.%.%.%.#.p u u u u u u e 0 5 5 5 5 5 5 5 5 GXGXGXGXGXGXGX",
"- - - - - - - , w u u u u u u p ! ^ ^ ^ ^ ^ ^ ^ #.%.%.%.%.%.$.7.vXFXFXFXFXFXFXFXFXFXFXFXFXFXFXFXFXFXFXFXFXFXFXFXFXFXFXFXFXFXFXFXFXFXFXFXFXFXFXFXFXFXFXFXFXFXFXFXFXFXFXFXFXFXFXSX7X5X5X5X5X5X5X&X<.%.%.%.%.%.%.+.p u u u u u u y 5 5 5 5 5 5 5 5 5 GXGXGXGXGXGXGX",
"- - - - - - - , w u u u u u u u ! ^ ^ ^ ^ ^ ^ ^ #.%.%.%.%.%.%.7.vXFXFXFXFXFXFXFXFXFXFXFXFXFXFXFXFXFXFXFXFXFXFXFXFXFXFXFXFXFXFXFXFXFXFXFXFXFXFXFXFXFXFXFXFXFXFXFXFXFXFXFXFXFXFXSX7X5X5X5X5X5X5X&X<.#.%.%.%.%.%.+.p u u u u u u y q 3 5 5 5 5 5 5 5 GXGXGXGXGXGXGX",
"- - - - - - - , w u u u u u u p ! ^ ^ ^ ^ ! ^ / #.%.%.%.%.%.$.7.vXFXFXFXFXFXFXFXFXFXFXFXFXFXFXFXFXFXFXFXFXFXFXFXFXFXFXFXFXFXFXFXFXFXFXFXFXFXFXFXFXFXFXFXFXFXFXFXFXFXFXFXFXFXFXSX7X5X5X5X5X5X5X=X<.$.%.%.%.%.%.+.p u u u u u u y 5 5 5 5 5 5 5 5 5 GXGXGXGXGXGXGX",
"- - - - - - - , w u u u u u u u ! ^ ! ^ ^ ^ ^ / #.%.%.%.%.%.%.7.lXAXCXCXCXAXCXAXFXFXFXFXFXFXFXFXFXFXFXFXFXFXFXFXFXFXFXFXFXFXFXFXFXFXFXFXFXFXFXFXFXFXFXFXFXFXFXFXFXAXFXAXFXAXFXCX5X&X=X=X=X=X=X$X<.%.%.%.%.%.%.#.p y u u u u u e q 5 5 5 5 5 5 5 5 GXGXGXGXGXGXGX",
"- - - - - - - , w u u u u u u u ! ^ ^ ^ ^ ! ^ ^ %.%.%.%.%.%.%.<.3X9X9X9X9X9X9XaXDXFXFXFXFXFXFXFXFXFXFXFXFXFXFXFXFXFXFXFXFXFXFXFXFXFXFXFXFXFXFXFXFXFXFXFXFXFXFXFXCXNXBXNXBXBXBXcXoX8.oX8.8.8.oX8.&.%.%.%.%.%.%.+.p u u u u u u y 0 5 5 5 5 5 5 5 5 GXGXGXGXGXGXGX",
"- - - - - - - , w u u u u u u u ! ^ ^ ^ ^ ^ ^  .#.%.%.%.%.%.%.,.+X4X8X@X4X4X@X9XAXFXFXFXFXFXFXFXFXFXFXFXFXFXFXFXFXFXFXFXFXFXFXFXFXFXFXFXFXFXFXFXFXFXFXFXFXFXFXFXBXNXNXNXNXNXNXzXu.4.4.4.4.2.4.2.>.%.%.%.%.%.%.+.p u u u u u u y 5 3 5 5 5 5 5 5 5 GXGXGXGXGXGXGX",
"- - - - - - - , w u u u u u u u ! ^ ! ^ ^ ^ ! ^ #.%.%.%.%.%.%.,.%X4X4X4X4X4X4X8XSXFXFXFXFXFXFXFXFXFXFXFXFXFXFXFXFXFXFXFXFXFXFXFXFXFXFXFXFXFXFXFXFXFXFXFXFXFXFXAXBXNXNXNXNXNXNXzXoX4.4.4.4.4.4.2.%.%.%.%.%.%.%.+.p u u u u u u y 0 5 5 5 5 5 5 5 5 GXGXGXGXGXGXGX",
"- - - - - - - , w u u u u u u p ! ^ ^ ^ ^ ^ ^ ^ #.%.%.%.%.%.#.,.%X4X4X4X4X4X4X8XAXFXFXFXFXFXFXFXFXFXFXFXFXFXFXFXFXFXFXFXFXFXFXFXFXFXFXFXFXFXFXFXFXFXFXFXFXFXFXFXNXNXNXNXNXNXNXzX8.4.4.4.4.4.4.2.>.%.%.%.%.%.%.+.u u u u u y u y 0 5 5 5 5 5 5 5 5 GXGXGXGXGXGXGX",
"- - - - - - - , w u u u u u u u ! ^ ^ ^ ^ ^ ^ ^ %.%.%.%.%.%.%.,.+X4X4X4X4X4X4X8XSXFXFXFXFXFXFXFXFXFXFXFXFXFXFXFXFXFXFXFXFXFXFXFXFXFXFXFXFXFXFXFXFXFXFXFXFXFXFXSXBXNXNXNXNXNXNXzXu.4.4.4.4.4.4.2.>.%.%.%.%.%.%.+.p u u u u u u y 3 5 5 5 5 5 5 5 5 GXGXGXGXGXGXGX",
"- - - - - - - , w u u u u u u u ! ^ ^ ^ ^ ^ ^ ^ #.%.%.%.%.%.%.<.+X4X4X4X4X4X4X8XAXFXFXFXFXFXFXFXFXFXFXFXFXFXFXFXFXFXFXFXFXFXFXFXFXFXFXFXFXFXFXFXFXFXFXFXFXFXFXFXBXNXNXNXNXNXNXzXu.4.4.4.4.4.4.2.>.%.%.%.%.%.%.+.p u u u u u u y q 5 5 5 5 5 5 5 5 GXGXGXGXGXGXGX",
"- - - - - - - , w u y u u u u u ! ^ ^ ^ ^ ^ ^ ^ #.%.%.%.%.%.%.<.+X4X4X4X4X4X4X8XAXFXFXFXFXFXFXFXFXFXFXFXFXFXFXFXFXFXFXFXFXFXFXFXFXFXFXFXFXFXFXFXFXFXFXFXFXFXFXFXBXNXNXNXNXNXNXzXoX4.4.4.4.4.4.2.>.%.%.%.%.%.%.+.p u u u u u u y 6 3 6 5 5 5 5 3 5 GXGXGXGXGXGXGX",
"- - - - - - - 2 e j p j p j j k ^ / / / / /  . .%.%.&.&.&.&.%.<.%X4X4X3X3X3X3X6XVXDXZXZXDXSXSXDXDXDXDXDXDXDXDXSXDXDXDXDXDXDXDXDXDXDXDXDXDXDXDXDXDXDXDXDXDXDXSXZXbXxXxXjXxXxXxXkX8.4.4.4.6.6.8.5.>.%.&.&.&.&.%.%.j p p p p p p d q 3 6 6 6 6 6 6 6 GXGXGXGXGXGXGX",
"- - - - - - - < ) { { { { { { { :.:.:.:.:.:.9.9.e.t.e.r.e.e.e.r.A.G.G.F.G.G.G.H.<XqX1X1X1X1X1XqXuXiXiXiXiXiXiXiXiXiXiXiXiXiXiXiXiXiXiXiXiXiXiXiXiXiXiXiXiXiXiXyX*XH.J.J.*XH.H.H.V.B.B.B.B.B.B.g.e.e.e.e.e.e.e.w.-.{ { { { { { ] d a a a a a a a w GXGXGXGXGXGXGX",
"- - - - - - - 8 ] | | | } | | | 9.0.9.9.0.0.0.0.r.r.r.r.r.r.r.g.Z.D.D.D.A.D.A.F.:X>X>X>X>X>X>X,XtXyXyXyXyXyXyXtXyXyXyXyXyXyXyXyXyXyXyXyXyXyXyXyXyXyXyXyXyXyXyXrXJ.D.A.A.Z.D.D.D.j.h.V.h.h.h.h.h.g.r.a.r.r.r.e.e.| | -.| | | | [ z s s s s s s s s GXGXGXGXGXGXGX",
"- - - - - - - 2 _ | | | | | | | 9.9.9.0.0.0.0.9.r.r.r.r.r.g.r.g.Z.D.D.A.A.A.D.F.:X>X>X>X>X>X>X,XtXyXyXyXyXyXyXyXyXyXyXyXyXyXyXyXyXyXyXyXyXyXyXyXyXyXyXyXyXyXyXrXJ.A.A.D.Z.D.D.Z.h.h.h.h.h.h.h.h.a.e.r.r.a.i.r.a.9.-.| | | | | [ f a s s s s s s s GXGXGXGXGXGXGX",
"- - - - - - > 2 _ | | } | | | | 9.w.0.9.0.0.0.e.r.r.r.r.r.r.r.g.Z.D.A.D.A.D.D.F.:X>X>X>X>X>X>X,XtXyXyXyXyXyXyXyXyXyXyXyXyXyXyXyXyXyXyXyXyXyXyXyXyXyXyXyXyXyXyXrXJ.A.A.A.D.D.D.D.V.h.h.h.h.h.h.g.a.a.e.r.s.e.r.i.w.:.| | | | | [ f s s s s s s s s GXGXGXGXGXGXGX",
"- - - - % > % 2 _ | | | | } } | 9.9.9.9.0.9.9.e.r.r.r.r.r.r.r.g.Z.A.A.A.D.A.D.F.:X>X>X>X>X>X>X,XtXyXyXyXyXyXyXyXyXyXyXyXyXyXyXyXyXyXyXyXyXyXyXyXyXyXyXyXyXyXyXrXJ.A.D.D.D.D.D.A.j.V.h.h.h.h.h.h.g.i.a.a.s.e.a.e.| | | | | | | { f a s s s s s s s GXGXGXGXGXGXGX",
"- - - - > = - 8 _ | | | | | | | 9.9.9.9.0.9.9.w.r.r.r.r.r.r.r.g.Z.A.A.D.D.D.A.D.>X>X>X>X>X>X>X,XtXyXyXyXyXyXyXyXyXyXyXyXyXyXyXyXyXyXyXyXyXyXyXyXyXyXyXyXyXyXyXrXJ.A.D.D.D.D.A.A.V.h.h.h.h.h.h.g.a.r.e.a.a.s.a.e.| | | | | | | [ z a s s s s s s s GXGXGXGXGXGXGX",
"- - - - = > > 2 _ | | | } } | | 9.9.9.9.9.0.w.w.r.r.r.r.r.r.r.g.Z.D.D.D.D.D.D.F.-X>X>X>X>X>X>X,XyXyXyXyXyXyXyXyXyXyXyXyXyXyXyXyXyXyXyXyXyXyXyXyXyXyXyXyXyXyXyXrXJ.A.D.D.Z.A.D.A.V.h.h.h.h.h.V.h.g.i.r.e.i.a.e.e.9.| | | | | | { z s s s s s s s s GXGXGXGXGXGXGX",
"- - - - = > % 2 ] 0.0.| 0.0.0.0.q.q.q.q.q.r.r.e.r.k.r.j.s.s.s.g.C.S.S.S.S.S.S.S.L.;X;X;X;X;X;X;XwXeXeXeXeXeXeXeXeXeXeXeXeXeXeXeXeXeXeXeXeXeXeXeXeXeXeXeXeXeXeX0XK.S.S.S.S.S.S.S.j.j.j.j.j.j.j.h.s.s.s.s.s.s.s.d.0.0.| 0.| i.| | z s d d d d s d d GXGXGXGXGXGXGX",
"- - - - - - - 7 i.x.x.z.x.z.x.z.c.x.x.x.x.x.x.x.c.x.x.c.c.c.x.c.n.n.n.n.n.n.n.n.M.M.M.M.M.M.m.M.N.N.N.N.N.N.N.N.N.N.N.N.N.N.N.N.N.N.N.N.N.N.N.N.N.N.N.N.N.N.N.N.m.n.n.n.n.n.n.n.c.c.c.c.n.n.c.c.n.x.x.x.x.x.x.x.x.z.x.x.x.x.x.f.' x x x v v v v v GXGXGXGXGXGXGX",
"- - - - - ; - 7 p.b.v.v.v.v.v.v.v.v.v.v.v.v.v.v.v.v.v.v.v.v.v.v.v.v.v.v.v.v.v.v.v.v.v.v.v.v.v.v.v.v.v.v.v.x.v.v.v.v.v.v.v.v.v.x.v.v.v.v.v.v.v.v.v.v.v.v.v.v.v.v.v.v.v.v.v.v.v.v.v.v.v.v.v.v.v.v.v.v.b.v.b.v.v.v.v.v.v.v.v.v.v.z.] v v ` ` ` v v v GXGXGXGXGXGXGX",
"- - - - - - - 7 p.b.v.v.v.v.v.v.v.v.v.v.v.v.v.v.v.v.v.v.v.v.v.v.v.v.v.v.v.v.v.v.v.v.v.v.v.v.v.v.v.v.v.v.v.v.v.v.v.v.v.v.v.v.v.v.v.v.v.v.v.v.v.v.v.v.v.v.v.v.v.v.v.v.v.v.v.v.v.v.v.v.v.v.v.v.v.v.v.v.v.v.v.v.v.v.v.v.v.v.v.v.b.z.] ` ` ` v ` v v v GXGXGXGXGXGXGX",
"- - - - - - - 7 p.v.v.v.v.v.v.v.v.v.v.v.v.v.v.v.v.v.v.v.v.v.v.v.v.v.v.v.v.v.v.v.v.v.v.v.v.v.v.v.v.v.v.v.v.v.v.v.v.v.v.v.v.v.v.v.v.v.v.v.v.v.v.v.v.v.v.v.v.v.v.v.v.v.v.v.v.v.v.v.v.v.v.v.v.v.v.v.v.v.v.v.v.v.v.v.v.v.v.v.v.v.v.z.] ` ` ` ` ` ` ' ` GXGXGXGXGXGXGX",
"- - - - - - - 7 p.b.b.v.v.v.v.v.v.v.v.v.v.v.v.v.v.v.v.v.v.v.v.v.v.v.v.v.v.v.v.v.v.v.v.v.v.v.v.v.v.v.v.v.v.v.v.v.v.v.v.m.v.v.v.v.v.v.v.v.v.v.v.v.v.v.v.v.v.v.v.v.v.v.v.v.v.v.v.v.v.v.v.v.v.v.v.v.v.v.v.v.v.v.v.v.v.v.v.v.v.v.v.z.] v ` ` ` v v v ` GXGXGXGXGXGXGX",
"- - - - - - - 7 p.b.b.v.v.v.v.v.v.v.v.v.v.v.v.v.v.v.v.v.v.v.v.v.v.v.v.v.v.v.v.v.v.v.v.v.v.v.v.v.v.v.v.v.v.v.v.v.v.v.v.v.v.v.v.v.v.v.v.v.v.v.v.v.v.v.v.v.v.v.v.v.v.v.v.v.v.v.v.v.v.v.v.v.v.v.v.v.v.v.v.v.v.v.v.v.v.v.v.v.v.b.v.z.] v ` v v ' v v ` GXGXGXGXGXGXGX",
"- - - - - - - 7 d.b.v.v.v.v.v.v.v.v.b.v.v.v.v.v.v.v.v.v.v.v.v.v.v.v.v.v.v.v.v.v.v.v.v.v.v.v.m.v.v.v.v.v.v.v.v.v.v.v.v.v.v.v.m.v.v.v.v.b.v.v.v.v.v.v.v.v.v.v.v.v.v.v.v.v.v.v.m.m.v.v.v.v.v.v.v.v.v.v.v.v.b.v.v.v.v.v.v.v.b.b.b.z.] v v v v v v v v GXGXGXGXGXGXGX",
"- - - - - - - 7 0.z.k.z.l.k.z.l.l.z.l.l.l.l.l.z.l.l.l.l.l.l.l.l.l.l.l.l.l.l.l.l.l.l.l.l.l.l.l.l.l.l.l.l.l.l.l.l.l.l.l.l.l.l.l.l.l.l.l.l.l.l.l.l.l.l.l.l.l.l.l.l.l.l.l.l.l.l.l.l.l.l.l.l.l.l.l.l.l.l.l.l.l.l.l.l.l.l.l.l.l.l.l.d.' z x z x x x z z GXGXGXGXGXGXGX",
"- - - - - - - < x [ X.@.@.@.@.$.-.;.;.;.;.;.;.;.;.;.;.;.&.;.;.;.;.;.;.;.;.;.;.;.;.;.;.;.;.;.;.;.;.;.;.;.;.;.;.;.;.;.;.;.;.;.;.;.;.&.;.;.;.;.;.&.;.;.;.;.;.;.;.;.;.;.;.;.;.;.;.;.;.;.;.;.;.;.;.;.;.;.;.;.;.;.;.;.;.;.;.;.;.;.;.$.a 0 0 0 0 0 0 0 0 GXGXGXGXGXGXGX",
"- - - - - - - < j ~ ^ ^ ! ^ ! ^ #.%.%.%.%.%.%.$.%.%.%.$.%.%.%.%.%.%.%.%.#.%.%.%.%.#.%.%.%.%.%.$.%.%.%.%.%.%.$.%.%.$.%.%.%.%.$.%.%.%.%.%.%.%.%.%.%.%.%.%.#.%.%.%.%.$.%.%.%.$.$.%.%.%.%.$.%.%.#.%.%.%.%.%.#.%.%.%.%.%.%.$.%.%.%.o.0 5 5 5 5 5 5 5 5 GXGXGXGXGXGXGX",
"- - - - - - - < l ^ ^ ^ ! ^ ^ ..#.%.%.%.%.%.%.%.%.%.%.%.%.%.%.%.%.%.%.%.%.%.%.%.%.%.%.%.#.%.%.%.%.%.%.%.%.%.%.%.%.%.%.%.%.%.%.%.%.%.%.%.%.%.%.%.%.%.%.%.%.%.%.%.%.%.%.%.%.%.%.%.%.%.%.%.%.%.%.%.%.%.%.%.%.%.%.%.%.%.%.%.%.%.%.o.r 5 5 5 5 5 5 5 5 GXGXGXGXGXGXGX",
"- - - - - - - < l ^ ^ ~ ^ ^ ^ ^ #.%.%.%.%.%.%.%.%.%.%.%.%.%.%.%.%.%.%.%.%.%.%.%.%.%.%.%.%.%.%.%.%.%.%.%.%.%.%.%.%.%.%.%.%.%.%.%.%.%.%.%.%.%.%.%.%.%.%.%.%.%.%.%.%.%.%.%.%.%.%.%.%.%.%.%.%.%.%.%.%.%.%.%.%.%.%.%.%.%.%.%.%.%.%.o.r 5 5 5 5 5 5 5 5 GXGXGXGXGXGXGX",
"- - - - - - - < i ^ ^ ^ ^ ! ^  .#.%.%.%.%.%.%.%.%.%.%.%.%.%.%.%.%.%.%.%.%.%.%.%.%.%.%.%.%.%.%.%.%.%.%.%.%.%.%.%.%.%.%.%.%.%.%.$.%.%.%.%.%.%.%.%.%.%.%.%.%.%.%.%.%.%.%.%.%.%.%.%.%.%.%.%.%.%.%.%.%.%.%.%.%.%.%.%.%.%.%.%.%.%.%.o.q 5 5 5 5 5 5 5 5 GXGXGXGXGXGXGX",
"- - - - - - - < l ^ ^ ^ ^ ^ ^ ^ #.%.%.%.%.%.%.%.%.%.%.%.%.%.%.%.%.%.%.%.%.$.%.%.%.%.%.%.%.%.%.%.%.%.%.%.%.#.%.%.%.%.%.%.%.%.%.%.%.%.%.%.%.%.%.%.%.%.%.%.%.%.%.%.%.%.%.%.%.%.%.%.%.%.%.%.%.%.%.%.%.%.%.%.%.%.%.%.%.%.%.%.%.%.%.o.r 5 5 5 5 5 5 5 5 GXGXGXGXGXGXGX",
"- - - - - - - < l ^ ^ ^ ^ ^ ! ..#.%.%.%.%.%.%.%.%.%.%.%.%.%.%.%.%.%.%.%.%.%.%.%.%.%.%.%.%.%.%.%.%.%.%.%.%.%.%.%.%.%.%.%.%.%.%.%.%.%.%.%.%.%.%.%.%.%.%.%.%.%.%.%.%.%.%.%.%.%.%.$.%.%.%.%.%.%.%.%.%.%.%.%.#.%.%.%.%.%.%.%.%.%.%.o.q 5 5 5 5 5 5 5 6 GXGXGXGXGXGXGX",
"- - - - - - - 2 l ^ ^ ^ ^ ^ ^ ^ #.%.%.%.%.%.%.%.%.%.%.%.%.%.%.%.%.%.%.%.%.%.%.%.%.%.%.%.%.%.%.%.%.%.%.%.%.%.%.%.%.%.%.%.%.%.%.%.%.%.%.%.%.%.%.%.%.%.%.%.#.%.%.%.%.%.%.%.%.%.%.%.%.%.%.%.%.%.%.%.%.%.%.%.%.%.%.%.%.%.%.%.%.%.%.o.r 5 5 5 5 5 5 5 5 GXGXGXGXGXGXGX",
"- - - - = ; ; < i ^ ^  .^ ^ ^  .#.%.%.%.%.%.%.%.%.%.%.%.%.%.%.%.%.%.%.%.%.%.%.%.%.%.%.%.%.%.%.%.%.%.%.%.%.%.%.%.%.%.%.%.%.%.%.%.%.%.%.%.%.%.%.%.%.%.%.%.%.%.%.%.%.%.%.%.%.%.%.%.%.%.%.%.%.%.%.%.%.%.%.%.%.%.%.%.%.%.%.%.%.%.%.o.q 5 5 5 5 5 5 5 5 GXGXGXGXGXGXGX",
"- - - - ; ; = < i ^ ^  .^ ^ ^  .#.%.%.%.%.%.%.%.%.%.%.%.%.%.%.%.%.%.%.%.%.O.%.%.%.%.%.%.%.%.%.%.%.%.%.%.%.%.%.%.%.%.%.%.%.%.%.%.%.%.%.%.%.%.%.%.%.%.%.%.%.%.%.%.%.%.%.%.%.%.%.%.%.%.%.%.%.%.%.%.%.%.%.%.%.%.%.%.%.%.%.%.%.%.>.o.q 5 5 5 5 5 5 5 5 GXGXGXGXGXGXGX",
"- - - - ; - = < i ^ k  .^ ^ ^ ^ #.%.%.%.%.%.%.%.%.%.%.%.%.%.%.%.%.%.%.%.%.%.%.%.%.%.%.#.%.%.%.%.%.%.%.%.%.%.%.%.%.%.%.%.%.%.%.%.%.%.%.%.%.%.%.%.%.%.%.%.%.%.%.%.%.%.%.%.%.%.%.%.%.%.%.%.%.%.%.#.%.%.%.%.%.%.%.%.%.%.%.%.%.%.%.o.q 5 5 5 5 5 5 5 5 GXGXGXGXGXGXGX",
"- - - - - - ; < i ^ ^ ^ ^ ^ ^  .#.%.%.%.%.%.%.%.%.%.%.%.%.%.%.%.%.%.%.%.%.%.%.%.%.%.%.%.%.%.%.%.%.%.%.%.%.%.%.#.%.%.%.%.%.%.%.#.%.%.%.%.%.%.%.%.%.%.%.%.%.%.%.%.%.%.%.%.%.%.%.%.%.%.%.%.%.%.%.%.%.%.%.%.%.%.%.%.%.%.%.%.%.%.%.o.q 5 5 5 5 5 5 5 5 GXGXGXGXGXGXGX",
"- ; - - = ; ; < i  .k ~  .^ ^  .#.%.%.%.%.%.%.%.%.%.%.%.%.%.%.%.%.%.%.%.%.%.%.%.%.%.%.%.%.%.%.%.%.%.%.%.%.%.%.%.%.%.%.%.%.%.%.%.%.%.%.%.%.%.%.%.%.%.%.%.%.%.%.%.%.#.%.%.%.%.%.%.%.%.%.%.%.%.%.%.%.%.%.%.%.%.%.%.%.%.%.%.%.%.%.o.q 5 5 5 5 5 5 5 5 GXGXGXGXGXGXGX",
"- - , - ; ; = < i ^  . . .^ ^  .#.%.%.%.%.%.%.%.%.%.%.%.%.%.%.%.%.%.%.%.%.%.%.%.%.%.%.%.%.%.%.%.%.%.%.%.%.%.%.%.%.%.%.%.%.%.%.%.%.%.%.%.%.%.%.%.%.%.%.%.%.%.%.%.%.%.%.%.%.%.%.%.%.%.%.%.%.%.%.%.%.%.%.%.%.%.%.%.%.%.%.%.%.%.%.o.q 5 5 5 5 5 5 5 5 GXGXGXGXGXGXGX",
"- - = ; ; = ; < l  . . .^ k ^  .#.%.%.%.%.%.%.#.%.%.%.%.%.%.%.#.%.%.%.%.%.%.%.%.%.%.%.%.%.%.%.%.%.%.%.%.%.%.%.%.%.%.%.%.%.%.%.%.%.%.%.%.%.%.%.%.%.%.%.%.%.%.%.#.%.%.%.%.%.%.%.%.%.%.%.%.%.%.%.%.%.%.%.%.%.%.%.%.%.%.%.%.%.%.%.o.q 5 5 5 5 5 5 5 5 GXGXGXGXGXGXGX",
"- - - - ; ; - < l  .k k ^ ^ ^  .#.%.%.%.%.%.%.%.%.%.%.%.%.%.%.%.%.%.%.%.%.%.%.%.%.%.%.%.%.%.%.%.%.%.%.%.%.%.%.%.%.%.%.%.%.%.%.%.%.%.%.%.%.%.%.%.%.%.%.%.%.%.%.%.%.%.%.%.%.%.%.%.%.%.%.%.%.%.%.%.%.%.#.%.%.%.%.%.%.%.%.%.%.%.%.o.q 5 5 5 5 5 5 5 5 GXGXGXGXGXGXGX",
"- - ; - - - - < g  . . . . .^ ^ #.%.%.%.%.%.%.%.%.%.%.%.%.%.%.%.%.%.%.%.%.%.%.%.%.%.%.%.%.%.%.%.%.%.%.%.%.%.%.%.%.%.%.%.%.%.%.%.%.$.%.%.%.%.%.%.%.%.%.%.%.%.%.%.%.%.%.%.%.%.%.%.%.%.%.%.%.%.%.%.%.%.%.%.%.%.%.%.%.%.%.%.%.%.%.o.r 5 5 5 5 5 5 5 5 GXGXGXGXGXGXGX",
"- - - - - - - < i  .^ k ^ ^ ^  .#.%.%.%.%.%.%.%.%.%.%.%.%.%.%.%.%.%.%.%.%.%.%.#.%.%.%.%.%.%.%.%.%.%.%.%.%.%.%.%.%.%.%.%.%.%.%.%.%.%.%.%.%.%.%.%.%.%.%.%.%.%.%.%.%.%.%.%.%.%.%.%.%.%.%.%.%.%.%.%.%.%.%.%.%.%.%.%.%.%.%.%.%.%.%.o.r 5 5 5 5 5 5 5 5 GXGXGXGXGXGXGX",
"- - - - - ; - < i ^ ^  .i  .^  .#.%.%.%.%.%.%.%.%.%.%.%.%.%.%.%.%.%.%.%.%.%.%.%.%.%.%.%.%.%.%.%.%.%.%.%.%.%.%.%.%.%.%.%.%.%.%.%.%.%.%.%.%.%.%.%.%.%.%.%.%.%.%.%.%.%.%.%.%.%.%.%.%.%.%.%.%.%.%.%.%.%.%.%.%.%.%.#.%.%.%.%.%.%.>.o.r 5 5 6 5 5 5 5 5 GXGXGXGXGXGXGX",
"- - - - - ; = < i ^ ^ ^ ^ ^ ^ ^ #.%.%.%.%.%.%.%.%.%.%.%.%.%.%.%.%.%.%.%.%.%.%.%.%.%.#.%.%.%.%.%.%.%.%.%.%.%.%.%.%.%.%.%.%.%.%.%.%.%.%.%.%.%.%.%.%.%.%.%.%.%.%.%.#.%.%.%.%.%.%.%.%.%.%.%.%.%.%.%.%.%.%.%.%.%.%.%.%.%.%.%.%.%.%.o.r 5 5 5 5 5 5 5 5 GXGXGXGXGXGXGX",
"- - - - - - - < i ^ ^ ^ ^ ^ ^  .#.%.%.%.%.%.%.%.%.%.%.%.%.%.%.%.%.%.%.%.%.%.%.%.%.%.%.%.%.%.%.%.%.%.%.%.%.%.%.%.%.%.%.%.%.%.%.%.%.%.%.%.%.%.%.%.%.%.%.%.%.%.%.%.%.%.%.%.%.%.%.%.%.%.%.%.%.%.%.%.%.%.%.%.%.%.%.%.%.%.%.%.%.%.%.o.r 5 5 5 5 5 5 5 5 GXGXGXGXGXGXGX",
"- ; - - - - - < i ^ ^ ^ ^ ^ ^  .#.%.%.%.%.%.%.%.%.%.%.%.%.%.%.%.%.%.%.%.%.%.%.%.%.%.%.%.%.%.%.%.%.%.%.%.%.%.%.%.%.%.%.%.%.%.%.%.%.%.%.%.%.%.%.%.%.%.%.%.%.%.%.%.%.%.%.%.%.%.%.%.%.%.%.%.%.%.%.%.%.%.%.%.%.%.%.%.%.%.%.%.%.%.%.o.r 5 5 5 5 5 5 5 5 GXGXGXGXGXGXGX",
"- - - - - - = < i ^ ^ ^ ^ ^ ^  .#.%.%.%.%.%.%.%.%.%.%.%.%.%.%.%.%.%.%.%.%.%.%.%.%.%.%.%.%.%.%.%.%.%.%.%.%.%.%.%.%.%.%.%.%.%.%.%.%.%.%.%.%.%.%.%.%.%.%.%.%.%.%.#.%.%.%.%.%.%.%.%.%.%.%.%.%.%.%.%.%.%.%.%.%.%.%.%.%.%.%.%.%.%.%.o.r 5 5 5 5 5 5 5 5 GXGXGXGXGXGXGX",
"- - - - - - ; < i ^ ^ ! ^ ^  . .#.%.%.%.%.%.%.%.%.%.%.%.%.%.#.%.%.%.%.%.%.%.%.%.%.%.%.%.%.%.%.%.%.%.%.%.%.%.%.%.%.%.%.#.%.%.%.%.%.%.%.%.%.%.%.%.%.%.%.%.%.%.%.%.%.%.%.%.%.%.%.%.%.%.%.%.%.%.%.%.%.%.%.%.%.%.%.%.%.%.%.%.%.%.%.o.r 5 5 5 5 5 5 5 5 GXGXGXGXGXGXGX",
"- - - - - - - < g ^ ^ ^ ^ ^ ! ^ #.%.%.%.%.%.%.%.%.%.%.%.%.%.%.%.%.%.%.%.%.%.%.%.%.%.%.%.%.%.%.%.%.%.%.%.%.%.%.%.%.%.%.%.%.%.%.%.%.%.%.%.%.%.%.%.%.%.%.%.%.%.%.%.%.%.%.%.%.%.%.%.%.%.%.%.%.%.%.%.%.%.%.%.%.%.%.%.%.%.%.%.%.%.%.o.r 5 5 5 5 5 5 5 5 GXGXGXGXGXGXGX",
"- - - - - - - < l ^ ^ ^ ^ ^ ^ ^ O.%.%.%.%.%.%.%.%.%.%.%.%.%.%.%.%.%.%.%.%.%.%.%.%.#.%.%.%.%.%.%.%.%.%.%.%.%.%.%.%.%.%.%.%.%.%.%.%.%.%.%.%.%.%.%.%.%.%.%.%.%.%.%.%.%.%.%.%.%.%.%.%.%.%.%.%.%.%.%.%.%.%.%.%.%.%.%.%.%.%.%.%.%.%.o.r 5 5 5 5 5 5 5 5 GXGXGXGXGXGXGX",
"- - - - - - - < l ^ ^ ^ ^ ^ ^  .#.%.%.%.%.%.%.%.%.%.%.%.%.%.%.%.%.%.%.%.%.%.%.%.%.%.%.%.%.%.%.%.%.%.%.%.%.%.%.%.%.%.%.%.%.%.%.%.%.%.%.%.%.%.%.%.%.%.%.%.%.%.%.%.%.%.%.%.%.%.%.%.$.%.%.%.%.%.%.%.%.%.%.%.%.%.%.%.%.%.%.%.%.%.%.o.r 5 5 5 5 5 5 5 5 GXGXGXGXGXGXGX",
"- - - - - - - < l ^ ^ ^ ^ ^ ^  .#.%.%.%.%.%.%.%.%.%.%.%.%.%.%.%.%.#.%.%.%.%.%.%.%.%.%.%.%.%.%.%.%.%.%.%.%.%.%.%.%.%.%.%.%.%.%.%.%.%.%.%.%.%.%.%.%.%.%.%.%.%.%.%.$.%.%.%.%.%.%.%.%.%.%.%.%.%.%.%.%.%.%.%.%.%.%.%.%.%.%.%.%.%.&.o.r 5 5 5 5 5 5 5 5 GXGXGXGXGXGXGX",
"- - ; - - - - < i ^ ^ ^ ^ ^ ^ ^ #.%.%.%.%.%.%.%.%.%.%.%.%.%.%.%.%.%.%.%.%.%.%.%.%.%.%.%.%.%.%.%.%.%.%.%.%.%.%.%.%.%.%.%.%.%.%.%.%.%.%.%.%.%.%.%.%.%.%.%.%.%.%.%.%.%.%.%.%.%.%.%.%.%.%.%.%.%.%.%.%.%.%.%.%.%.%.%.%.%.%.%.%.%.%.o.q 5 5 5 5 5 5 5 5 GXGXGXGXGXGXGX",
"- - - - - - - < i ^ ! ^ ^ ^ ^ ^ #.%.%.%.%.%.%.%.%.%.%.%.%.%.%.%.%.%.%.%.%.%.%.%.%.%.%.%.%.%.%.%.%.%.%.$.%.%.%.%.%.%.%.%.%.%.%.%.%.%.%.%.%.$.%.%.%.%.%.%.%.%.%.%.%.%.%.%.%.%.%.%.%.%.%.%.%.%.%.%.%.%.%.%.%.%.%.%.%.%.%.%.%.%.%.o.q 5 5 5 5 5 5 5 5 GXGXGXGXGXGXGX",
"- - - - - - - < l ^ ^ ^ ^ ^ ^ ^ #.%.%.%.%.%.%.%.%.%.%.%.%.%.%.%.%.%.%.%.%.%.%.%.%.%.%.%.%.%.%.%.%.%.%.%.%.%.%.%.%.$.%.%.%.%.%.%.%.%.%.%.%.%.%.%.%.%.%.%.%.$.%.%.%.%.%.%.%.%.%.%.%.%.%.%.%.%.%.%.%.%.%.%.%.%.%.%.%.%.%.%.%.%.%.o.r 5 5 5 5 5 5 5 5 GXGXGXGXGXGXGX",
"- - - - - - - < l ^ ^ ^ ^ ^ ^  .#.%.%.%.%.%.%.%.%.%.%.%.%.%.%.%.%.%.%.%.%.%.%.%.%.%.%.%.%.%.%.%.%.%.%.%.%.%.%.%.%.%.%.%.%.%.%.%.%.%.%.%.%.%.%.%.%.%.%.%.%.%.%.%.%.%.%.%.%.%.%.%.%.%.%.%.%.%.%.%.%.%.%.%.%.%.%.%.%.%.%.%.%.%.%.o.r 5 5 5 5 5 5 5 5 GXGXGXGXGXGXGX",
"- - - - - - - < l ^ ^ ^ ^ ^ ! ^ #.%.%.%.%.%.%.%.%.%.%.%.%.%.%.%.%.%.%.%.%.#.%.%.%.%.%.%.%.%.%.%.%.%.%.%.%.%.%.%.%.%.%.%.%.%.%.%.%.%.%.%.%.%.%.%.%.%.%.%.%.%.%.%.%.%.%.%.%.%.%.%.%.%.%.%.%.%.%.%.%.%.%.%.%.%.%.%.%.%.%.%.%.%.%.o.r 5 5 5 5 5 5 5 5 GXGXGXGXGXGXGX",
"- ; - - - - - < l ^ ^ ^ ^ ^ ^  .#.%.%.%.%.%.%.%.%.%.%.%.%.%.%.%.%.%.%.%.%.%.%.%.%.%.%.%.%.%.%.%.%.%.%.%.%.%.%.%.%.%.%.%.%.%.%.%.%.%.%.%.%.%.%.%.%.%.%.%.%.%.%.%.%.%.%.%.%.%.%.%.%.%.%.%.%.%.%.%.%.%.%.%.%.%.%.%.%.%.%.%.%.%.%.o.r 5 5 5 5 5 5 5 5 GXGXGXGXGXGXGX",
"- - - - - - ; < l ^ ^ ^ ^ ^ ^ ^ #.%.%.%.%.%.%.%.%.%.%.%.%.%.%.%.%.%.%.%.%.%.%.%.%.%.%.%.%.%.%.#.%.%.%.%.%.%.%.%.%.%.%.%.%.%.%.%.%.%.%.%.%.%.%.%.%.%.%.%.%.%.%.%.%.%.%.%.%.%.%.%.%.%.%.%.%.%.%.%.%.%.%.%.%.%.%.%.%.%.%.%.%.%.%.o.r 5 5 5 5 5 5 5 5 GXGXGXGXGXGXGX",
"- - - - - - = < l ^ ^ ^ ^ ^ ^  .#.%.%.%.%.%.%.%.%.%.%.%.%.%.%.%.%.%.%.%.%.%.%.%.%.%.%.%.%.%.%.%.$.%.%.%.%.%.%.%.%.%.%.%.%.%.%.%.%.%.%.%.%.%.%.%.%.%.%.%.%.%.%.%.%.%.%.%.%.%.%.%.%.%.%.%.%.%.%.%.%.%.%.%.%.%.%.%.%.%.%.%.%.%.%.o.r 5 5 5 5 5 5 5 5 GXGXGXGXGXGXGX",
"- - - - - - - < i ^ ^ ! ^ ^ ^ ^ #.%.%.%.%.%.%.%.%.%.%.%.%.%.%.%.%.%.%.%.%.%.%.%.%.%.%.%.%.%.%.%.%.%.%.%.%.%.%.%.%.%.%.%.%.%.%.%.%.%.%.%.%.%.%.%.%.%.%.%.%.%.%.%.%.%.%.%.%.%.%.%.O.$.%.%.%.%.%.%.%.%.%.%.%.%.%.%.%.%.%.%.%.%.%.o.r 5 5 5 5 5 5 5 5 GXGXGXGXGXGXGX",
"- - - - - - - < i ^ ^ ^ ^ ^ ^ ^ #.%.%.%.%.%.%.%.%.%.%.%.%.%.%.%.%.%.%.%.%.%.%.%.%.%.%.%.%.%.%.%.%.%.%.%.%.%.%.%.%.%.%.%.%.%.%.%.%.%.%.%.%.%.%.%.%.%.%.%.%.%.%.%.%.%.%.%.%.%.%.%.%.%.%.%.%.%.$.%.%.%.%.%.%.%.%.%.%.%.%.%.%.%.%.o.r 5 5 5 5 5 5 5 5 GXGXGXGXGXGXGX",
"- - - - - - = < i ^ ^ ^ ^ ^ ^  .#.%.%.%.%.%.%.%.%.%.%.%.%.%.%.%.%.%.%.%.%.%.%.%.%.%.%.%.%.%.%.%.%.%.%.%.%.%.%.%.%.%.%.%.%.%.%.%.%.%.%.$.%.%.%.%.$.%.%.%.%.%.%.%.%.%.%.%.%.%.%.%.%.%.%.%.%.%.%.%.%.%.%.%.%.%.%.%.%.%.%.%.%.%.%.o.r 5 5 5 5 5 5 5 5 GXGXGXGXGXGXGX",
"- - - - - ; ; < l ^ ^ ^ ^ ^ ^ ^ #.%.%.%.%.%.%.%.%.%.%.%.%.%.%.%.%.%.%.%.%.%.%.%.%.%.%.%.%.%.%.%.%.%.%.%.%.%.%.%.%.%.%.%.%.%.%.%.%.%.%.%.%.%.%.%.%.%.%.%.%.%.%.%.%.%.%.%.%.%.%.%.%.%.%.%.%.%.%.%.%.%.%.%.%.%.%.%.%.%.%.%.%.%.>.o.r 5 5 5 5 5 5 5 5 GXGXGXGXGXGXGX",
"- - - ; - - - < g ^ ^ ^ ^ ^ ^ ^ %.%.%.%.%.%.%.%.%.%.%.%.%.%.%.%.%.%.%.%.%.%.%.%.%.%.%.%.%.%.%.%.%.%.%.%.%.%.%.%.%.%.%.%.%.%.%.%.%.%.%.%.%.%.%.%.%.%.%.%.%.%.%.%.%.%.%.%.%.%.%.%.%.%.%.%.%.%.%.%.%.%.%.%.%.%.%.%.%.%.%.%.%.%.%.o.r 5 5 5 5 5 5 5 5 GXGXGXGXGXGXGX",
"- - - - - - - < g ^ ^ ^ ^ ! ^ ..$.%.%.%.%.%.%.%.%.%.%.%.%.%.%.%.%.%.%.%.%.%.%.%.%.%.%.%.%.%.%.%.%.%.%.%.%.%.%.%.%.%.%.%.%.%.%.%.%.%.%.%.%.%.%.%.%.%.%.%.%.%.%.%.%.%.%.%.%.%.%.%.%.%.%.%.%.%.%.%.%.$.%.%.%.%.%.%.%.%.%.%.%.%.%.o.r 5 5 5 5 5 5 5 5 GXGXGXGXGXGXGX",
"- - - - - - - < g  .! ^ ^ ^ ! ^ #.%.%.%.%.%.%.%.%.%.%.%.%.%.%.%.%.%.%.%.%.%.%.%.%.%.%.%.%.%.%.%.%.%.%.%.%.%.%.%.%.%.%.%.%.%.%.%.%.%.%.%.%.%.%.%.%.%.%.%.%.%.%.%.%.%.%.%.%.%.%.%.%.%.%.%.%.%.%.%.%.%.%.%.%.%.%.%.%.%.%.%.%.%.%.o.r 5 5 5 5 5 5 5 5 GXGXGXGXGXGXGX",
"- - - - - - - < i  .^ ^ ^ ^ ^ ^ #.%.%.%.%.%.%.%.%.%.%.%.%.%.%.%.%.%.%.%.%.%.%.%.%.%.%.%.%.%.%.%.%.%.%.%.%.%.%.%.%.%.%.%.%.%.%.%.%.%.%.%.%.%.%.%.%.%.%.%.%.%.%.%.%.%.%.%.%.%.%.%.%.%.%.%.%.%.%.%.%.%.%.%.%.%.%.%.%.%.%.%.%.%.%.o.r 5 5 5 5 5 5 5 5 GXGXGXGXGXGXGX",
"- - - - - - - < i  .^ ^ ! ^ ^ ..#.%.%.%.%.%.%.%.%.%.%.%.%.%.%.%.%.%.%.%.%.%.%.%.%.%.%.%.%.%.%.%.%.%.%.%.%.%.%.%.%.%.%.%.%.%.%.%.%.%.%.%.%.%.%.%.%.%.%.%.%.%.%.%.%.%.%.%.%.%.%.%.%.%.%.%.%.%.%.%.%.%.%.%.%.%.%.%.%.%.%.%.%.%.%.o.r 5 5 5 5 5 5 5 5 GXGXGXGXGXGXGX",
"- - - - - - - < i ..^ ^ ^ ^ ^ ^ #.%.%.&.%.%.%.&.%.%.%.%.%.%.%.%.%.%.%.%.%.%.%.%.%.%.%.%.%.%.%.%.%.%.%.%.%.%.%.%.%.%.%.%.%.%.%.%.%.%.%.%.%.%.%.%.%.%.%.%.%.%.%.%.%.%.%.%.%.%.%.%.%.%.%.%.%.%.%.%.%.%.%.%.%.%.%.%.%.%.%.%.%.%.%.o.r 5 5 5 5 5 5 5 5 GXGXGXGXGXGXGX",
"- - - - - - - < l ..! ^ ^ ^ ^ ..%.%.%.&.%.%.%.&.%.%.%.%.%.%.%.%.%.%.%.%.%.%.>.&.%.%.%.%.%.%.%.%.%.%.%.%.%.%.%.%.%.%.%.%.%.%.%.%.%.%.%.%.%.%.%.%.%.%.%.%.%.%.%.&.%.%.%.%.%.%.%.%.%.%.%.%.%.%.&.>.%.%.%.%.%.%.%.%.%.%.%.%.%.%.&.o.r 5 5 5 5 5 5 5 6 GXGXGXGXGXGXGX",
"- - - - - - - < k ..^ ........%.%.>.>.>.%.%.>.>.&.%.&.&.&.&.&.%.&.&.&.&.&.&.&.&.%.&.&.&.%.&.&.&.&.&.&.&.%.&.&.%.&.&.&.&.&.&.&.>.%.&.&.%.&.&.&.&.%.&.&.&.&.&.&.>.&.&.&.%.&.&.&.&.&.&.&.%.&.&.&.>.%.&.&.&.&.&.%.%.&.&.&.&.&.&.>.o.w 6 6 6 6 6 6 6 6 GXGXGXGXGXGXGX",
"- - - - = ; = 8 %.t.t.e.t.w.w.w.e.e.e.e.e.e.e.e.q.e.e.e.e.r.r.e.r.e.e.r.e.e.t.t.e.e.e.e.e.e.r.r.e.e.e.e.r.r.r.r.e.e.r.t.r.r.r.t.e.e.t.t.r.t.r.r.r.r.e.r.e.e.t.r.e.e.e.a.e.e.a.e.r.e.e.e.e.e.r.e.e.e.e.e.e.e.e.r.e.t.r.e.e.e.r.w.R d d g d h d d g GXGXGXGXGXGXGX",
"- - - - ; ; ; 4 &.a.r.q.r.t.r.r.a.r.e.e.a.e.a.r.r.r.e.r.r.r.r.g.j.r.r.r.r.r.r.r.r.r.r.r.r.r.r.r.r.r.r.r.r.r.r.r.r.r.r.r.r.r.r.r.r.r.r.r.r.r.r.r.r.r.r.r.r.r.r.r.r.a.r.r.a.q.a.a.r.r.r.r.r.r.r.r.r.r.r.r.r.r.r.r.r.r.r.r.r.r.r.w.~ h h h h h h h h GXGXGXGXGXGXGX",
"- - - - ; = ; 5 -.g.r.r.r.r.r.r.e.a.t.s.d.q.r.r.e.r.r.r.r.r.r.r.r.r.r.r.r.r.r.r.r.r.r.g.r.r.g.r.r.r.r.r.r.r.r.r.r.r.r.r.r.g.r.r.r.r.r.r.r.r.r.t.r.r.r.r.r.r.r.r.e.r.r.r.r.r.a.q.r.g.r.r.r.r.r.r.r.r.r.r.r.r.r.r.r.r.r.r.r.r.r.w.( h h h h h h h h GXGXGXGXGXGXGX",
"- - - - ; = ; 8 =.r.r.r.r.r.e.r.a.e.r.s.s.r.r.r.r.q.r.r.g.r.r.r.r.r.r.r.r.r.r.r.r.r.r.r.r.r.r.r.r.r.r.r.r.r.r.r.r.r.r.r.r.r.r.r.r.r.r.r.r.r.r.r.g.r.r.r.r.r.r.r.r.r.r.r.r.r.r.q.r.r.r.r.r.r.r.r.r.r.r.r.r.k.r.r.r.r.r.r.r.r.g.w.c h h h h h h h h GXGXGXGXGXGXGX",
"- - - - : - ; q ;.r.r.r.t.r.r.r.i.a.a.e.r.r.r.r.k.r.r.r.r.r.r.r.r.r.r.r.r.r.r.r.r.r.r.r.g.r.r.r.r.r.r.r.r.r.r.r.r.r.r.r.k.r.r.r.g.r.r.r.r.r.r.r.r.r.s.r.r.r.r.r.s.r.r.r.r.r.r.r.r.r.r.r.a.a.a.a.r.r.r.r.r.r.r.r.r.r.r.r.r.g.r.w.~ h h h h h h h h GXGXGXGXGXGXGX",
"- - - - - - ; 5 -.r.r.r.r.r.r.r.a.a.a.a.r.r.r.r.r.r.r.s.r.r.r.r.r.r.r.r.r.r.k.r.g.r.r.r.r.r.r.r.r.r.r.r.r.k.r.r.r.r.r.r.r.r.r.r.r.r.r.r.r.r.r.r.r.r.r.r.r.r.r.r.r.r.r.r.r.r.r.r.s.r.r.s.a.a.a.a.r.r.r.r.r.g.r.r.r.r.r.r.r.r.e.w.x h h h h h h h h GXGXGXGXGXGXGX",
"- - - - - - - 5 -.s.r.r.g.r.r.r.a.a.a.a.r.r.r.s.r.r.q.a.a.a.r.r.r.s.r.r.r.r.r.r.r.r.r.r.r.r.r.r.r.r.r.r.r.r.r.r.r.r.r.r.r.r.r.r.r.r.r.r.r.r.r.r.r.r.r.r.r.k.r.r.r.r.r.r.r.r.r.r.r.r.r.r.a.a.a.a.r.r.r.s.r.r.r.r.r.t.r.r.r.r.r.w.~ h h h h h h h h GXGXGXGXGXGXGX",
"- - - - - - = 8 *.y.y.y.y.y.y.y.y.y.y.y.y.y.y.y.y.y.y.y.y.y.y.6.y.y.y.y.y.7.y.y.y.y.y.y.y.6.B.y.7.u.7.y.u.y.y.y.u.y.y.y.7.y.y.y.y.y.y.y.u.8.B.7.y.y.y.y.y.7.y.y.y.y.y.y.y.6.7.$Xy.y.y.y.y.y.y.y.u.y.y.y.y.y.y.y.B.u.8.y.y.y.B.3.R Y Y Y Y Y Y Y Y GXGXGXGXGXGXGX",
"- - - - - - - n /.}.}.}.}.}.}.}.}.}.}.}.}.}.}.}.}.}.}.}.}.}.}.}.}.}.}.}.}.}.}.}.}.}.}.}.}.}.}.}.}.}.}.}.}.}.}.}.}.}.}.}.}.}.}.}.}.}.}.}.}.}.}.}.}.}.}.}.}.}.}.}.}.}.}.}.}.}.}.}.}.}.}.}.}.}.}.}.}.}.}.}.}.}.}.}.}.}.}.}.}.}.}.{.T.P I I I P I P U GXGXGXGXGXGXGX",
"- - - - - > % n `.|.|.|.|.|.|.|.|.|.|.|.|.|.|.|.|.|.|.|.|.|.|.|.|.|.|.|.|.|.|.|.|.|.|.|.|.|.|.|.|.|.|.|.|.|.|.|.|.|.|.|.|.|.|.|.|.|.|.|.|.|.|.|.|.|.|.|.|.|.|.|.|.|.|.|.|.|.|.|.|.|.|.|.|.|.|.|.|.|.|.|.|.|.|.|.|.|.|.|.|.|.|.[.R.Y.U.U.U.U.U.U.U.GXGXGXGXGXGXGX",
"- - - - - - % n _.|.|.|.|.|.|.|.|.|.|.|.|.|.|.|.|.|.|.|.|.|.|.|.|.|.|.|.|.|.|.|.|.|.|.|.|.|.|.|.|.|.|.|.|.|.|.|.|.|.|.|.|.|.|.|.|.|.|.|.|.|.|.|.|.|.|.|.|.|.|.|.|.|.|.|.|.|.|.|.|.|.|.|.|.|.|.|.|.|.|.|.|.|.|.|.|.|.|.|.|.|.|.[.R.U.U.U.U.U.U.U.U.GXGXGXGXGXGXGX",
"- - - - - - - n _.|.|.|.|.|.|.|.|.|.|.|.|.|.|.|.|.|.|.|.|.|.|.|.|.|.|.|.|.|.|.|.|.|.|.|.|.|.|.|.|.|.|.|.|.|.|.|.|.|.|.|.|.|.|.|.|.|.|.|.|.|.|.|.|.|.|.|.|.|.|.|.|.|.|.|.|.|.|.|.|.|.|.|.|.|.|.|.|.|.|.|.|.|.|.|.|.|.|.|.|.|.|.[.R.U.U.U.U.U.U.U.U.GXGXGXGXGXGXGX",
"- - - - - - - n _.|.|.|.|.|.|.|.|.|.|.|.|.|.|.|.|.|.|.|.|.|.|.|.|.|.|.|.|.|.|.|.|.|.|.|.|.|.|.|.|.|.|.|.|.|.|.|.|.|.|.|.|.|.|.|.|.|.|.|.|.|.|.|.|.|.|.|.|.|.|.|.|.|.|.|.|.|.|.|.|.|.|.|.|.|.|.|.|.|.|.|.|.|.|.|.|.|.|.|.|.|.|.].R.U.U.U.U.U.U.U.U.GXGXGXGXGXGXGX",
"- - - - - - - n _.|.|.|.|.|.|.|.|.|.|.|.|.|.|.|.|.|.|.|.|.|.|.|.|.|.|.|.|.|.|.|.|.|.|.|.|.|.|.|.|.|.|.|.|.|.|.|.|.|.|.|.|.|.|.|.|.|.|.|.|.|.|.|.|.|.|.|.|.|.|.|.|.|.|.|.|.|.|.|.|.|.|.|.|.|.|.|.|.|.|.|.|.|.|.|.|.|.|.|.|.|.|.[.R.U.U.U.U.U.U.U.U.GXGXGXGXGXGXGX",
"- - - - - - - n _.|.|.|.|.|.|.|.|.|.|.|.|.|.|.|.|.|.|.|.|.|.|.|.|.|.|.|.|.|.|.|.|.|.|.|.|.|.|.|.|.|.|.|.|.|.|.|.|.|.|.|.|.|.|.|.|.|.|.|.|.|.|.|.|.|.|.|.|.|.|.|.|.|.|.|.|.|.|.|.|.|.|.|.|.|.|.|.|.|.|.|.|.|.|.|.|.|.|.|.|.|.|.[.R.U.U.U.U.U.U.U.U.GXGXGXGXGXGXGX",
"- - - - - - - b ^.].].].].].].].'.`.'.'.'.'.'.`.`.`.`.`.`.`.`._.`.`.`.`.`.'.`.`._._.'._.`.`.`.`.`.`._.`.`.`.`.`.`.`.`._.`.`.'.`.`.`.`.`.`.`.`.`.`.`.`.`.`.`.`.`.`.`.'.`.`.`.`.`._._.`.`.`.`.`.`.`.`.`.`.`.`.`.`.'.].].'.].].[.`.R.L L L L L L L L GXGXGXGXGXGXGX",
"- - - - - - - 1 I.E.E.E.E.E.E.E.P.L K L L P P K F C S S S D C D C C D D C D C C C C D C D B C C D C B F C C D C C C D D C D C C C B C D C D C C C C B C F C D C S S S S S S S S S S S S S S S F D S S S S D D F R.E.E.E.E.E.E.I.G D N S D N D A S GXGXGXGXGXGXGX",
"- - - - - - - 1 K I.I.I.P I.I.P F D D D D D S D b b b b b 1 b b b b b b 1 b b b b b b b b b b b b b b b b b 1 b b b b b 1 b b b b b b b b b b b b b b b b b 1 b b b b 1 b b b b b b b b b b b 1 b 1 b b 1 b 1 n P I.I.P I.I.I.P N M M m M M m M M GXGXGXGXGXGXGX",
"- - - - - , - 1 K I.I.I.I.I.I.I.F D D D D D D N n b b b b b b b b b b b b b b b b b b b b b b n b b b b b b b b b b b b b b b b b b b b b b b b b b b b b b b b n b b b b b b b b b b b 1 b b b b b b b b b n n P I.I.I.I.I.I.P D M M M M M N M M GXGXGXGXGXGXGX",
"- - - - - - - 1 K I.I.I.I.I.I.P F D D D D D D D b b b b b b b b b b b b b b b b b b b b b b b b b b b b b b b b b b b b b b b b b b b b b b b b b b b b b b b b b b b b b b 1 b b b b b b b b b b b b b b n 1 n P I.I.I.I.I.I.P N M M m M M M M M GXGXGXGXGXGXGX",
"- - - - - - % 1 K I.I.I.I.I.I.P H D D D D D D N b b n b b b b b b b b b b b b b b b b b b b b b n b b b b b b b b b b b b b b b b b b b b b b b b b b b b b b b b b b b b b b b b b b b b n b b b b b b b b b n P Y.P T.I.U.Y.P A M m m M M M M M GXGXGXGXGXGXGX",
"- - - - - - - 1 K I.I.I.I.I.I.P F F D D D D D D n b b b b b b b b b b b b b b b b b b b b b b b b b b b n b b b b b b b b b b b b b n b b b b b n b b b b n b b b b b b n b b b b b b b b b b b b b b b b b b n P P Y.P I.T.P P A M m m M N M M M GXGXGXGXGXGXGX",
"- - - - - - - 1 K I.I.I.I.I.I.P H D D D D D D D b b b b b b b b b b b b b b b b b b b b b b b b b b b b b b b b b b b b b b b b b b b b b b b b b b b b b b b b b b b b b b b b b b b b b b b b b b b b b b b n P I.I.I.I.I.P P A M m M M M M M M GXGXGXGXGXGXGX",
"- - - - - - - 1 K Y.I.I.I.I.I.P F D D D D D D S n b b b b b b b b b b n b b b b b b b b b b b b b b b b b b b b b b b b n b b b b b b b b b b b b b b b b b b b b b b b b b b b b b b b b b b b b b b n b b 1 m P I.I.I.I.I.Y.P A M m M M M M M M GXGXGXGXGXGXGX"
};
