/* XPM */
static char *_0f0029f225e48e08ea2d61016a88ff76lKeJyOw0e1e07bC[] = {
/* columns rows colors chars-per-pixel */
"64 64 205 2 ",
"   c black",
".  c #F9A31B",
"X  c #FF9900",
"o  c #F9A219",
"O  c #FD9C09",
"+  c #FE9A03",
"@  c #D48101",
"#  c #FC9700",
"$  c #FAA115",
"%  c #BA7200",
"&  c #F49E18",
"*  c #F89400",
"=  c #FC9E0F",
"-  c #C37701",
";  c #FE9B06",
":  c #E68A01",
">  c #EA9815",
",  c #F9A51E",
"<  c #FBA012",
"1  c #F7A119",
"2  c #FFD642",
"3  c #E18701",
"4  c #FAA820",
"5  c #855104",
"6  c #F09C16",
"7  c #CF7E01",
"8  c #DC8D0F",
"9  c #000009",
"0  c #FE9F0B",
"q  c #F09000",
"w  c black",
"e  c #E2B019",
"r  c #FED83C",
"t  c #E79616",
"y  c #D5870D",
"u  c #EC8E01",
"i  c #FAAB29",
"p  c #FBB63B",
"a  c #FFFB41",
"s  c #FDC534",
"d  c #DB8A0A",
"f  c #000001",
"g  c #FBBB43",
"h  c #FFE9A5",
"j  c #C97A02",
"k  c #E79311",
"l  c #F89706",
"z  c #D98300",
"x  c #2A2A2E",
"c  c black",
"v  c #FFCB5E",
"b  c #8A8A89",
"n  c None",
"m  c #00000A",
"M  c #5D3A06",
"N  c #FECB36",
"B  c #D8D2BD",
"V  c #F09408",
"C  c #140E08",
"Z  c #626265",
"A  c #00000B",
"S  c #ED9711",
"D  c #FBDD34",
"F  c #DB9D0F",
"G  c #F79A0C",
"H  c #FEE295",
"J  c #FDEDBB",
"K  c #FAAF2F",
"L  c black",
"P  c #000028",
"I  c #DBB06C",
"U  c blue",
"Y  c #704405",
"T  c #000019",
"R  c #FDC75A",
"E  c #0E0F11",
"W  c #0D0A09",
"Q  c #D29C48",
"!  c #FECB65",
"~  c #E09011",
"^  c #FBAE21",
"/  c #FFDC41",
"(  c #F9BF30",
")  c #FCEEC2",
"_  c #D98606",
"`  c #FBB02B",
"'  c #130E08",
"]  c #4A2F08",
"[  c #FEBF2D",
"{  c #231708",
"}  c #FAA925",
"|  c black",
" . c #B26B03",
".. c #0E0E10",
"X. c #6B4105",
"o. c #F1BB2D",
"O. c #070909",
"+. c #FDCE6B",
"@. c #FCF03D",
"#. c #FCBF49",
"$. c #975C04",
"%. c #B77000",
"&. c #4F3106",
"*. c #A66504",
"=. c #525253",
"-. c #FDD884",
";. c #D79C40",
":. c #F2D530",
">. c #321E08",
",. c #000006",
"<. c #FFE53E",
"1. c #FDEAAF",
"2. c #F6DEA4",
"3. c #291B07",
"4. c #4C4C4F",
"5. c #F2DFB1",
"6. c #02040B",
"7. c #E3C490",
"8. c #F7DD99",
"9. c #EDAC22",
"0. c #1D150A",
"q. c #FDC736",
"w. c #00000E",
"e. c #A9A594",
"r. c #ECBE21",
"t. c #DDB777",
"y. c #D49532",
"u. c #F6E6B9",
"i. c black",
"p. c #FDD03E",
"a. c #EEE2BA",
"s. c #FBE39F",
"d. c #4A2F08",
"f. c #FBBA2C",
"g. c #FEDE8B",
"h. c #CFC4A5",
"j. c #E29C15",
"k. c #FBB335",
"l. c #9B9993",
"z. c #000006",
"x. c #00007F",
"c. c #DEAF62",
"v. c #372408",
"b. c #E2C085",
"n. c #333337",
"m. c #3D3D41",
"M. c #D69123",
"N. c #14120F",
"B. c #B2ABA0",
"V. c #28282C",
"C. c #D7A75C",
"Z. c #221607",
"A. c #FBD17E",
"S. c #000033",
"D. c #F5E8C1",
"F. c #CAC4AF",
"G. c #E4CFA1",
"H. c #4D3006",
"J. c #5E5E5F",
"K. c #8E8C89",
"L. c #201508",
"P. c #834F04",
"I. c #071010",
"U. c #3A393C",
"Y. c #975B03",
"T. c #B4B2AB",
"R. c #05050A",
"E. c #050508",
"W. c #00000A",
"Q. c #7D4C04",
"!. c #00003F",
"~. c #1F1307",
"^. c #74726F",
"/. c #DC8F16",
"(. c #C6B99F",
"). c #6D6D6D",
"_. c #2A2A2A",
"`. c #F1BD68",
"'. c #5A3605",
"]. c #8D5504",
"[. c #3A2406",
"{. c #704404",
"}. c #402907",
"|. c #202022",
" X c #754805",
".X c #B36B02",
"XX c #0E0B08",
"oX c #1C1E21",
"OX c #1E1E21",
"+X c #5A5349",
"@X c #8A5A10",
"#X c #434345",
"$X c #B5761A",
"%X c #5B5A57",
"&X c #D4CFBC",
"*X c #311D07",
"=X c #593705",
"-X c #BDB59D",
";X c #C5C1AF",
":X c #908F8B",
">X c #000008",
",X c #757576",
"<X c #3C2606",
"1X c #A36406",
"2X c gray20",
/* pixels */
"                                                                                                                                ",
"                                                                                                                                ",
"                                                                                                                                ",
"                                                                                                                                ",
"                                                                                                                                ",
"                                                    w w w w w w w w                                                             ",
"                                            w i.| 6.V.x x x x x x V.6.m m                                                       ",
"                                        | z.oX4.4.J.;XB B B B B B ;X+Xd.] N.,.m                                                 ",
"                                    w.E.=.,XK.a.D.u.+.v v v v v R ! `.6 t @X X&.E.w.                                            ",
"                                w | #Xl.h.1.H #.g p , o o o o o $ o . . . o 0 7 Y.}.m P                                         ",
"                              L n.4.-XH v ` } $ o o . . 6 S > > > > > & . . o 0 X % ] >.T                                       ",
"                            L n.e.a.+.} , < O < . 1 ~ ~ ;.C./.y y y y 8 ~ k o o = # u *.>.T                                     ",
"                          L U.e.-.g } o $ = o 1 t M.b.7.2.A.} o . . . > 8 8 y k 1 = X # *.v.T                                   ",
"                        I.U.e.A.i o . . o o > y.t.5.H H R , o . . . . . . 1 > 8 y > = + G *.v.I.                                ",
"                        f K.s.K o . . . . t c.u.8.+.K 4 , o . $ < o . . . . . 1 6 8 > O + # 5 9                                 ",
"                      ..=.h.! , . . . o t c.8.R k.o . o . . . $ = o . . . . . . . & 8 S + X j &...U                             ",
"                    i.m.F.+., o . . o t I 8.g o o . . . . . . . . . . . . . . . . . ~ j u X X j [.w.                            ",
"                    OX^.2.p o . o $ t I 8.g o . . . . . . . . . . . . . . . . . . . 1 8 j u + l {.0.U                           ",
"                  _.x &X! . . . = G y.D.R o . . . . . . . < o . . . . . . . . . . . . 1 j j l ; 7 3.2X                          ",
"                  N.:X8.k.. . . $ ~ 7.g.K o . . . . . . . $ 6 d r.D D D D N s s ^ o . o : - : X q ].XX                          ",
"                  E T.-., . . . & y.5.v . . . . . . . . . 6 > F :.<./ / / 2 2 2 f.^ . o l j 7 * X  .W                           ",
"                  E T.g., . . . 8 7.H i o . . . . . . . 1 _ F @./ s ( ( ( o.p.2 2 q., $ + u % : ;  .W                           ",
"                c ).G.#.. . . o /.G.g.4 o o . . . . . 6 d r.:.N ` , . . 1 > j.o.2 N , $ + u %.3 ; 3 X.W.                        ",
"                f b h i o . . S C.1.g . . < o . . o & > F D <.f.o . . . . & _ 9.p.s , o ; q - - q 0 5 9                         ",
"                f b h i o . . k I 1.K o . o . . . & _ e @.r ^ , . . . . . . 1 . , , . o ; X z % V O 5 9                         ",
"                f b h i o . . k I 1.K o . . . . . & @ e a r 4 . . . . . . o . . . . . < + X 3 % V O 5 9                         ",
"              L |.l.H i o . . t t.s.K o . . . . . & @ e a r 4 . . . . . o = o . . . . 0 X X 3 % : X Y.~.P                       ",
"              c J.a.g . . . 6 ;.u.#.. . . . . . . & @ e a r 4 . $ o . . o O o . . . . 0 X X 3 %.j * q =XA                       ",
"              c Z J p o . . 6 Q ) g o . . . . . . & @ e a r 4 . $ o . . o O o . . . $ ; X + V - - * l M A                       ",
"              c Z J p o . . 6 Q ) g o . . . . . . & @ e a r 4 . . . . . o $ o . . . = X X + ; 7 - G l M A                       ",
"              c Z J p o . $ 6 Q ) g o . . . . . . & @ e a r 4 . . . . . . . . . . o = X X X ; 7 - G # M A                       ",
"              c Z J p o . = V Q ) g o . . . . . . & @ e a r 4 . . . . . . . . . . $ X X X X X 7 - * # M A                       ",
"              c Z J p o . $ S Q ) g o . . . o o . & @ e a r 4 . . . . . . . . . . $ X O ; X # 7 - * # M A                       ",
"              c Z J k.o . . 6 ;.5.R , . . . $ = . & @ e a r 4 . . . . . . . . . o ; X 0 ; X : % - * # M A                       ",
"              | =.h.! 4 . . . k t.1.K o . . $ < . & @ e a r 4 . . . . . . . . . o + X X X X 3 %.@ # j &.m                       ",
"                f b h i o . . k I -.4 . . . . . . & _ e @.r ^ , . . . . . . 1 . < ; X X O + 3 % q X 5 9                         ",
"                f b h i o o o k M.i o . . . . . . o 6 j.F D <.f.o . . . . & _ 9.N [ + X + # z % q X 5 9                         ",
"                f b h i o = $ t y o . . . $ < $ . . . 6 d r.:.N ` , . . 1 > j.o.2 s ; + X u % % q X 5 9                         ",
"                f b h i o $ o & 8 > . . . < = < . . . . 1 _ F @./ s ( ( ( o.p.2 2 s O ; X u % 7 * # 5 9                         ",
"                i.m.(.p o . . . 8 ~ . . . . . . . . . . . 6 > F o.2 2 2 2 2 2 2 ^ 0 X X X : %.: X - <Xw.                        ",
"                  E B.p o . . . k 8 1 . . . . . . . . . . . 6 d 9.q.q.q.q.q.s [ 0 X X X * - - u ; n W                           ",
"                  E B.! . . . . . y > . . . . . o < o . . . . . . . . . . o O X X X X X 3 % z O 0 n W                           ",
"                  ..%X7.4 o . . . > y 1 . . . . o O $ . . . . . . . o = O ; X + X X X * - - q X 3 '...                          ",
"                  w { $Xl = o . . 1 y > . . . . o = o . . . . . . o = + X X X O ; X * 7 % @ X # .X{ U                           ",
"                    O.d.q X O < o . & 8 > . . . . o . . . . . . < = + X X X X X X * 7 % @ * X u d.O.                            ",
"                    T *X$.* X + O < o & 8 > . . . . . . . . $ O + X X X X X X X * 7 % @ * ; V $.*XP                             ",
"                      P L.n X ; O + ; $ & 8 t . . . o $ $ < ; X X ; + X X X # q 7 % z # + + 1XL.P                               ",
"                        >XY : X X X X X O G 8 8 S = = + X X X X X = O X # : @ % % z # X O : Y W.                                ",
"                          C Y : X X O + X X l : _ z * * X X X X X # # : 7 % % 7 : # X X 3 Y C                                   ",
"                            C Y 3 X + X + + X + * k @ 7 : q q q q 7 - - - j u * X X X 3 X.C                                     ",
"                              C X.n u X O ; X X X + G l : @ @ @ @ 7 7 : * # X X X u n X.C                                       ",
"                                R.' P.: # X X X X X 0 O X X X X X X X X X + 0 l : P.' R.                                        ",
"                                    0.] $.z 3 X X X X X X X X ; = + X X X 3 _ $.] 0.                                            ",
"                                    x.m Z.3.H.n  .% * X X X X X + * %  .n H.3.Z.m U                                             ",
"                                        x.S.O.' W { Q.5 5 5 5 5 5 Q.{ W ' O.S.U                                                 ",
"                                                  !.z.9 9 9 9 9 9 z.!.                                                          ",
"                                                                                                                                ",
"                                                                                                                                ",
"                                                                                                                                ",
"                                                                                                                                ",
"                                                                                                                                ",
"                                                                                                                                ",
"                                                                                                                                ",
"                                                                                                                                "
};
