/* XPM */
static char *Dad[] = {
/* columns rows colors chars-per-pixel */
"150 150 256 2",
"   c None",
".  c #000101",
"X  c #010203",
"o  c #020303",
"O  c #030407",
"+  c #060504",
"@  c #070B0D",
"#  c #0C0A09",
"$  c #0E0C0A",
"%  c #0F0E11",
"&  c #0F111E",
"*  c #0F161B",
"=  c #0F171B",
"-  c #0F161C",
";  c #130C03",
":  c #150F05",
">  c #120F0D",
",  c #1B1307",
"<  c #1B130A",
"1  c #10181F",
"2  c #181512",
"3  c #121525",
"4  c #1E233C",
"5  c #220B04",
"6  c #230B04",
"7  c #210F04",
"8  c #220F04",
"9  c #231004",
"0  c #241004",
"q  c #251104",
"w  c #261104",
"e  c #271705",
"r  c #281705",
"t  c #2A1405",
"y  c #2C1705",
"u  c #291805",
"i  c #291905",
"p  c #291A05",
"a  c #2A1805",
"s  c #2B1805",
"d  c #2A1A05",
"f  c #2C1A05",
"g  c #2C1B05",
"h  c #2D1B05",
"j  c #2D1C05",
"k  c #2C1E06",
"l  c #2E1D05",
"z  c #2F1D05",
"x  c #2F1D06",
"c  c #2E1F06",
"v  c #2F1E06",
"b  c #2F1F06",
"n  c #291A09",
"m  c #2A1A09",
"M  c #2B1D0A",
"N  c #2B1F0B",
"B  c #2B1F0C",
"V  c #221D19",
"C  c #241F1B",
"Z  c #2B1D10",
"A  c #2D1E10",
"S  c #301D06",
"D  c #301E05",
"F  c #301E06",
"G  c #351E10",
"H  c #2E2005",
"J  c #2E2006",
"K  c #2F2006",
"L  c #26211D",
"P  c #27221C",
"I  c #2A2114",
"U  c #2C241B",
"Y  c #302005",
"T  c #302106",
"R  c #322306",
"E  c #332306",
"W  c #342406",
"Q  c #362406",
"!  c #372607",
"~  c #31200A",
"^  c #32210A",
"/  c #30220C",
"(  c #30230D",
")  c #30240E",
"_  c #32240D",
"`  c #32250E",
"'  c #34220A",
"]  c #37210E",
"[  c #35260D",
"{  c #36270E",
"}  c #3F2B0F",
"|  c #322010",
" . c #342110",
".. c #352210",
"X. c #372310",
"o. c #32271A",
"O. c #33291D",
"+. c #342919",
"@. c #352B1C",
"#. c #3C2611",
"$. c #3C2712",
"%. c #382C1A",
"&. c #392E1D",
"*. c #2B2B39",
"=. c #2E2E3C",
"-. c #312A24",
";. c #322A24",
":. c #352D26",
">. c #322D2D",
",. c #393129",
"<. c #3D352D",
"1. c #36333B",
"2. c #34333D",
"3. c #323240",
"4. c #323241",
"5. c #343443",
"6. c #353545",
"7. c #373747",
"8. c #3F3D47",
"9. c #3B3B4C",
"0. c #3C3C4D",
"q. c #412A13",
"w. c #412B13",
"e. c #402B16",
"r. c #402C10",
"t. c #402C15",
"y. c #47300B",
"u. c #483516",
"i. c #4D351D",
"p. c #4C371F",
"a. c #4F3B1B",
"s. c #533B14",
"d. c #553D15",
"f. c #573F17",
"g. c #513C1B",
"h. c #523C1D",
"j. c #563F19",
"k. c #4F3E2B",
"l. c #4A3F33",
"z. c #533A21",
"x. c #563E21",
"c. c #513F28",
"v. c #423F40",
"b. c #47423F",
"n. c #554329",
"m. c #55432E",
"M. c #574D2D",
"N. c #584523",
"B. c #564D31",
"V. c #55493D",
"C. c #5B4B31",
"Z. c #5B4B38",
"A. c #595032",
"S. c #614519",
"D. c #60461C",
"F. c #684B1C",
"G. c #6B4C1B",
"H. c #624C26",
"J. c #624E30",
"K. c #635530",
"L. c #655236",
"P. c #615038",
"I. c #6C5839",
"U. c #705830",
"Y. c #735C31",
"T. c #776033",
"R. c #776234",
"E. c #786037",
"W. c #7B6436",
"Q. c #796139",
"!. c #7F6639",
"~. c #404052",
"^. c #414153",
"/. c #434355",
"(. c #544E47",
"). c #5C4F43",
"_. c #595248",
"`. c #5D564C",
"'. c #635744",
"]. c #625548",
"[. c #6B5C44",
"{. c #6E5D43",
"}. c #6A5B4C",
"|. c #6A5B4D",
" X c #6E6046",
".X c #76644F",
"XX c #796948",
"oX c #7B6D4D",
"OX c #7C6E4D",
"+X c #716151",
"@X c #706650",
"#X c #83693E",
"$X c #A77628",
"%X c #A37730",
"&X c #836B41",
"*X c #806F5D",
"=X c #85724B",
"-X c #887B58",
";X c #927845",
":X c #947C46",
">X c #957F66",
",X c #93825E",
"<X c #94855C",
"1X c #8C846E",
"2X c #9B846C",
"3X c #9C8570",
"4X c #A58C51",
"5X c #B19859",
"6X c #B69C5C",
"7X c #AB9B66",
"8X c #AC9B62",
"9X c #AE9E67",
"0X c #AB937B",
"qX c #B1987F",
"wX c #BCA25F",
"eX c #B8A66A",
"rX c #BAA86B",
"tX c #CAAD4B",
"yX c #D5B343",
"uX c #DEBD4D",
"iX c #C3AD65",
"pX c #C4AD63",
"aX c #C1AE6D",
"sX c #C2AE6D",
"dX c #C0AE72",
"fX c #C0AE74",
"gX c #CDB462",
"hX c #CCB464",
"jX c #C7B474",
"kX c #C7B576",
"lX c #C7B579",
"zX c #C9B470",
"xX c #CAB570",
"cX c #CFBB79",
"vX c #D7BE68",
"bX c #D6BE6E",
"nX c #D1BB72",
"mX c #D5BE73",
"MX c #D4BE77",
"NX c #D3BE79",
"BX c #D2BE7C",
"VX c #D9C275",
"CX c #DDC576",
"ZX c #D8C27C",
"AX c #EFCE5F",
"SX c #EBCE6F",
"DX c #E3CA78",
"FX c #E5CB78",
"GX c #E6CC79",
"HX c #E7CD79",
"JX c #E9CF7A",
"KX c #C8AE92",
"LX c #DDBD9F",
"PX c #E6CF80",
"IX c #E6CF83",
"UX c None",
/* pixels */
"UXUXUXUXUXUXUXUXUXUXUXUXUXUXUXUXUXUXUXUXUXUXUXUXUXUXUXUXUXUXUXUXUXUXUXUXUXUXUXUXUXUXUXUXUXUXUXUXUXUXUXUXUXUXUXUXUXUXUXUXUXUXUXUXUXUXUXUXUXUXUXUXUXUXUXUXUXUXUXUXUXUXUXUXUXUXUXUXUXUXUXUXUXUXUXUXUXUXUXUXUXUXUXUXUXUXUXUXUXUXUXUXUXUXUXUXUXUXUXUXUXUXUXUXUXUXUXUXUXUXUX6X6X6X6X6X6X6X6X6X;Xx.x.x.x.x.x.x.x.x.",
"UXUXUXUXUXUXUXUXUXUXUXUXUXUXUXUXUXUXUXUXUXUXUXUXUXUXUXUXUXUXUXUXUXUXUXUXUXUXUXUXUXUXUXUXUXUXUXUXUXUXUXUXUXUXUXUXUXUXUXUXUXUXUXUXUXUXUXUXUXUXUXUXUXUXUXUXUXUXUXUXUXUXUXUXUXUXUXUXUXUXUXUXUXUXUXUXUXUXUXUXUXUXUXUXUXUXUXUXUXUXUXUXUXUXUXUXUXUXUXUXUXUXUXUXUXUXUXUXUXUXUX6X6X6X6X6X6X6X6X6X;Xx.x.x.x.x.x.x.x.x.",
"UXUXUXUXUXUXUXUXUXUXUXUXUXUXUXUXUXUXUXUXUXUXUXUXUXUXUXUXUXUXUXUXUXUXUXUXUXUXUXUXUXUXUXUXUXUXUXUXUXUXUXUXUXUXUXUXUXUXUXUXUXUXUXUXUXUXUXUXUXUXUXUXUXUXUXUXUXUXUXUXUXUXUXUXUXUXUXUXUXUXUXUXUXUXUXUXUXUXUXUXUXUXUXUXUXUXUXUXUXUXUXUXUXUXUXUXUXUXUXUXUXUXUXUXUXUXUXUXUXUXUX6X6X6X6X6X6X6X6X6X;Xx.x.x.x.x.x.x.x.x.",
"UXUXUXUXUXUXUXUXUXUXUXUXUXUXUXUXUXUXUXUXUXUXUXUXUXUXUXUXUXUXUXUXUXUXUXUXUXUXUXUXUXUXUXUXUXUXUXUXUXUXUXUXUXUXUXUXUXUXUXUXUXUXUXUXUXUXUXUXUXUXUXUXUXUXUXUXUXUXUXUXUXUXUXUXUXUXUXUXUXUXUXUXUXUXUXUXUXUXUXUXUXUXUXUXUXUXUXUXUXUXUXUXUXUXUXUXUXUXUXUXUXUXUXUXUXUXUXUXUXUXUX6X6X6X6X6X6X6X6X6X;Xx.x.x.x.x.x.x.x.x.",
"UXUXUXUXUXUXUXUXUXUXUXUXUXUXUXUXUXUXUXUXUXUXUXUXUXUXUXUXUXUXUXUXUXUXUXUXUXUXUXUXUXUXUXUXUXUXUXUXUXUXUXUXUXUXUXUXUXUXUXUXUXUXUXUXUXUXUXUXUXUXUXUXUXUXUXUXUXUXUXUXUXUXUXUXUXUXUXUXUXUXUXUXUXUXUXUXUXUXUXUXUXUXUXUXUXUXUXUXUXUXUXUXUXUXUXUXUXUXUXUXUXUXUXUXUXUXUXUXUXUXUX6X6X6X6X6X6X6X6X6X;Xx.x.x.x.x.x.x.x.x.",
"UXUXUXUXUXUXUXUXUXUXUXUXUXUXUXUXUXUXUXUXUXUXUXUXUXUXUXUXUXUXUXUXUXUXUXUXUXUXUXUXUXUXUXUXUXUXUXUXUXUXUXUXUXUXUXUXUXUXUXUXUXUXUXUXUXUXUXUXUXUXUXUXUXUXUXUXUXUXUXUXUXUXUXUXUXUXUXUXUXUXUXUXUXUXUXUXUXUXUXUXUXUXUXUXUXUXUXUXUXUXUXUXUXUXUXUXUXUXUXUXUXUXUXUXUXUXUXUXUXUXUX6X6X6X6X6X6X6X6X6X;Xx.x.x.x.x.x.x.x.x.",
"UXUXUXUXUXUXUXUXUXUXUXUXUXUXUXUXUXUXUXUXUXUXUXUXUXUXUXUXUXUXUXUXUXUXUXUXUXUXUXUXUXUXUXUXUXUXUXUXUXUXUXUXUXUXUXUXUXUXUXUXUXUXUXUXUXUXUXUXUXUXUXUXUXUXUXUXUXUXUXUXUXUXUXUXUXUXUXUXUXUXUXUXUXUXUXUXUXUXUXUXUXUXUXUXUXUXUXUXUXUXUXUXUXUXUXUXUXUXUXUXUXUXUXUXUXUXUXUXUXUXUX6X6X6X6X6X6X6X6X6X;Xx.x.x.x.x.x.x.x.x.",
"UXUXUXUXUXUXUXUXUXUXUXUXUXUXUXUXUXUXUXUXUXUXUXUXUXUXUXUXUXUXUXUXUXUXUXUXUXUXUXUXUXUXUXUXUXUXUXUXUXUXUXUXUXUXUXUXUXUXUXUXUXUXUXUXUXUXUXUXUXUXUXUXUXUXUXUXUXUXUXUXUXUXUXUXUXUXUXUXUXUXUXUXUXUXUXUXUXUXUXUXUXUXUXUXUXUXUXUXUXUXUXUXUXUXUXUXUXUXUXUXUXUXUXUXUXUXUXUXUXUXUX6X6X6X6X6X6X6X6X6X;Xx.x.x.x.x.x.x.x.x.",
"UXUXUXUXUXUXUXUXUXUXUXUXUXUXUXUXUXUXUXUXUXUXUXUXUXUXUXUXUXUXUXUXUXUXUXUXUXUXUXUXUXUXUXUXUXUXUXUXUXUXUXUXUXUXUXUXUXUXUXUXUXUXUXUXUXUXUXUXUXUXUXUXUXUXUXUXUXUXUXUXUXUXUXUXUXUXUXUXUXUXUXUXUXUXUXUXUXUXUXUXUXUXUXUXUXUXUXUXUXUXUXUXUXUXUXUXUXUXUXUXUXUXUXUXUXUXUXUXUXUXUX6X6X6X6X6X6X6X6X6X;Xx.x.j.x.x.x.x.j.x.",
"UXUXUXUXUXUXUXUXUXUXUXUXUXUXUXUXUXUXUXUXUXUXUXUXUXUXUXUXUXUXUXUXUXUXUXUXUXUXUXUXUXUXUXUXUXUXUXUXUXUXUXUXUXUXUXUXUXUXUXUXUXUXUXUXUXUXUXUXUXUXUXUXUXUXUXUXUXUXUXUXUXUXUXUXUXUXUXUXUXUXUXUXUXUXUXUXUXUXUXUXUXUXUXUXUXUXUXUXUXUXUXUXUXUXUXUXUXUXUXUXUX6X6X6X6X6X6X6X6X6X6XT.H.H.H.H.H.H.H.H.h.X.' [ ' X.] X.] G ",
"UXUXUXUXUXUXUXUXUXUXUXUXUXUXUXUXUXUXUXUXUXUXUXUXUXUXUXUXUXUXUXUXUXUXUXUXUXUXUXUXUXUXUXUXUXUXUXUXUXUXUXUXUXUXUXUXUXUXUXUXUXUXUXUXUXUXUXUXUXUXUXUXUXUXUXUXUXUXUXUXUXUXUXUXUXUXUXUXUXUXUXUXUXUXUXUXUXUXUXUXUXUXUXUXUXUXUXUXUXUXUXUXUXUXUXUXUXUXUXUXUX6X6X6X6X6X6X6X6X6X6Xg.S S S S S S S S t w q q t 8 8 t w 8 ",
"UXUXUXUXUXUXUXUXUXUXUXUXUXUXUXUXUXUXUXUXUXUXUXUXUXUXUXUXUXUXUXUXUXUXUXUXUXUXUXUXUXUXUXUXUXUXUXUXUXUXUXUXUXUXUXUXUXUXUXUXUXUXUXUXUXUXUXUXUXUXUXUXUXUXUXUXUXUXUXUXUXUXUXUXUXUXUXUXUXUXUXUXUXUXUXUXUXUXUXUXUXUXUXUXUXUXUXUXUXUXUXUXUXUXUXUXUXUXUXUXUX6X6X6X6X6X6X6X6X6X6Xg.S S S S S S F F f w q q 8 w 8 8 w 8 ",
"UXUXUXUXUXUXUXUXUXUXUXUXUXUXUXUXUXUXUXUXUXUXUXUXUXUXUXUXUXUXUXUXUXUXUXUXUXUXUXUXUXUXUXUXUXUXUXUXUXUXUXUXUXUXUXUXUXUXUXUXUXUXUXUXUXUXUXUXUXUXUXUXUXUXUXUXUXUXUXUXUXUXUXUXUXUXUXUXUXUXUXUXUXUXUXUXUXUXUXUXUXUXUXUXUXUXUXUXUXUXUXUXUXUXUXUXUXUXUXUXUX6X6X6X6X6X6X6X6X6X6Xg.S S S S S S S S y q q q 8 w w 8 w w ",
"UXUXUXUXUXUXUXUXUXUXUXUXUXUXUXUXUXUXUXUXUXUXUXUXUXUXUXUXUXUXUXUXUXUXUXUXUXUXUXUXUXUXUXUXUXUXUXUXUXUXUXUXUXUXUXUXUXUXUXUXUXUXUXUXUXUXUXUXUXUXUXUXUXUXUXUXUXUXUXUXUXUXUXUXUXUXUXUXUXUXUXUXUXUXUXUXUXUXUXUXUXUXUXUXUXUXUXUXUXUXUXUXUXUXUXUXUXUXUXUXUX6X6X6X6X6X6X6X6X6X6Xg.S S S S S S S S y q q q 8 w w 8 w 8 ",
"UXUXUXUXUXUXUXUXUXUXUXUXUXUXUXUXUXUXUXUXUXUXUXUXUXUXUXUXUXUXUXUXUXUXUXUXUXUXUXUXUXUXUXUXUXUXUXUXUXUXUXUXUXUXUXUXUXUXUXUXUXUXUXUXUXUXUXUXUXUXUXUXUXUXUXUXUXUXUXUXUXUXUXUXUXUXUXUXUXUXUXUXUXUXUXUXUXUXUXUXUXUXUXUXUXUXUXUXUXUXUXUXUXUXUXUXUXUXUXUXUX6X6X6X6X6X6X6X6X6X6Xh.S S S S S S S S y q q q w w w w w w ",
"UXUXUXUXUXUXUXUXUXUXUXUXUXUXUXUXUXUXUXUXUXUXUXUXUXUXUXUXUXUXUXUXUXUXUXUXUXUXUXUXUXUXUXUXUXUXUXUXUXUXUXUXUXUXUXUXUXUXUXUXUXUXUXUXUXUXUXUXUXUXUXUXUXUXUXUXUXUXUXUXUXUXUXUXUXUXUXUXUXUXUXUXUXUXUXUXUXUXUXUXUXUXUXUXUXUXUXUXUXUXUXUXUXUXUXUXUXUXUXUXUX6X6X6X6X6X6X6X6X6X6Xh.S S S S S S S S y q q q w 8 8 w 8 w ",
"UXUXUXUXUXUXUXUXUXUXUXUXUXUXUXUXUXUXUXUXUXUXUXUXUXUXUXUXUXUXUXUXUXUXUXUXUXUXUXUXUXUXUXUXUXUXUXUXUXUXUXUXUXUXUXUXUXUXUXUXUXUXUXUXUXUXUXUXUXUXUXUXUXUXUXUXUXUXUXUXUXUXUXUXUXUXUXUXUXUXUXUXUXUXUXUXUXUXUXUXUXUXUXUXUXUXUXUXUXUXUXUXUXUXUXUXUXUXUXUXUX6X6X6X6X6X6X6X6X6X6Xg.F F S S S S S S y q q q 8 w w 8 8 t ",
"UXUXUXUXUXUXUXUXUXUXUXUXUXUXUXUXUXUXUXUXUXUXUXUXUXUXUXUXUXUXUXUXUXUXUXUXUXUXUXUXUXUXUXUXUXUXUXUXUXUXUXUXUXUXUXUXUXUXUXUXUXUXUXUXUXUXUXUXUXUXUXUXUXUXUXUXUXUXUXUXUXUXUXUXUXUXUXUXUXUXUXUXUXUXUXUXUXUXUXUXUXUXUXUXUXUXUXUXUXUXUXUXUXUXUXUXUXUXUXUXUX6X6X6X6X6X6X6X6X6X6Xg.S F S S S S S S y q q q w w 8 t 8 8 ",
"UXUXUXUXUXUXUXUXUXUXUXUXUXUXUXUXUXUXUXUXUXUXUXUXUXUXUXUXUXUXUXUXUXUXUXUXUXUXUXUXUXUXUXUXUXUXUXUXUXUXUXUXUXUXUXUXUXUXUXUXUXUXUXUXUXUXUXUXUXUXUXUXUXUXUXUXUXUXUXUXUXUXUXUXUXUXUXUXUXUXUXUXUXUXUXUXUXUXUXUXUXUXUXUXUXUXUXUXUXUXUXUX6X6X6X6X6X6X6X6X6X5X:X:X:X:X:X:X;X:X;Xu.F c c c c F S g y q 8 8 8 8 8 8 w 8 ",
"UXUXUXUXUXUXUXUXUXUXUXUXUXUXUXUXUXUXUXUXUXUXUXUXUXUXUXUXUXUXUXUXUXUXUXUXUXUXUXUXUXUXUXUXUXUXUXUXUXUXUXUXUXUXUXUXUXUXUXUXUXUXUXUXUXUXUXUXUXUXUXUXUXUXUXUXUXUXUXUXUXUXUXUXUXUXUXUXUXUXUXUXUXUXUXUXUXUXUXUXUXUXUXUXUXUXUXUXUXUXUXUX6X6X6X6X6X6X6X6X6X4XS S S S S S S F F c c c c c c c c c y 7 8 7 8 8 7 7 7 8 ",
"UXUXUXUXUXUXUXUXUXUXUXUXUXUXUXUXUXUXUXUXUXUXUXUXUXUXUXUXUXUXUXUXUXUXUXUXUXUXUXUXUXUXUXUXUXUXUXUXUXUXUXUXUXUXUXUXUXUXUXUXUXUXUXUXUXUXUXUXUXUXUXUXUXUXUXUXUXUXUXUXUXUXUXUXUXUXUXUXUXUXUXUXUXUXUXUXUXUXUXUXUXUXUXUXUXUXUXUXUXUXUXUX6X6X6X6X6X6X6X6X6X4XS S S S S S S S S c J J J J c K J J e , 7 7 8 7 7 7 7 7 ",
"UXUXUXUXUXUXUXUXUXUXUXUXUXUXUXUXUXUXUXUXUXUXUXUXUXUXUXUXUXUXUXUXUXUXUXUXUXUXUXUXUXUXUXUXUXUXUXUXUXUXUXUXUXUXUXUXUXUXUXUXUXUXUXUXUXUXUXUXUXUXUXUXUXUXUXUXUXUXUXUXUXUXUXUXUXUXUXUXUXUXUXUXUXUXUXUXUXUXUXUXUXUXUXUXUXUXUXUXUXUXUXUX6X6X6X6X6X6X6X6X6X4XS S S S S S S S S c J J J J K c J J y 7 7 7 7 7 7 7 7 7 ",
"UXUXUXUXUXUXUXUXUXUXUXUXUXUXUXUXUXUXUXUXUXUXUXUXUXUXUXUXUXUXUXUXUXUXUXUXUXUXUXUXUXUXUXUXUXUXUXUXUXUXUXUXUXUXUXUXUXUXUXUXUXUXUXUXUXUXUXUXUXUXUXUXUXUXUXUXUXUXUXUXUXUXUXUXUXUXUXUXUXUXUXUXUXUXUXUXUXUXUXUXUXUXUXUXUXUXUXUXUXUXUXUX6X6X6X6X6X6X6X6X6X4XS S S S S S S S c c J J J J c J J J y , 7 7 7 7 7 7 7 7 ",
"UXUXUXUXUXUXUXUXUXUXUXUXUXUXUXUXUXUXUXUXUXUXUXUXUXUXUXUXUXUXUXUXUXUXUXUXUXUXUXUXUXUXUXUXUXUXUXUXUXUXUXUXUXUXUXUXUXUXUXUXUXUXUXUXUXUXUXUXUXUXUXUXUXUXUXUXUXUXUXUXUXUXUXUXUXUXUXUXUXUXUXUXUXUXUXUXUXUXUXUXUXUXUXUXUXUXUXUXUXUXUXUX6X6X6X6X6X6X6X6X6X4XS S S S S S c F g c J J J J K c J J e 9 7 7 7 7 7 7 7 7 ",
"UXUXUXUXUXUXUXUXUXUXUXUXUXUXUXUXUXUXUXUXUXUXUXUXUXUXUXUXUXUXUXUXUXUXUXUXUXUXUXUXUXUXUXUXUXUXUXUXUXUXUXUXUXUXUXUXUXUXUXUXUXUXUXUXUXUXUXUXUXUXUXUXUXUXUXUXUXUXUXUXUXUXUXUXUXUXUXUXUXUXUXUXUXUXUXUXUXUXUXUXUXUXUXUXUXUXUXUXUXUXUXUX6X6X6X6X6X6X6X6X6X4XS S S S S S S S S c c c J J J J c K y 7 7 7 7 7 7 7 7 7 ",
"UXUXUXUXUXUXUXUXUXUXUXUXUXUXUXUXUXUXUXUXUXUXUXUXUXUXUXUXUXUXUXUXUXUXUXUXUXUXUXUXUXUXUXUXUXUXUXUXUXUXUXUXUXUXUXUXUXUXUXUXUXUXUXUXUXUXUXUXUXUXUXUXUXUXUXUXUXUXUXUXUXUXUXUXUXUXUXUXUXUXUXUXUXUXUXUXUXUXUXUXUXUXUXUXUXUXUXUXUXUXUXUX6X6X6X6X6X6X6X6X6X4XS S S S S S S S S c c c J J J J J c y 7 7 7 7 7 7 7 7 7 ",
"UXUXUXUXUXUXUXUXUXUXUXUXUXUXUXUXUXUXUXUXUXUXUXUXUXUXUXUXUXUXUXUXUXUXUXUXUXUXUXUXUXUXUXUXUXUXUXUXUXUXUXUXUXUXUXUXUXUXUXUXUXUXUXUXUXUXUXUXUXUXUXUXUXUXUXUXUXUXUXUXUXUXUXUXUXUXUXUXUXUXUXUXUXUXUXUXUXUXUXUXUXUXUXUXUXUXUXUXUXUXUXUX6X6X6X6X6X6X6X6X6X4XS S S S S S S S c K K c J J J J c K y , 7 7 7 7 7 7 7 7 ",
"UXUXUXUXUXUXUXUXUXUXUXUXUXUXUXUXUXUXUXUXUXUXUXUXUXUXUXUXUXUXUXUXUXUXUXUXUXUXUXUXUXUXUXUXUXUXUXUXUXUXUXUXUXUXUXUXUXUXUXUXUXUXUXUXUXUXUXUXUXUXUXUXUXUXUXUXUXUXUXUXUXUXUXUXUXUXUXUXUXUXUXUXUXUXUXUXUXUXUXUXUXUXUXUXUXUXUXUXUXUXUXUX6X6X6X6X6X6X6X6X6X4XS S S S S S F F g K c K J J J J K c y 7 7 7 7 7 7 7 7 7 ",
"UXUXUXUXUXUXUXUXUXUXUXUXUXUXUXUXUXUXUXUXUXUXUXUXUXUXUXUX                                                                            UXUXUXUXUXUXUXUXUXUXUXUXUXUXUXUXUXUXUXUXUXUXUXUXUXUXUXJXJXJXJXJXJXJXJXJXJXwX6X6X6X6X6X6X6X6XW.r.r.r.r.r.r.r.r.r.Q Q Q Q Q Q Q Q Q R J J J J J J J J e 8 t w 8 w w 8 8 w ",
"UXUXUXUXUXUXUXUXUXUXUXUXUXUXUXUXUXUXUXUXUXUXUXUXUXUXUXUX                                                                            UXUXUXUXUXUXUXUXUXUXUXUXUXUXUXUXUXUXUXUXUXUXUXUXUXUXUXJXJXJXJXJXJXJXJXJXJXwX6X6X6X6X6X6X6X6XY.S S S S S S S S S ! ! Q Q ! ! ! ! ! K J J J J J J J J g w 8 8 w 8 w w w 8 ",
"UXUXUXUXUXUXUXUXUXUXUXUXUXUXUXUXUXUXUXUXUXUXUXUXUXUXUXUX                                                                            UXUXUXUXUXUXUXUXUXUXUXUXUXUXUXUXUXUXUXUXUXUXUXUXUXUXUXJXJXJXJXJXJXJXJXJXJXwX6X6X6X6X6X6X6X6XY.S S S S S S S S S ! ! ! ! ! ! ! ! Q K J J J J J J J J g 8 w w w 8 w 8 w 8 ",
"UXUXUXUXUXUXUXUXUXUXUXUXUXUXUXUXUXUXUXUXUXUXUXUXUXUXUXUX                                                                            UXUXUXUXUXUXUXUXUXUXUXUXUXUXUXUXUXUXUXUXUXUXUXUXUXUXUXJXJXJXJXJXJXJXJXJXJXwX6X6X6X6X6X6X6X6XY.S S S S S S S S F ! ! ! ! ! ! ! ! Q K J J J J J J J J y w 8 8 w w w 8 w w ",
"UXUXUXUXUXUXUXUXUXUXUXUXUXUXUXUXUXUXUXUXUXUXUXUXUXUXUXUX                                                                            UXUXUXUXUXUXUXUXUXUXUXUXUXUXUXUXUXUXUXUXUXUXUXUXUXUXUXJXJXJXJXJXJXJXJXJXJXwX6X6X6X6X6X6X6X6XY.S S S S S S S S S ! ! ! ! ! ! ! ! ! K K K J J J J J J c 9 9 q q q q q q q ",
"UXUXUXUXUXUXUXUXUXUXUXUXUXUXUXUXUXUXUXUXUXUXUXUXUXUXUXUX                                                                            UXUXUXUXUXUXUXUXUXUXUXUXUXUXUXUXUXUXUXUXUXUXUXUXUXUXUXJXJXJXJXJXJXJXJXJXJXwX6X6X6X6X6X6X6X6XY.S S S S S S S S S ! ! ! ! ! ! ! ! ! R K K J J J J J J y q q q q q q q q q ",
"UXUXUXUXUXUXUXUXUXUXUXUXUXUXUXUXUXUXUXUXUXUXUXUXUXUXUXUX                                                                            UXUXUXUXUXUXUXUXUXUXUXUXUXUXUXUXUXUXUXUXUXUXUXUXUXUXUXJXJXJXJXJXJXJXJXJXJXwX6X6X6X6X6X6X6X6XY.S S S S S S S S S ! ! ! ! ! ! ! ! ! K J J J J J J J J y q q q q q q q q q ",
"UXUXUXUXUXUXUXUXUXUXUXUXUXUXUXUXUXUXUXUXUXUXUXUXUXUXUXUX                                                                            UXUXUXUXUXUXUXUXUXUXUXUXUXUXUXUXUXUXUXUXUXUXUXUXUXUXUXJXJXJXJXJXJXJXJXJXJXwX6X6X6X6X6X6X6X6XY.S S S S S S S S S ! ! ! ! ! ! ! ! ! K J J J J J J J c g q q q q q q q q q ",
"UXUXUXUXUXUXUXUXUXUXUXUXUXUXUXUXUXUXUXUXUXUXUXUXUXUXUXUX                                                                            UXUXUXUXUXUXUXUXUXUXUXUXUXUXUXUXUXUXUXUXUXUXUXUXUXUXUXJXJXJXJXJXJXJXJXJXJXwX6X6X6X6X6X6X6X6XY.S S S S S S S c c Q Q ! ! ! ! Q ! ! R J J J J J J J J y 9 q q w 8 t 8 q 9 ",
"UXUXUXUXUXUXUXUXUXUXUXUXUXUXUXUXUXUXUXUXUXUXUXUXUXUXUXUX                  : N N N N N N N N / s.s.s.s.s.s.s.s.g.[ B N N N N N N ( ,                   UXUXUXUXUXUXUXUXUXJXJXJXJXJXJXJXJXJXJXJXJXJXJXJXJXJXJXJX#XU.U.U.U.U.U.U.U.g.S c c c c c c c J W W Q F W W R K R K J J J J J J J J i 9 7 9 8 8 7 8 9 9 ",
"UXUXUXUXUXUXUXUXUXUXUXUXUXUXUXUXUXUXUXUXUXUXUXUXUXUXUXUX                  N f.f.f.f.f.f.f.f.S.$X$X$X$X$X$X$X$X$XG.f.f.f.f.f.f.f.f.{                   UXUXUXUXUXUXUXUXUXJXJXJXJXJXJXJXJXJXJXJXJXJXJXJXJXJXJXJXr.t t t t t t t t f J J J c c J J c c J J J J J J J J J J J J J J J J J J i 7 7 7 7 7 7 7 7 , ",
"UXUXUXUXUXUXUXUXUXUXUXUXUXUXUXUXUXUXUXUXUXUXUXUXUXUXUXUX                  N f.f.f.f.f.f.f.f.S.$X$X$X$X$X$X$X$X$XG.f.f.f.f.f.f.f.f.{                   UXUXUXUXUXUXUXUXUXJXJXJXJXJXJXJXJXJXJXJXJXJXJXJXJXJXJXJXw.t t t t t t t t f c J J c c J J J c J J J J J J J J J J J J J J J J J J i , 7 7 7 7 7 7 7 9 ",
"UXUXUXUXUXUXUXUXUXUXUXUXUXUXUXUXUXUXUXUXUXUXUXUXUXUXUXUX                  N f.f.f.f.f.f.f.f.S.$X$X$X$X$X$X$X$X$XG.f.f.f.f.f.f.f.f.{                   UXUXUXUXUXUXUXUXUXJXJXJXJXJXJXJXJXJXJXJXJXJXJXJXJXJXJXJXw.t t t t t t t t f J J J J J J J c J J J J J J J J J J J J J J J J J J J y 7 7 7 7 7 7 7 7 7 ",
"UXUXUXUXUXUXUXUXUXUXUXUXUXUXUXUXUXUXUXUXUXUXUXUXUXUXUXUX                  N f.f.f.f.f.f.f.f.S.$X$X$X$X$X$X$X$X$XG.f.f.f.f.f.f.f.f.{                   UXUXUXUXUXUXUXUXUXJXJXJXJXJXJXJXJXJXJXJXJXJXJXJXJXJXJXJXw.t t t t t t t t f J J J J J J J J J J J J J J J J J J J J J J J J J J J e 7 7 7 7 7 7 7 7 7 ",
"UXUXUXUXUXUXUXUXUXUXUXUXUXUXUXUXUXUXUXUXUXUXUXUXUXUXUXUX                  N f.f.f.f.f.f.f.f.S.$X$X$X$X$X$X$X$X$XG.f.f.f.f.f.f.f.f.{                   UXUXUXUXUXUXUXUXUXJXJXJXJXJXJXJXJXJXJXJXJXJXJXJXJXJXJXJXw.t t t t t t t t f J J J J J J J J J J J J J J J J J J J J J J J J J J J c , 7 7 7 7 7 7 7 7 ",
"UXUXUXUXUXUXUXUXUXUXUXUXUXUXUXUXUXUXUXUXUXUXUXUXUXUXUXUX                  N f.f.f.f.f.f.f.f.S.$X$X$X$X$X$X$X$X$XG.f.f.f.f.f.f.f.f.{                   UXUXUXUXUXUXUXUXUXJXJXJXJXJXJXJXJXJXJXJXJXJXJXJXJXJXJXJXw.t t t t t t t t f J J J J J J J J J J J J J J J J J J J J J J J J J J J y 6 7 7 7 7 7 7 7 7 ",
"UXUXUXUXUXUXUXUXUXUXUXUXUXUXUXUXUXUXUXUXUXUXUXUXUXUXUXUX                  N f.f.f.f.f.f.f.f.S.$X$X$X$X$X$X$X$X$XG.f.f.f.f.f.f.f.f.{                   UXUXUXUXUXUXUXUXUXJXJXJXJXJXJXJXJXJXJXJXJXJXJXJXJXJXJXJXw.t t t t t t t t f J J J J J J J J J J J J J J J J J J J J J J J J J J J y 7 7 7 7 7 7 7 7 7 ",
"UXUXUXUXUXUXUXUXUXUXUXUXUXUXUXUXUXUXUXUXUXUXUXUXUXUXUXUX                  N f.f.f.f.f.f.f.f.S.$X$X$X$X$X$X$X$X$XG.f.f.f.f.f.f.f.f.{                   UXUXUXUXUXUXUXUXUXJXJXJXJXJXJXJXJXJXJXJXJXJXJXJXJXJXJXJXr.t t t t t t t t f J J J J J J J J J J J J J J J J J J J J c J J J J J J e 7 7 7 7 7 7 7 7 7 ",
"UXUXUXUXUXUXUXUXUXUXUXUXUXUXUXUXUXUXUXUXUXUXUXUXUXUXUXUX                  B j.j.j.j.j.j.j.j.D.%X%X%X%X%X%X%X%X%XG.s.s.f.s.f.f.f.f.[                   JXJXJXJXJXJXJXJXJXJXJXJXJXJXJXJXJXJXJXDXDXDXFXDXFXDXFXDXw.t t t t t t t t f J J J J J J J J J J J J J J J J J J J J J J J J J J J y , 7 7 7 7 7 7 7 7 ",
"UXUXUXUXUXUXUXUXUXUXUXUXUXUXUXUXUXUXUXUXUXUXUXUXUXUXUXUX                  I n.n.n.n.n.n.n.n.C.1X1X1X1X1X1X1X1X>XN.y.y.y.y.y.y.y.y.k                   JXJXJXJXJXJXJXJXJXJXJXJXJXJXJXJXJXJXCXrXrXeXeXeXrXeXrXeX$.t t t t t t t t f J J J J J J J J J J J J J J J J J J J J J J J J J J J y 7 7 7 7 7 7 7 7 7 ",
"UXUXUXUXUXUXUXUXUXUXUXUXUXUXUXUXUXUXUXUXUXUXUXUXUXUXUXUX                  I n.n.n.n.n.n.n.n.C.1X1X1X1X1X1X1X1X1XN.y.y.y.y.y.y.y.y.k                   JXJXJXJXJXJXJXJXJXJXJXJXJXJXJXJXJXJXCXrXrXrXrXrXrXrXrXrX$.t t t t t t t t f J J J J J J J J J J J J J J J J J J J J J J J J J J J y , 7 7 7 7 7 7 7 7 ",
"UXUXUXUXUXUXUXUXUXUXUXUXUXUXUXUXUXUXUXUXUXUXUXUXUXUXUXUX                  I n.n.n.n.n.n.n.n.C.1X1X1X1X1X1X1X1X1XN.y.y.y.y.y.y.y.y.k                   JXJXJXJXJXJXJXJXJXJXJXJXJXJXJXJXJXJXCXrXrXrXrXrXrXrXrXrX$.t t t t t t t t f J J J J J J J J J J J J J J J J J J J J J J J J J J J y 7 7 7 7 7 7 7 7 7 ",
"UXUXUXUXUXUXUXUXUXUXUXUXUXUXUXUXUXUXUXUXUXUXUXUXUXUXUXUX                  I n.n.n.n.n.n.n.n.C.1X1X1X1X1X1X1X1X1XN.y.y.y.y.y.y.y.y.k                   JXJXJXJXJXJXJXJXJXJXJXJXJXJXJXJXJXJXCXrXrXrXrXrXrXrXrXrX$.t t t t t t t t f J J J J J J J J J J J J J J c J J J J J J J J J J J J y , 7 7 7 7 7 7 7 7 ",
"UXUXUXUXUXUXUXUXUXUXUXUXUXUXUXUXUXUXUXUXUXUXUXUXUXUXUXUX                  I n.n.n.n.n.n.n.n.C.1X1X1X1X1X1X1X1X1XN.y.y.y.y.y.y.y.y.c                   JXJXJXJXJXJXJXJXJXJXJXJXJXJXJXJXJXJXCXrXrXrXrXrXrXrXrXeX$.t t t t t t t t f J J J J J J J J J J J J J J J J J J J J J J J J J J J y 7 7 7 7 7 7 7 7 7 ",
"UXUXUXUXUXUXUXUXUXUXUXUXUXUXUXUXUXUXUXUXUXUXUXUXUXUXUXUX                  I n.n.n.n.n.n.n.n.C.1X1X1X1X1X1X1X1X1XN.y.y.y.y.y.y.y.y.k                   JXJXJXJXJXJXJXJXJXJXJXJXJXJXJXJXJXJXZXrXrXrXrXrXrXrXrXrX$.t t t t t t t t f J J J J J J J J J J J J J J J J J J J J J J J J J J J e , 7 7 7 7 7 7 7 7 ",
"UXUXUXUXUXUXUXUXUXUXUXUXUXUXUXUXUXUXUXUXUXUXUXUXUXUXUXUX                  I n.n.n.n.n.n.n.n.C.1X1X1X1X1X1X1X1X1XN.y.y.y.y.y.y.y.y.k                   JXJXJXJXJXJXJXJXJXJXJXJXJXJXJXJXJXJXCXrXrXrXrXrXrXrXrXrX$.t t t t t t t t f J J J J J J J J J J J J J J J J J J J J J J J J J J J y 7 7 7 7 7 7 7 7 7 ",
"UXUXUXUXUXUXUXUXUXUXUXUXUXUXUXUXUXUXUXUXUXUXUXUXUXUXUXUX                  I n.n.n.n.n.n.n.n.C.1X1X1X1X1X1X1X1X1XN.y.y.y.y.y.y.y.y.k                   JXJXJXJXJXJXJXJXJXJXJXJXJXJXJXJXJXJXCXrXrXrXrXrXrXrXrXrX$.t t t t t t t t f J J J J J J J J J J J J J J J J J J J J J K J J J J J y , 7 7 7 7 7 7 7 7 ",
"UXUXUXUXUXUXUXUXUXUXUXUXUXUXUXUXUXUXUXUXUXUXUXUXUXUXUXUX                  I n.n.n.n.n.n.n.n.C.1X1X1X1X1X1X1X1X1XN.y.y.y.y.y.y.w.y.k                   JXJXJXJXJXJXJXJXJXJXJXJXJXJXJXJXJXJXCXrXrXrXrXrXrXrXrXrX$.t t t t t t t t f J J J J J J J J J J J J J J J J J J J J J K K J J J J e 9 7 7 7 7 7 7 7 8 ",
"UXUXUXUXUXUXUXUXUXUXUXUXUXUXUXUXUXUXUXUXUXUXUXUXUXUXUXUX                  l.>X>X>X>X>X>X>X>X2XKXKXKXKXKXKXKXKXKX.XZ.Z.Z.Z.Z.Z.Z.Z.XX8X8X8X8X8X8X8X8X8XIXPXPXPXPXIXIXJXIXZXcXlXcXZXZXZXVXZXkX9X9X9X9X7X9X9X9X9XX.q q q w w w w w f J J J J J J J J J J J J J J J J J J W W W Q W R Q Q R g 7 7 7 7 7 7 7 7 7 ",
"UXUXUXUXUXUXUXUXUXUXUXUXUXUXUXUXUXUXUXUXUXUXUXUXUXUXUXUX                  V.0X0X0X0X0X0X0X0XqXLXLXLXLXLXLXLXLXLX*X'.].'.].].].].'.,XIXIXIXIXIXIXIXIXIXIXIXIXIXIXIXIXIXIXZXlXlXlXrXlXrXKXlXrX7X7X8X8X7X7X7X7X7XX.q q q q q q q q e J J J J J J J J J J J J J J J J J J R Q Q ! ! ! ! ! ! F 7 7 7 7 7 7 7 7 7 ",
"UXUXUXUXUXUXUXUXUXUXUXUXUXUXUXUXUXUXUXUXUXUXUXUXUXUXUXUX                  V.0X0X0X0X0X0X0X0XqXLXLXLXLXLXLXLXLXLXoX].].].].].].].'.1XIXIXIXIXIXIXIXIXIXIXIXIXIXIXIXIXIXIXZXlXlXlXlXlXZXrXlXrX7X7X7X7X7X7X7X7X7XG q q q q q q q q f k J J J J J J J J J J J J J J J J K Q Q ! ! ! ! ! ! ! c 7 7 7 7 7 7 7 7 7 ",
"UXUXUXUXUXUXUXUXUXUXUXUXUXUXUXUXUXUXUXUXUXUXUXUXUXUXUXUX                  V.0X0X0X0X0X0X0X0XqXLXLXLXLXLXLXLXLXLX*X].].].].].].].P.>XIXIXIXIXIXIXIXIXIXIXIXIXIXIXIXIXIXIXBXlXlXlXlXlXrXZXKXrX7X7X7X7X7X7X7X7X7XG q q q q q q q q r J J J J J J J J J J J J J J J J J K Q ! ! ! ! ! ! ! ! g 7 7 7 7 7 7 7 7 7 ",
"UXUXUXUXUXUXUXUXUXUXUXUXUXUXUXUXUXUXUXUXUXUXUXUXUXUXUXUX                  V.0X0X0X0X0X0X0X0XqXLXLXLXLXLXLXLXLXLX*X`.].].].].].].'.,XFXIXIXIXIXIXIXIXIXIXIXIXIXIXIXIXIXIXIXlXlXlXlXlXlXlXkXjX8X7X7X7X7X7X7X7X7XG q q q q q q q q f J J J J J J J J J J J J J J J c K c R ! ! ! ! ! ! ! ! F 7 7 7 7 7 7 7 7 7 ",
"UXUXUXUXUXUXUXUXUXUXUXUXUXUXUXUXUXUXUXUXUXUXUXUXUXUXUXUX                  V.0X0X0X0X0X0X0X0XqXLXLXLXLXLXLXLXLXLX*X|.].].].].].].'.2XIXIXIXIXIXIXIXIXIXIXIXIXIXIXIXIXIXIXlXlXlXlXlXlXlXlXKXrX7X7X7X7X7X7X7X7X7XX.q q q q q q q q r J J J J J J J J J J J J J J J K c J R ! ! ! ! ! ! ! ! g 7 7 7 7 7 7 7 7 7 ",
"UXUXUXUXUXUXUXUXUXUXUXUXUXUXUXUXUXUXUXUXUXUXUXUXUXUXUXUX                  V.0X0X0X0X0X0X0X0XqXLXLXLXLXLXLXLXLXLX*X].].].].].].].`.,XIXIXIXIXIXIXIXIXIXIXIXIXIXIXIXIXIXIXKXkXlXlXlXlXlXlXlXlX7X7X7X7X7X7X7X7X7XX.q q q q q q q q r J J J J J J J J J J J J J J J c K c Q ! ! ! ! ! ! ! ! F 7 7 7 7 7 7 7 7 7 ",
"UXUXUXUXUXUXUXUXUXUXUXUXUXUXUXUXUXUXUXUXUXUXUXUXUXUXUXUX                  V.0X0X0X0X0X0X0X0XqXLXLXLXLXLXLXLXLXLX*X`.].].].].].].].,XIXIXIXIXIXIXIXIXIXIXIXIXIXIXIXIXIXJXZXkXlXlXlXlXlXlXlXrX7X7X7X7X7X7X7X7X7XX.q q q q q q 9 9 f J J J J J J J J J J J J J J J K c K Q ! ! ! ! ! ! ! ! S 7 7 7 7 7 7 7 7 7 ",
"UXUXUXUXUXUXUXUXUXUXUXUXUXUXUXUXUXUXUXUXUXUXUXUXUXUXUXUX                  V.0X0X0X0X0X0X0X0XqXLXLXLXLXLXLXLXLXLXoX].].'.].].'.'.].,XIXIXIXIXIXIXIXIXIXIXIXIXIXIXIXIXIXIXZXrXlXlXlXlXlXlXlXrX9X7X7X7X7X7X7X7X7X .q q q q q q q q y J J J J J J J J J J J J J J J J J J W ! ! ! ! ! ! ! ! c 7 7 7 7 7 7 7 7 7 ",
"UXUXUXUXUXUXUXUXUXUXUXUXUXUXUXUXUXUXUXUXUXUXUXUXUXUXUXUX                  :.}.}.}.}.}.}.}.|.+X3X3X3X3X3X3X3X3X3X(.<.<.<.<.<.<.<.<.oXIXIXIXIXIXIXIXIXIXIXIXIXIXIXIXIXIXIXZXkXzXzXzXzXzXzXxXrX9X9X7X7X7X7X7X7X9X .8 8 q 8 q 8 q 8 f ) ) ) ) ) ) ) ) ( J J J J J J J J J W ! ! ! ! ! ! ! ! F 7 7 7 8 8 8 8 8 8 ",
"UXUXUXUXUXUXUXUXUXUXUXUXUXUXUXUXUXUXUXUXUXUXUXUXUXUXUXUXUXUXUXUXUXUXUXUXUX                  + -.-.-.-.-.-.-.-.-.% .     .         B.IXIXIXIXIXIXIXIXIXIXIXIXIXIXIXIXIXIXVXgXgXgXgXgXgXgXgXpX7X7X7X7X7X7X7X7X7XI 7 7 7 7 7 7 7 7 Z @.@.@.@.@.@.@.@.+.J J J J J J J J J W ! ! ! ! ! ! ! ! c q q q q q q q q q ",
"UXUXUXUXUXUXUXUXUXUXUXUXUXUXUXUXUXUXUXUXUXUXUXUXUXUXUXUXUXUXUXUXUXUXUXUXUX                  + -.-.-.-.-.-.-.-.-.# .               M.IXIXIXIXIXIXIXIXIXIXIXIXIXIXIXIXIXIXvXgXgXgXgXgXgXgXgXpX7X7X7X7X7X7X7X7X7X| 7 7 7 7 7 7 7 7 Z @.@.@.@.@.@.@.@.+.c J J J J J J J J W ! ! ! ! ! ! ! ! F q q q q q q q q q ",
"UXUXUXUXUXUXUXUXUXUXUXUXUXUXUXUXUXUXUXUXUXUXUXUXUXUXUXUXUXUXUXUXUXUXUXUXUX                  + -.-.-.-.-.-.-.-.-.#                 B.IXIXIXIXIXIXIXIXIXIXIXIXIXIXIXIXIXIXvXgXgXgXgXgXgXgXgXpX7X7X7X7X7X7X7X7X7X| 7 7 7 7 7 7 7 7 Z @.@.@.@.@.@.@.@.+.J J J J J J J J J W ! ! ! ! ! ! ! ! K 9 q q q q q q q q ",
"UXUXUXUXUXUXUXUXUXUXUXUXUXUXUXUXUXUXUXUXUXUXUXUXUXUXUXUXUXUXUXUXUXUXUXUXUX                  + ;.-.-.-.-.-.-.-.-.#                 B.IXIXIXIXIXIXIXIXIXIXIXIXIXIXIXIXIXIXvXgXgXgXgXgXgXgXgXpX7X7X7X7X7X7X7X7X7X| 7 7 7 7 7 7 7 7 Z @.@.@.@.@.@.@.@.+.J J J J J J J J J W ! ! ! ! ! ! ! ! c q q q q q q q q q ",
"UXUXUXUXUXUXUXUXUXUXUXUXUXUXUXUXUXUXUXUXUXUXUXUXUXUXUXUXUXUXUXUXUXUXUXUXUX                  + -.-.-.-.-.-.-.;.;.#                 B.IXIXIXIXIXIXIXIXIXIXIXIXIXIXIXIXIXIXVXpXgXgXgXgXgXgXgXpX7X7X7X7X7X7X7X7X7X| 7 7 7 7 7 7 7 7 Z @.@.@.@.@.@.@.@.+.J J J J J J J J J W ! ! ! ! ! ! ! ! F q q q q q q q q q ",
"UXUXUXUXUXUXUXUXUXUXUXUXUXUXUXUXUXUXUXUXUXUXUXUXUXUXUXUXUXUXUXUXUXUXUXUXUX                  + -.-.-.-.-.-.-.-.;.#                 B.IXIXIXIXIXIXIXIXIXIXIXIXIXIXIXIXIXFXVXgXgXgXgXgXgXgXgXpX7X7X7X7X7X7X7X7X7X| 7 7 7 7 7 7 7 7 Z @.@.@.@.@.@.@.@.+.J J J J J J J J J W ! ! ! ! ! ! ! ! F q q q q q q q q q ",
"UXUXUXUXUXUXUXUXUXUXUXUXUXUXUXUXUXUXUXUXUXUXUXUXUXUXUXUXUXUXUXUXUXUXUXUXUX                  + ;.-.-.-.-.-.-.-.-.#                 B.IXIXIXIXIXIXIXIXIXIXIXIXIXIXIXIXIXIXVXgXgXgXgXgXgXgXgXpX7X7X7X7X7X7X7X7X7X| 9 7 7 7 7 7 7 7 I @.@.@.@.@.@.@.@.+.J J J J J J J J J W Q Q ! ! ! ! ! ! S q q q q q q q 8 8 ",
"UXUXUXUXUXUXUXUXUXUXUXUXUXUXUXUXUXUXUXUXUXUXUXUXUXUXUXUXUXUXUXUXUXUXUXUXUX                  + ;.-.-.-.-.-.-.-.-.#                 B.IXIXIXIXIXIXIXIXIXIXIXIXIXIXIXIXIXIXvXgXgXgXgXgXgXgXgXpX7X7X7X7X7X7X7X7X7X| , 7 7 7 7 7 7 7 N @.@.@.@.@.@.@.@.+.J J J J J J c K J W ! Q ! ! ! ! ! ! S q q q q q q q t 8 ",
"UXUXUXUXUXUXUXUXUXUXUXUXUXUXUXUXUXUXUXUXUXUXUXUXUXUXUXUXUXUXUXUXUXUXUXUXUX                  + ;.-.-.-.-.-.-.-.-.#                 B.IXIXIXIXIXIXIXIXIXIXIXIXIXIXIXIXIXIXVXpXgXgXgXgXgXgXgXpX7X7X7X7X7X7X7X7X7X| 7 7 7 7 7 7 7 7 B +.@.@.@.@.@.@.@.+.J J J J J J K K K W ! Q Q Q ! ! ! ! S q 8 q 8 8 q q t 8 ",
"UXUXUXUXUXUXUXUXUXUXUXUXUXUXUXUXUXUX                    ).|.|.|.|.|.|.|.|.k.' ' ' ' ' ' ' ' ' M M M M M M M M M ^ ' ' ' ' ' ' ' ' R.JXJXJXJXJXJXJXJXJXAXAXAXAXAXAXAXAXAXuXyXyXyXyXyXyXyXyXtX7X7X7X7X7X7X7X7X7X| 7 7 7 7 7 7 7 7 Z &.&.&.&.&.&.&.&.%.F W K W K W R R K K K K K K J J J c f y t t t t t y t t ",
"UXUXUXUXUXUXUXUXUXUXUXUXUXUXUXUXUXUX                    ).|.|.|.|.|.|.|.|.k.' ' ' ' ' ' ' ' ' M M M M M M M M M ^ ^ ^ ' ' ' ' ' ' R.JXJXJXJXJXJXJXJXJXAXAXAXAXAXAXAXAXAXuXyXyXyXyXyXyXyXyXtX7X7X7X7X7X7X7X7X7X| 7 7 7 7 7 7 7 7 A &.&.&.&.&.&.&.&.%.R R W K W K R R R K J J J J J J J J f e t t t t t t t t ",
"UXUXUXUXUXUXUXUXUXUXUXUXUXUXUXUXUXUX                    ).|.|.|.|.|.|.|.|.k.' ' ' ' ' ' ' ' / n M M M M M M M M ^ ^ ' ' ' ' ' ' ' R.JXJXJXJXJXJXJXJXJXAXAXAXAXAXAXAXAXAXuXyXyXyXyXyXyXyXyXtX7X7X7X7X7X7X7X7X7X| 7 7 7 7 7 7 7 7 A &.&.&.&.&.&.&.&.%.R R K W K W R R R K J J J J J J J J k t t t t t t t t t ",
"UXUXUXUXUXUXUXUXUXUXUXUXUXUXUXUXUXUX                    ).|.|.|.|.|.|.|.|.k.' ' ' ' ' ' ' ' F B M M M M M M M M ^ ^ ' ' ' ' ' ' ' R.JXJXJXJXJXJXJXJXJXAXAXAXAXAXAXAXAXAXuXyXyXyXyXyXyXyXyXtX7X7X7X7X7X7X7X7X7X| 7 7 7 7 7 7 7 7 A &.&.&.&.&.&.&.&.%.R R R R R R R R W J J J J J J J J J f t t t t t t t t t ",
"UXUXUXUXUXUXUXUXUXUXUXUXUXUXUXUXUXUX                    ).|.|.|.|.|.|.|.|.k.' ' ' ' ' ' ' ' / M M M M M M M M M ^ ' ' ' ' ' ' ' ' R.JXJXJXJXJXJXJXJXJXAXAXAXAXAXAXAXAXAXuXyXyXyXyXyXyXyXyXtX7X7X7X7X7X7X7X7X7X| 7 7 7 7 7 7 7 7 A &.&.&.&.&.&.&.&.%.R R R R R R R R W F J J J J J J J J f t t t t t t t t t ",
"UXUXUXUXUXUXUXUXUXUXUXUXUXUXUXUXUXUX                    ).|.|.|.|.|.|.|.|.k.' ' ' ' ' ' ' ' ^ N M M M M M M M M ^ ' ' ' ' ' ' ' ' R.JXJXJXJXJXJXJXJXJXAXAXAXAXAXAXAXAXAXuXyXyXyXyXyXyXyXyXtX7X7X7X7X7X7X7X7X7X| 7 7 7 7 7 7 7 7 A &.&.&.&.&.&.&.&.&.R R R R R R R R R K K K J J J J J J f t t t t t t t t t ",
"UXUXUXUXUXUXUXUXUXUXUXUXUXUXUXUXUXUX                    ).|.|.|.|.|.|.|.|.k.' ' ' ' ' ' ' ' ^ n M n M M M M M M ^ ' ' ' ' ' ' ' ' R.JXJXJXJXJXJXJXJXJXAXAXAXAXAXAXAXAXAXuXyXyXyXyXyXyXyXyXtX7X7X7X7X7X7X7X7X7X| 7 7 7 7 7 7 7 7 A &.&.&.&.&.&.&.&.%.K W R R R R R R R K K c J J J J J J c t t t t t t t t t ",
"UXUXUXUXUXUXUXUXUXUXUXUXUXUXUXUXUXUX                    ).|.|.|.|.|.|.|.|.k.' ' ' ' ' ' ' ' ^ N n N n N M M M M ^ ' ' ' ' ' ' ' ' R.JXJXJXJXJXJXJXJXJXAXAXAXAXAXAXAXAXAXuXyXyXyXyXyXyXyXyXtX7X7X7X7X7X7X7X7X7X| 7 7 7 7 7 7 7 7 A &.&.&.&.&.&.&.&.%.W K R R R R R R R K c J J J J J J J f t t t t t t t t t ",
"UXUXUXUXUXUXUXUXUXUXUXUXUXUXUXUXUXUX                    ).|.|.|.|.|.|.|.|.k.' ^ ' ' ' ' ' ' ' n N n N N M M M M F ' ' ' ' ' ' ' ' R.JXJXJXJXJXJXJXJXJXAXAXAXAXAXAXAXAXAXuXyXyXyXyXyXyXyXyXtX7X7X7X7X7X7X7X7X8XI 7 7 7 7 7 7 7 7 A &.&.&.&.&.&.&.&.%.K W R R R R R R R F K c J J J J J J k t t t t t t t t t ",
"UXUXUXUXUXUXUXUXUXUXUXUXUXUXUXUXUXUX                    V P P P P P P P P U o.o.o.o.o.o.o.o.o.@.O.O.O.O.O.O.O.@.< ; ; ; ; ; ; ; ; K.JXJXJXJXJXJXJXJXJXSXSXSXSXSXSXSXSXSXvXhXhXhXhXhXhXhXhXzX7X7X7X7X7X7X7X7X7XG 7 7 7 7 7 7 7 7 n ) ) ) )  .` ` ` _ R R R R R R R R R g y e y y y y e y r.J.C.J.J.J.J.J.J.J.",
"UXUXUXUXUXUXUXUXUXUXUXUXUXUXUXUXUXUX                                      2 -.-.-.-.-.-.-.-.;.,.,.,.,.,.,.,.,.,.$                 M.JXJXJXJXJXJXJXJXJXJXJXJXJXJXJXJXJXJXNXlXlXlXlXlXlXlXlXrX7X7X7X7X7X7X7X7X7XG 7 7 7 7 7 7 7 7 f J J J J J J J K K R R R R R R R R R y t t e t t e t t i.=X=X=X=X=X=X=X=X=X",
"UXUXUXUXUXUXUXUXUXUXUXUXUXUXUXUXUXUX                                      2 ;.-.-.-.-.-.-.-.;.,.,.,.,.,.,.,.,.,.$                 M.JXJXJXJXJXJXJXJXJXJXJXJXJXJXJXJXJXJXNXlXlXlXlXlXkXkXlXrX7X7X7X7X7X7X7X7X8X/ 7 7 7 7 7 7 7 7 e J J J J J J J K K R R R R R R R R E y t t t t t t t t z.=X=X=X=X=X=X=X=X=X",
"UXUXUXUXUXUXUXUXUXUXUXUXUXUXUXUXUXUX                                      2 -.-.-.-.-.-.-.-.;.,.,.,.,.,.,.,.,.,.$                 M.JXJXJXJXJXJXJXJXJXJXJXJXJXJXJXJXJXJXNXlXlXlXlXlXlXjXKXlX7X7X7X7X7X7X7X7X7X' 7 7 7 7 7 7 7 7 e J J J J J J J J J R R R R R R R R R y t t t t t t t t p.=X=X=X=X=X=X=X=X=X",
"UXUXUXUXUXUXUXUXUXUXUXUXUXUXUXUXUXUX                                      2 -.-.-.-.-.-.-.-.;.,.,.,.,.,.,.,.,.,.$                 M.JXJXJXJXJXJXJXJXJXJXJXJXJXJXJXJXJXJXNXlXlXlXlXlXlXlXlXrX9X7X7X7X7X7X7X7X7X| 7 7 7 7 7 7 7 7 e J J J J J J J J K R R R R R R R R R y e t t t t t t t i.=X=X=X=X=X=X=X=X=X",
"UXUXUXUXUXUXUXUXUXUXUXUXUXUXUXUXUXUX                                      2 -.-.-.-.-.-.-.-.;.,.,.,.,.,.,.,.,.,.$                 M.JXJXJXJXJXJXJXJXJXJXJXJXJXJXJXJXJXJXNXlXlXlXlXlXlXlXlXdX9X7X7X7X7X7X7X7X7X| 7 7 7 7 7 7 7 7 e J J J J J J J J J R R R R R R R K R y t t t t t t t t i.=X=X=X=X=X=X=X=X=X",
"UXUXUXUXUXUXUXUXUXUXUXUXUXUXUXUXUXUX                                      2 -.-.-.-.-.-.-.-.;.,.,.,.,.,.,.,.,.,.$                 M.JXJXJXJXJXJXJXJXJXJXJXJXJXJXJXJXJXJXNXlXlXlXlXlXlXlXlXdX7X7X7X7X7X7X7X7X7X| 7 7 7 7 7 7 7 7 e J J J J J c J J J K R R R R R W W F f t t t t t t t t i.=X=X=X=X=X=X=X=X=X",
"UXUXUXUXUXUXUXUXUXUXUXUXUXUXUXUXUXUX                                      2 -.;.-.-.-.-.-.-.;.,.,.,.,.,.,.,.,.,.$                 M.JXJXJXJXJXJXJXJXJXJXJXJXJXJXJXJXJXJXNXlXlXlXlXlXlXlXlXdX7X7X7X7X7X7X7X7X7X| 7 7 7 7 7 7 7 7 e J J J J J K c J K R R R R R R J W W f t t t t t t w w z.=X=X=X=X=X=X=X=X=X",
"UXUXUXUXUXUXUXUXUXUXUXUXUXUXUXUXUXUX                                      2 ;.;.;.;.;.;.-.-.;.,.,.,.,.,.,.,.,.,.$                 M.JXJXJXJXJXJXJXJXJXJXJXJXJXJXJXJXJXJXNXlXlXlXlXlXlXlXlXdX7X7X7X7X7X7X7X7X7X| 7 7 7 7 7 7 7 7 e J J J c K c K c c R R R R R R F Q W t t t t t t t t t i.=X=X=X=X=X=X=X=X=X",
"UXUXUXUXUXUXUXUXUXUXUXUXUXUXUXUXUXUX                                      > C C C C C C C C P >.>.>.>.>.>.>.>.>.% O O O O O O O O A.JXJXJXJXJXJXJXJXJXJXJXJXJXJXJXJXJXJXNXkXkXkXkXkXkXkXkXdX7X7X7X7X7X7X7X7X7X| 7 7 7 7 7 7 7 7 e K K K K K K K K c c g K c c c S S c $.e.e.e.e.%.e.e.e.c. X X X X X X X X X",
"UXUXUXUXUXUXUXUXUXUXUXUXUXUXUXUXUXUXUXUXUXUXUXUXUXUXUXUXUXUXUXUXUXUXUXUXUX                  . 4 4 4 4 4 4 4 4 4 3 & & & & & & & & & UXUXUXUXUXUXUXUXUXJXJXJXJXJXJXJXJXJXmXxXxXxXxXxXxXxXxXsX7X7X7X7X7X7X7X7X7X| 7 7 7 7 7 7 7 7 y R K R R R R R R c 6 6 6 6 6 6 6 6 6 I.=X=X=X=X=X=X=X=X'.*.*.*.*.*.*.*.*.*.",
"UXUXUXUXUXUXUXUXUXUXUXUXUXUXUXUXUXUXUXUXUXUXUXUXUXUXUXUXUXUXUXUXUXUXUXUXUX                  O 4 4 4 4 4 4 4 4 4 3 & & & & & & & & & UXUXUXUXUXUXUXUXUXJXJXJXJXJXJXJXJXJXmXxXxXxXxXxXxXxXxXsX7X7X7X7X7X7X7X7X7X| 7 7 7 7 7 7 7 , e R R R R R R R R K 6 6 6 6 6 6 6 6 6 I.=X=X=X=X=X=X=X=X'.*.*.*.*.*.*.*.*.*.",
"UXUXUXUXUXUXUXUXUXUXUXUXUXUXUXUXUXUXUXUXUXUXUXUXUXUXUXUXUXUXUXUXUXUXUXUXUX                  O 4 4 4 4 4 4 4 4 4 3 & & & & & & & & & UXUXUXUXUXUXUXUXUXJXJXJXJXJXJXJXJXJXmXxXxXxXxXxXxXxXxXsX7X7X7X7X7X7X7X7X7X| 7 7 7 7 7 7 7 7 f W J W R R R R R K 5 5 5 5 5 5 6 6 6 I.=X=X=X=X=X=X=X=X'.*.*.*.*.*.*.*.*.*.",
"UXUXUXUXUXUXUXUXUXUXUXUXUXUXUXUXUXUXUXUXUXUXUXUXUXUXUXUXUXUXUXUXUXUXUXUXUX                  O 4 4 4 4 4 4 4 4 4 3 & & & & & & & & & UXUXUXUXUXUXUXUXUXJXJXJXJXJXJXJXJXJXmXxXxXxXxXxXxXxXxXdX7X7X7X7X7X7X7X7X7X| 7 7 7 7 7 7 7 7 f F J W R R R R W K 5 5 5 5 5 5 6 6 6 I.=X=X=X=X=X=X=X=X'.*.*.*.*.*.*.*.*.*.",
"UXUXUXUXUXUXUXUXUXUXUXUXUXUXUXUXUXUXUXUXUXUXUXUXUXUXUXUXUXUXUXUXUXUXUXUXUX                  O 4 4 4 4 4 4 4 4 4 3 & & & & & & & & & UXUXUXUXUXUXUXUXUXJXJXJXJXJXJXJXJXJXmXxXxXxXxXxXxXxXxXsX7X7X7X7X7X7X7X7X7X| 7 7 7 7 7 7 7 7 k K W K R R W K W K 7 5 6 6 6 6 6 6 6 I.=X=X=X=X=X=X=X=X'.*.*.*.*.*.*.*.*.*.",
"UXUXUXUXUXUXUXUXUXUXUXUXUXUXUXUXUXUXUXUXUXUXUXUXUXUXUXUXUXUXUXUXUXUXUXUXUX                  O 4 4 4 4 4 4 4 4 4 3 & & & & & & & & & UXUXUXUXUXUXUXUXUXJXJXJXJXJXJXJXJXJXmXxXxXxXxXxXxXxXxXsX7X7X7X7X7X7X7X7X7X| 7 7 7 7 7 7 7 7 e W K W K W K W K K 5 5 6 6 6 6 6 6 6 I.=X=X=X=X=X=X=X=X'.*.*.*.*.*.*.*.*.*.",
"UXUXUXUXUXUXUXUXUXUXUXUXUXUXUXUXUXUXUXUXUXUXUXUXUXUXUXUXUXUXUXUXUXUXUXUXUX                  O 4 4 4 4 4 4 4 4 4 3 & & & & & & & & & UXUXUXUXUXUXUXUXUXJXJXJXJXJXJXJXJXJXmXxXxXxXxXxXxXxXxXsX8X7X7X7X7X7X7X7X7X| 7 7 7 7 7 7 7 7 y K W K W K W K R F 6 6 6 6 6 6 6 6 6 I.=X=X=X=X=X=X=X=X'.*.*.*.*.*.*.*.*.*.",
"UXUXUXUXUXUXUXUXUXUXUXUXUXUXUXUXUXUXUXUXUXUXUXUXUXUXUXUXUXUXUXUXUXUXUXUXUX                  O 4 4 4 4 4 4 4 4 4 3 & & & & & & & & & UXUXUXUXUXUXUXUXUXJXJXJXJXJXJXJXJXJXmXxXxXxXxXxXxXxXxXsX8X7X7X7X7X7X7X7X7X| 7 7 7 7 7 7 7 7 e W K W W W F W R F 6 6 6 6 6 6 6 6 6 I.=X=X=X=X=X=X=X=X'.*.*.*.*.*.*.*.*.*.",
"UXUXUXUXUXUXUXUXUXUXUXUXUXUXUXUXUXUXUXUXUXUXUXUXUXUXUXUXUXUXUXUXUXUXUXUXUX                  O 4 4 4 4 4 4 4 4 4 3 & & & & & & & & & UXUXUXUXUXUXUXUXUXJXJXJXJXJXJXJXJXJXmXxXxXxXxXxXxXxXxXdX7X8X7X7X7X7X7X7X7X| 7 7 7 7 7 7 7 7 i F W F K W W J R F 6 6 6 6 6 6 6 6 6 I.=X=X=X=X=X=X=X=X'.*.*.*.*.*.*.*.*.*.",
"UXUXUXUXUXUXUXUXUXUXUXUXUXUXUXUXUXUXUXUXUXUXUXUXUXUXUXUXUXUXUXUXUXUXUXUXUX                  X 1 1 1 1 1 1 1 1 1 - * * * * * * * * * UXUXUXUXUXUXUXUXUXJXJXJXJXJXJXJXJXJXJXFXFXFXFXFXFXFXFXVXeXeXeXeXeXeXeXeXeXG 6 6 6 7 6 6 6 6 a.T.T.Q.R.T.Q.T.Y.R.oXoXoXoXoXoXoXoXoXv.1.1.2.2.1.1.1.1.2.4.4.4.4.4.4.4.4.4.",
"UXUXUXUXUXUXUXUXUXUXUXUXUXUXUXUXUXUXUXUXUXUXUXUXUXUXUXUXUXUXUXUXUXUXUXUXUX                  X = = = = = = = = = = = = = = = = = * * UXUXUXUXUXUXUXUXUXUXUXUXUXUXUXUXUXUXJXJXJXJXJXJXJXJXJXCXrXrXrXrXrXrXrXrXrXG 6 6 6 6 6 6 6 6 x.#X#X#X#X#X#X#X&X&X-X-X-X-X-X-X-X-X-Xv.*.*.*.*.*.*.*.*.3.6.6.4.5.5.5.5.5.5.",
"UXUXUXUXUXUXUXUXUXUXUXUXUXUXUXUXUXUXUXUXUXUXUXUXUXUXUXUXUXUXUXUXUXUXUXUXUX                  X = = = = = = = = = = = = = = = = = = * UXUXUXUXUXUXUXUXUXUXUXUXUXUXUXUXUXUXJXJXJXJXJXJXJXJXJXCXrXrXrXrXrXrXrXrXrXG 6 6 6 6 6 6 6 6 z.#X#X#X#X#X#X#X#X&X-X-X-X-X-X-X-X-X-Xv.*.*.*.*.*.*.*.*.3.4.4.4.5.5.5.5.5.5.",
"UXUXUXUXUXUXUXUXUXUXUXUXUXUXUXUXUXUXUXUXUXUXUXUXUXUXUXUXUXUXUXUXUXUXUXUXUX                  X = = = = = = = = = = = = = = = = = = = UXUXUXUXUXUXUXUXUXUXUXUXUXUXUXUXUXUXJXJXJXJXJXJXJXJXJXCXrXrXrXrXrXrXrXrXrXG 6 6 6 6 6 6 6 6 z.#X#X#X#X#X#X#X#X&X-X-X-X-X-X-X-X-X-Xv.*.*.*.*.*.*.*.*.3.3.4.6.5.5.5.5.5.5.",
"UXUXUXUXUXUXUXUXUXUXUXUXUXUXUXUXUXUXUXUXUXUXUXUXUXUXUXUXUXUXUXUXUXUXUXUXUX                  X = = = = = = = = = = = = = = = = = = = UXUXUXUXUXUXUXUXUXUXUXUXUXUXUXUXUXUXJXJXJXJXJXJXJXJXJXCXrXrXrXrXrXrXrXrXrXG 6 6 6 6 6 6 6 6 z.#X#X#X#X#X#X#X#X&X-X-X-X-X-X-X-X-X-Xv.*.*.*.*.*.*.*.4 3.3.4.4.5.5.5.5.5.5.",
"UXUXUXUXUXUXUXUXUXUXUXUXUXUXUXUXUXUXUXUXUXUXUXUXUXUXUXUXUXUXUXUXUXUXUXUXUX                  X = = = = = = = = = = = = = = = = = = = UXUXUXUXUXUXUXUXUXUXUXUXUXUXUXUXUXUXJXJXJXJXJXJXJXJXJXCXrXrXrXrXrXrXrXrXrXG 6 6 6 6 6 6 6 6 z.#X#X#X#X#X#X#X#X&X-X-X-X-X-X-X-X-X-Xv.*.*.*.*.*.*.*.*.3.3.3.4.5.5.5.5.5.5.",
"UXUXUXUXUXUXUXUXUXUXUXUXUXUXUXUXUXUXUXUXUXUXUXUXUXUXUXUXUXUXUXUXUXUXUXUXUX                  X = = = = = = = = = = = = = = = = = = = UXUXUXUXUXUXUXUXUXUXUXUXUXUXUXUXUXUXJXJXJXJXJXJXJXJXJXCXrXrXrXrXrXrXrXrXrXG 6 6 6 6 6 6 6 6 z.#X#X#X#X#X#X#X#X&X-X-X-X-X-X-X-X-X-Xv.*.*.*.*.*.*.*.*.3.4.4.4.5.5.5.5.5.5.",
"UXUXUXUXUXUXUXUXUXUXUXUXUXUXUXUXUXUXUXUXUXUXUXUXUXUXUXUXUXUXUXUXUXUXUXUXUX                  O = = = = = = = = = = = = = = = = = = = UXUXUXUXUXUXUXUXUXUXUXUXUXUXUXUXUXUXJXJXJXJXJXJXJXJXJXCXrXrXrXrXrXrXrXrXrXG 6 6 6 6 6 6 6 6 z.#X#X#X#X#X#X#X#X&X-X-X-X-X-X-X-X-X-Xv.*.*.*.*.*.*.*.*.3.3.4.6.5.5.5.5.5.5.",
"UXUXUXUXUXUXUXUXUXUXUXUXUXUXUXUXUXUXUXUXUXUXUXUXUXUXUXUXUXUXUXUXUXUXUXUXUX                  X = = = = = = = = = = = = = = = = = = = UXUXUXUXUXUXUXUXUXUXUXUXUXUXUXUXUXUXJXJXJXJXJXJXJXJXJXCXrXrXrXrXrXrXrXrXrXG 6 6 6 6 6 6 6 6 z.#X#X#X#X#X#X#X#X&X-X-X-X-X-X-X-X-X-X7.*.*.*.*.*.*.*.*.3.4.6.4.5.5.5.5.5.5.",
"UXUXUXUXUXUXUXUXUXUXUXUXUXUXUXUXUXUXUXUXUXUXUXUXUXUXUXUXUXUXUXUXUXUXUXUXUX                    @ @ @ @ @ @ @ @ @ @ @ @ @ @ @ @ @ @ @ UXUXUXUXUXUXUXUXUXUXUXUXUXUXUXUXUXUXJXJXJXJXJXJXJXJXJXDXnXnXnXnXnXnXnXnXnXL.m.m.m.m.m.m.m.m.P.{.{.{.{.{.{.{.{.{.`.`.`.`.`.`.`.`.`.9.6.6.7.7.6.7.7.7.7.0.0.0.9.9.9.9.9.9.",
"UXUXUXUXUXUXUXUXUXUXUXUXUXUXUXUXUXUXUXUXUXUXUXUXUXUXUXUXUXUXUXUXUXUXUXUXUX                                                          UXUXUXUXUXUXUXUXUXUXUXUXUXUXUXUXUXUXUXUXUXUXUXUXUXUXUXJXJXJXJXJXJXJXJXJXJX<X-X-X-X-X-X-X-X-X@X_._._._._._._._.(.3.3.3.3.3.3.3.3.3.0./.0./.0.0.0.v.0.^./././././././././.",
"UXUXUXUXUXUXUXUXUXUXUXUXUXUXUXUXUXUXUXUXUXUXUXUXUXUXUXUXUXUXUXUXUXUXUXUXUX                                                          UXUXUXUXUXUXUXUXUXUXUXUXUXUXUXUXUXUXUXUXUXUXUXUXUXUXUXJXJXJXJXJXJXJXJXJXJX<X-X-X-X-X-X-X-X-X@X_._._._._._._._.(.4.3.3.3.3.3.3.3.3.0.0./.0./.0././.0.^./././././././././.",
"UXUXUXUXUXUXUXUXUXUXUXUXUXUXUXUXUXUXUXUXUXUXUXUXUXUXUXUXUXUXUXUXUXUXUXUXUX                                                          UXUXUXUXUXUXUXUXUXUXUXUXUXUXUXUXUXUXUXUXUXUXUXUXUXUXUXJXJXJXJXJXJXJXJXJXJX<X-X-X-X-X-X-X-X-X@X_._._._._._._._.(.4.3.3.3.3.3.3.3.3.0./.0./.0./.0././.^./././././././././.",
"UXUXUXUXUXUXUXUXUXUXUXUXUXUXUXUXUXUXUXUXUXUXUXUXUXUXUXUXUXUXUXUXUXUXUXUXUX                                                          UXUXUXUXUXUXUXUXUXUXUXUXUXUXUXUXUXUXUXUXUXUXUXUXUXUXUXJXJXJXJXJXJXJXJXJXJX<X-X-X-X-X-X-X-X-X@X_._._._._._._._.(.3.3.3.3.3.3.3.3.3.0.0./.0././.0.^.0././././././././././.",
"UXUXUXUXUXUXUXUXUXUXUXUXUXUXUXUXUXUXUXUXUXUXUXUXUXUXUXUXUXUXUXUXUXUXUXUXUX                                                          UXUXUXUXUXUXUXUXUXUXUXUXUXUXUXUXUXUXUXUXUXUXUXUXUXUXUXJXJXJXJXJXJXJXJXJXJX<X-X-X-X-X-X-X-X-X@X_._._._._._._._.(.3.3.3.3.3.3.3.3.3.0./.0././.0./.^./././././././././././.",
"UXUXUXUXUXUXUXUXUXUXUXUXUXUXUXUXUXUXUXUXUXUXUXUXUXUXUXUXUXUXUXUXUXUXUXUXUX                                                          UXUXUXUXUXUXUXUXUXUXUXUXUXUXUXUXUXUXUXUXUXUXUXUXUXUXUXJXJXJXJXJXJXJXJXJXJX<X-X-X-X-X-X-X-X-X@X_._._._._._._._.(.3.3.3.3.3.3.3.3.5.0.0././.0././.0.0.^./././././././././.",
"UXUXUXUXUXUXUXUXUXUXUXUXUXUXUXUXUXUXUXUXUXUXUXUXUXUXUXUXUXUXUXUXUXUXUXUXUX                                                          UXUXUXUXUXUXUXUXUXUXUXUXUXUXUXUXUXUXUXUXUXUXUXUXUXUXUXJXJXJXJXJXJXJXJXJXJX<X-X-X-X-X-X-X-X-X@X_._._._._._._._.(.3.3.3.3.3.3.3.4.5.0./.0.0././.0./.^.^./././././././././.",
"UXUXUXUXUXUXUXUXUXUXUXUXUXUXUXUXUXUXUXUXUXUXUXUXUXUXUXUXUXUXUXUXUXUXUXUXUX                                                          UXUXUXUXUXUXUXUXUXUXUXUXUXUXUXUXUXUXUXUXUXUXUXUXUXUXUXJXJXJXJXJXJXJXJXJXJX<X-X-X-X-X-X-X-X-X@X_._._._._._._._.(.3.3.3.3.3.3.3.3.3.0./.0./.0.0.^./.0.^./././././././././.",
"UXUXUXUXUXUXUXUXUXUXUXUXUXUXUXUXUXUXUXUXUXUXUXUXUXUXUXUXUXUXUXUXUXUXUXUXUX                                                          UXUXUXUXUXUXUXUXUXUXUXUXUXUXUXUXUXUXUXUXUXUXUXUXUXUXUXJXJXJXJXJXJXJXJXJXJX<X-X-X-X-X-X-X-X-X@X_._._._._._._._.(.3.3.3.3.3.3.3.3.3.0.0./.0./././.0.^.^./././././././././.",
"UXUXUXUXUXUXUXUXUXUXUXUXUXUXUXUXUXUXUXUXUXUXUXUXUXUXUXUXUXUXUXUXUXUXUXUXUXUXUXUXUXUXUXUXUXUXUXUXUXUXUXUXUXUXUXUXUXUXUXUXUXUXUXUXUXUXUXUXUXUXUXUXUXUXUXUXUXUXUXUXUXUXUXUXUXUXUXUXUXUXUXUXUXUXUXUXUXUXUXUXUXUXUXUXUXUXUXUXUXUXUXUXUXUXUXUXUXUXUXUXUXUXUXUXUXUXUXUXUXUXUXUXUXUXUXUXUXUXUXUXUXUXUXUXUXUXUXUXUXUX",
"UXUXUXUXUXUXUXUXUXUXUXUXUXUXUXUXUXUXUXUXUXUXUXUXUXUXUXUXUXUXUXUXUXUXUXUXUXUXUXUXUXUXUXUXUXUXUXUXUXUXUXUXUXUXUXUXUXUXUXUXUXUXUXUXUXUXUXUXUXUXUXUXUXUXUXUXUXUXUXUXUXUXUXUXUXUXUXUXUXUXUXUXUXUXUXUXUXUXUXUXUXUXUXUXUXUXUXUXUXUXUXUXUXUXUXUXUXUXUXUXUXUXUXUXUXUXUXUXUXUXUXUXUXUXUXUXUXUXUXUXUXUXUXUXUXUXUXUXUXUX",
"UXUXUXUXUXUXUXUXUXUXUXUXUXUXUXUXUXUXUXUXUXUXUXUXUXUXUXUXUXUXUXUXUXUXUXUXUXUXUXUXUXUXUXUXUXUXUXUXUXUXUXUXUXUXUXUXUXUXUXUXUXUXUXUXUXUXUXUXUXUXUXUXUXUXUXUXUXUXUXUXUXUXUXUXUXUXUXUXUXUXUXUXUXUXUXUXUXUXUXUXUXUXUXUXUXUXUXUXUXUXUXUXUXUXUXUXUXUXUXUXUXUXUXUXUXUXUXUXUXUXUXUXUXUXUXUXUXUXUXUXUXUXUXUXUXUXUXUXUXUX",
"UXUXUXUXUXUXUXUXUXUXUXUXUXUXUXUXUXUXUXUXUXUXUXUXUXUXUXUXUXUXUXUXUXUXUXUXUXUXUXUXUXUXUXUXUXUXUXUXUXUXUXUXUXUXUXUXUXUXUXUXUXUXUXUXUXUXUXUXUXUXUXUXUXUXUXUXUXUXUXUXUXUXUXUXUXUXUXUXUXUXUXUXUXUXUXUXUXUXUXUXUXUXUXUXUXUXUXUXUXUXUXUXUXUXUXUXUXUXUXUXUXUXUXUXUXUXUXUXUXUXUXUXUXUXUXUXUXUXUXUXUXUXUXUXUXUXUXUXUXUX",
"UXUXUXUXUXUXUXUXUXUXUXUXUXUXUXUXUXUXUXUXUXUXUXUXUXUXUXUXUXUXUXUXUXUXUXUXUXUXUXUXUXUXUXUXUXUXUXUXUXUXUXUXUXUXUXUXUXUXUXUXUXUXUXUXUXUXUXUXUXUXUXUXUXUXUXUXUXUXUXUXUXUXUXUXUXUXUXUXUXUXUXUXUXUXUXUXUXUXUXUXUXUXUXUXUXUXUXUXUXUXUXUXUXUXUXUXUXUXUXUXUXUXUXUXUXUXUXUXUXUXUXUXUXUXUXUXUXUXUXUXUXUXUXUXUXUXUXUXUXUX",
"UXUXUXUXUXUXUXUXUXUXUXUXUXUXUXUXUXUXUXUXUXUXUXUXUXUXUXUXUXUXUXUXUXUXUXUXUXUXUXUXUXUXUXUXUXUXUXUXUXUXUXUXUXUXUXUXUXUXUXUXUXUXUXUXUXUXUXUXUXUXUXUXUXUXUXUXUXUXUXUXUXUXUXUXUXUXUXUXUXUXUXUXUXUXUXUXUXUXUXUXUXUXUXUXUXUXUXUXUXUXUXUXUXUXUXUXUXUXUXUXUXUXUXUXUXUXUXUXUXUXUXUXUXUXUXUXUXUXUXUXUXUXUXUXUXUXUXUXUXUX",
"UXUXUXUXUXUXUXUXUXUXUXUXUXUXUXUXUXUXUXUXUXUXUXUXUXUXUXUXUXUXUXUXUXUXUXUXUXUXUXUXUXUXUXUXUXUXUXUXUXUXUXUXUXUXUXUXUXUXUXUXUXUXUXUXUXUXUXUXUXUXUXUXUXUXUXUXUXUXUXUXUXUXUXUXUXUXUXUXUXUXUXUXUXUXUXUXUXUXUXUXUXUXUXUXUXUXUXUXUXUXUXUXUXUXUXUXUXUXUXUXUXUXUXUXUXUXUXUXUXUXUXUXUXUXUXUXUXUXUXUXUXUXUXUXUXUXUXUXUXUX",
"UXUXUXUXUXUXUXUXUXUXUXUXUXUXUXUXUXUXUXUXUXUXUXUXUXUXUXUXUXUXUXUXUXUXUXUXUXUXUXUXUXUXUXUXUXUXUXUXUXUXUXUXUXUXUXUXUXUXUXUXUXUXUXUXUXUXUXUXUXUXUXUXUXUXUXUXUXUXUXUXUXUXUXUXUXUXUXUXUXUXUXUXUXUXUXUXUXUXUXUXUXUXUXUXUXUXUXUXUXUXUXUXUXUXUXUXUXUXUXUXUXUXUXUXUXUXUXUXUXUXUXUXUXUXUXUXUXUXUXUXUXUXUXUXUXUXUXUXUXUX",
"UXUXUXUXUXUXUXUXUXUXUXUXUXUXUXUXUXUXUXUXUXUXUXUXUXUXUXUXUXUXUXUXUXUXUXUXUXUXUXUXUXUXUXUXUXUXUXUXUXUXUXUXUXUXUXUXUXUXUXUXUXUXUXUXUXUXUXUXUXUXUXUXUXUXUXUXUXUXUXUXUXUXUXUXUXUXUXUXUXUXUXUXUXUXUXUXUXUXUXUXUXUXUXUXUXUXUXUXUXUXUXUXUXUXUXUXUXUXUXUXUXUXUXUXUXUXUXUXUXUXUXUXUXUXUXUXUXUXUXUXUXUXUXUXUXUXUXUXUXUX",
"UXUXUXUXUXUXUXUXUXUXUXUXUXUXUXUXUXUXUXUXUXUXUXUXUXUXUXUXUXUXUXUXUXUXUXUXUXUXUXUXUXUXUXUXUXUXUXUXUXUXUXUXUXUXUXUXUXUXUXUXUXUXUXUXUXUXUXUXUXUXUXUXUXUXUXUXUXUXUXUXUXUXUXUXUXUXUXUXUXUXUXUXUXUXUXUXUXUXUXUXUXUXUXUXUXUXUXUXUXUXUXUXUXUXUXUXUXUXUXUXUXUXUXUXUXUXUXUXUXUXUXUXUXUXUXUXUXUXUXUXUXUXUXUXUXUXUXUXUXUX",
"UXUXUXUXUXUXUXUXUXUXUXUXUXUXUXUXUXUXUXUXUXUXUXUXUXUXUXUXUXUXUXUXUXUXUXUXUXUXUXUXUXUXUXUXUXUXUXUXUXUXUXUXUXUXUXUXUXUXUXUXUXUXUXUXUXUXUXUXUXUXUXUXUXUXUXUXUXUXUXUXUXUXUXUXUXUXUXUXUXUXUXUXUXUXUXUXUXUXUXUXUXUXUXUXUXUXUXUXUXUXUXUXUXUXUXUXUXUXUXUXUXUXUXUXUXUXUXUXUXUXUXUXUXUXUXUXUXUXUXUXUXUXUXUXUXUXUXUXUXUX",
"UXUXUXUXUXUXUXUXUXUXUXUXUXUXUXUXUXUXUXUXUXUXUXUXUXUXUXUXUXUXUXUXUXUXUXUXUXUXUXUXUXUXUXUXUXUXUXUXUXUXUXUXUXUXUXUXUXUXUXUXUXUXUXUXUXUXUXUXUXUXUXUXUXUXUXUXUXUXUXUXUXUXUXUXUXUXUXUXUXUXUXUXUXUXUXUXUXUXUXUXUXUXUXUXUXUXUXUXUXUXUXUXUXUXUXUXUXUXUXUXUXUXUXUXUXUXUXUXUXUXUXUXUXUXUXUXUXUXUXUXUXUXUXUXUXUXUXUXUXUX",
"UXUXUXUXUXUXUXUXUXUXUXUXUXUXUXUXUXUXUXUXUXUXUXUXUXUXUXUXUXUXUXUXUXUXUXUXUXUXUXUXUXUXUXUXUXUXUXUXUXUXUXUXUXUXUXUXUXUXUXUXUXUXUXUXUXUXUXUXUXUXUXUXUXUXUXUXUXUXUXUXUXUXUXUXUXUXUXUXUXUXUXUXUXUXUXUXUXUXUXUXUXUXUXUXUXUXUXUXUXUXUXUXUXUXUXUXUXUXUXUXUXUXUXUXUXUXUXUXUXUXUXUXUXUXUXUXUXUXUXUXUXUXUXUXUXUXUXUXUXUX",
"UXUXUXUXUXUXUXUXUXUXUXUXUXUXUXUXUXUXUXUXUXUXUXUXUXUXUXUXUXUXUXUXUXUXUXUXUXUXUXUXUXUXUXUXUXUXUXUXUXUXUXUXUXUXUXUXUXUXUXUXUXUXUXUXUXUXUXUXUXUXUXUXUXUXUXUXUXUXUXUXUXUXUXUXUXUXUXUXUXUXUXUXUXUXUXUXUXUXUXUXUXUXUXUXUXUXUXUXUXUXUXUXUXUXUXUXUXUXUXUXUXUXUXUXUXUXUXUXUXUXUXUXUXUXUXUXUXUXUXUXUXUXUXUXUXUXUXUXUXUX",
"UXUXUXUXUXUXUXUXUXUXUXUXUXUXUXUXUXUXUXUXUXUXUXUXUXUXUXUXUXUXUXUXUXUXUXUXUXUXUXUXUXUXUXUXUXUXUXUXUXUXUXUXUXUXUXUXUXUXUXUXUXUXUXUXUXUXUXUXUXUXUXUXUXUXUXUXUXUXUXUXUXUXUXUXUXUXUXUXUXUXUXUXUXUXUXUXUXUXUXUXUXUXUXUXUXUXUXUXUXUXUXUXUXUXUXUXUXUXUXUXUXUXUXUXUXUXUXUXUXUXUXUXUXUXUXUXUXUXUXUXUXUXUXUXUXUXUXUXUXUX",
"UXUXUXUXUXUXUXUXUXUXUXUXUXUXUXUXUXUXUXUXUXUXUXUXUXUXUXUXUXUXUXUXUXUXUXUXUXUXUXUXUXUXUXUXUXUXUXUXUXUXUXUXUXUXUXUXUXUXUXUXUXUXUXUXUXUXUXUXUXUXUXUXUXUXUXUXUXUXUXUXUXUXUXUXUXUXUXUXUXUXUXUXUXUXUXUXUXUXUXUXUXUXUXUXUXUXUXUXUXUXUXUXUXUXUXUXUXUXUXUXUXUXUXUXUXUXUXUXUXUXUXUXUXUXUXUXUXUXUXUXUXUXUXUXUXUXUXUXUXUX",
"UXUXUXUXUXUXUXUXUXUXUXUXUXUXUXUXUXUXUXUXUXUXUXUXUXUXUXUXUXUXUXUXUXUXUXUXUXUXUXUXUXUXUXUXUXUXUXUXUXUXUXUXUXUXUXUXUXUXUXUXUXUXUXUXUXUXUXUXUXUXUXUXUXUXUXUXUXUXUXUXUXUXUXUXUXUXUXUXUXUXUXUXUXUXUXUXUXUXUXUXUXUXUXUXUXUXUXUXUXUXUXUXUXUXUXUXUXUXUXUXUXUXUXUXUXUXUXUXUXUXUXUXUXUXUXUXUXUXUXUXUXUXUXUXUXUXUXUXUXUX",
"UXUXUXUXUXUXUXUXUXUXUXUXUXUXUXUXUXUXUXUXUXUXUXUXUXUXUXUXUXUXUXUXUXUXUXUXUXUXUXUXUXUXUXUXUXUXUXUXUXUXUXUXUXUXUXUXUXUXUXUXUXUXUXUXUXUXUXUXUXUXUXUXUXUXUXUXUXUXUXUXUXUXUXUXUXUXUXUXUXUXUXUXUXUXUXUXUXUXUXUXUXUXUXUXUXUXUXUXUXUXUXUXUXUXUXUXUXUXUXUXUXUXUXUXUXUXUXUXUXUXUXUXUXUXUXUXUXUXUXUXUXUXUXUXUXUXUXUXUXUX",
"UXUXUXUXUXUXUXUXUXUXUXUXUXUXUXUXUXUXUXUXUXUXUXUXUXUXUXUXUXUXUXUXUXUXUXUXUXUXUXUXUXUXUXUXUXUXUXUXUXUXUXUXUXUXUXUXUXUXUXUXUXUXUXUXUXUXUXUXUXUXUXUXUXUXUXUXUXUXUXUXUXUXUXUXUXUXUXUXUXUXUXUXUXUXUXUXUXUXUXUXUXUXUXUXUXUXUXUXUXUXUXUXUXUXUXUXUXUXUXUXUXUXUXUXUXUXUXUXUXUXUXUXUXUXUXUXUXUXUXUXUXUXUXUXUXUXUXUXUXUX",
"UXUXUXUXUXUXUXUXUXUXUXUXUXUXUXUXUXUXUXUXUXUXUXUXUXUXUXUXUXUXUXUXUXUXUXUXUXUXUXUXUXUXUXUXUXUXUXUXUXUXUXUXUXUXUXUXUXUXUXUXUXUXUXUXUXUXUXUXUXUXUXUXUXUXUXUXUXUXUXUXUXUXUXUXUXUXUXUXUXUXUXUXUXUXUXUXUXUXUXUXUXUXUXUXUXUXUXUXUXUXUXUXUXUXUXUXUXUXUXUXUXUXUXUXUXUXUXUXUXUXUXUXUXUXUXUXUXUXUXUXUXUXUXUXUXUXUXUXUXUX",
"UXUXUXUXUXUXUXUXUXUXUXUXUXUXUXUXUXUXUXUXUXUXUXUXUXUXUXUXUXUXUXUXUXUXUXUXUXUXUXUXUXUXUXUXUXUXUXUXUXUXUXUXUXUXUXUXUXUXUXUXUXUXUXUXUXUXUXUXUXUXUXUXUXUXUXUXUXUXUXUXUXUXUXUXUXUXUXUXUXUXUXUXUXUXUXUXUXUXUXUXUXUXUXUXUXUXUXUXUXUXUXUXUXUXUXUXUXUXUXUXUXUXUXUXUXUXUXUXUXUXUXUXUXUXUXUXUXUXUXUXUXUXUXUXUXUXUXUXUXUX",
"UXUXUXUXUXUXUXUXUXUXUXUXUXUXUXUXUXUXUXUXUXUXUXUXUXUXUXUXUXUXUXUXUXUXUXUXUXUXUXUXUXUXUXUXUXUXUXUXUXUXUXUXUXUXUXUXUXUXUXUXUXUXUXUXUXUXUXUXUXUXUXUXUXUXUXUXUXUXUXUXUXUXUXUXUXUXUXUXUXUXUXUXUXUXUXUXUXUXUXUXUXUXUXUXUXUXUXUXUXUXUXUXUXUXUXUXUXUXUXUXUXUXUXUXUXUXUXUXUXUXUXUXUXUXUXUXUXUXUXUXUXUXUXUXUXUXUXUXUXUX",
"UXUXUXUXUXUXUXUXUXUXUXUXUXUXUXUXUXUXUXUXUXUXUXUXUXUXUXUXUXUXUXUXUXUXUXUXUXUXUXUXUXUXUXUXUXUXUXUXUXUXUXUXUXUXUXUXUXUXUXUXUXUXUXUXUXUXUXUXUXUXUXUXUXUXUXUXUXUXUXUXUXUXUXUXUXUXUXUXUXUXUXUXUXUXUXUXUXUXUXUXUXUXUXUXUXUXUXUXUXUXUXUXUXUXUXUXUXUXUXUXUXUXUXUXUXUXUXUXUXUXUXUXUXUXUXUXUXUXUXUXUXUXUXUXUXUXUXUXUXUX",
"UXUXUXUXUXUXUXUXUXUXUXUXUXUXUXUXUXUXUXUXUXUXUXUXUXUXUXUXUXUXUXUXUXUXUXUXUXUXUXUXUXUXUXUXUXUXUXUXUXUXUXUXUXUXUXUXUXUXUXUXUXUXUXUXUXUXUXUXUXUXUXUXUXUXUXUXUXUXUXUXUXUXUXUXUXUXUXUXUXUXUXUXUXUXUXUXUXUXUXUXUXUXUXUXUXUXUXUXUXUXUXUXUXUXUXUXUXUXUXUXUXUXUXUXUXUXUXUXUXUXUXUXUXUXUXUXUXUXUXUXUXUXUXUXUXUXUXUXUXUX",
"UXUXUXUXUXUXUXUXUXUXUXUXUXUXUXUXUXUXUXUXUXUXUXUXUXUXUXUXUXUXUXUXUXUXUXUXUXUXUXUXUXUXUXUXUXUXUXUXUXUXUXUXUXUXUXUXUXUXUXUXUXUXUXUXUXUXUXUXUXUXUXUXUXUXUXUXUXUXUXUXUXUXUXUXUXUXUXUXUXUXUXUXUXUXUXUXUXUXUXUXUXUXUXUXUXUXUXUXUXUXUXUXUXUXUXUXUXUXUXUXUXUXUXUXUXUXUXUXUXUXUXUXUXUXUXUXUXUXUXUXUXUXUXUXUXUXUXUXUXUX",
"UXUXUXUXUXUXUXUXUXUXUXUXUXUXUXUXUXUXUXUXUXUXUXUXUXUXUXUXUXUXUXUXUXUXUXUXUXUXUXUXUXUXUXUXUXUXUXUXUXUXUXUXUXUXUXUXUXUXUXUXUXUXUXUXUXUXUXUXUXUXUXUXUXUXUXUXUXUXUXUXUXUXUXUXUXUXUXUXUXUXUXUXUXUXUXUXUXUXUXUXUXUXUXUXUXUXUXUXUXUXUXUXUXUXUXUXUXUXUXUXUXUXUXUXUXUXUXUXUXUXUXUXUXUXUXUXUXUXUXUXUXUXUXUXUXUXUXUXUXUX",
"UXUXUXUXUXUXUXUXUXUXUXUXUXUXUXUXUXUXUXUXUXUXUXUXUXUXUXUXUXUXUXUXUXUXUXUXUXUXUXUXUXUXUXUXUXUXUXUXUXUXUXUXUXUXUXUXUXUXUXUXUXUXUXUXUXUXUXUXUXUXUXUXUXUXUXUXUXUXUXUXUXUXUXUXUXUXUXUXUXUXUXUXUXUXUXUXUXUXUXUXUXUXUXUXUXUXUXUXUXUXUXUXUXUXUXUXUXUXUXUXUXUXUXUXUXUXUXUXUXUXUXUXUXUXUXUXUXUXUXUXUXUXUXUXUXUXUXUXUXUX",
"UXUXUXUXUXUXUXUXUXUXUXUXUXUXUXUXUXUXUXUXUXUXUXUXUXUXUXUXUXUXUXUXUXUXUXUXUXUXUXUXUXUXUXUXUXUXUXUXUXUXUXUXUXUXUXUXUXUXUXUXUXUXUXUXUXUXUXUXUXUXUXUXUXUXUXUXUXUXUXUXUXUXUXUXUXUXUXUXUXUXUXUXUXUXUXUXUXUXUXUXUXUXUXUXUXUXUXUXUXUXUXUXUXUXUXUXUXUXUXUXUXUXUXUXUXUXUXUXUXUXUXUXUXUXUXUXUXUXUXUXUXUXUXUXUXUXUXUXUXUX"
};
