/* XPM */
static char *_fa6557b4e65466ae6589487ffa4bb210qUl1VDs9O2rZEMU[] = {
/* columns rows colors chars-per-pixel */
"64 64 205 2 ",
"   c black",
".  c black",
"X  c gray1",
"o  c #161414",
"O  c #121213",
"+  c #4C443F",
"@  c #1F1D1C",
"#  c #191718",
"$  c #0F0E0F",
"%  c #2D2826",
"&  c #48403C",
"*  c #242120",
"=  c #070707",
"-  c #131011",
";  c #3D3735",
":  c #0B0B0C",
">  c #342E2C",
",  c black",
"<  c #86582C",
"1  c #423C38",
"2  c black",
"3  c #2C241F",
"4  c #1D1919",
"5  c #373433",
"6  c #282422",
"7  c #443D3A",
"8  c #231E1C",
"9  c #6A4B2E",
"0  c #020101",
"q  c #2F2B2B",
"w  c #410C13",
"e  c #0D0B0B",
"r  c #282625",
"t  c #534F4E",
"y  c #332B27",
"u  c #6E4D2F",
"i  c #5A5653",
"p  c #27201C",
"a  c #4E4742",
"s  c #6A6661",
"d  c #5E4935",
"f  c #706A67",
"g  c #8C5B2D",
"h  c #2E1B0D",
"j  c #484444",
"k  c #262528",
"l  c #7F2328",
"z  c #767270",
"x  c #28221D",
"c  c #4C0F17",
"v  c #3F352E",
"b  c #3B0F14",
"n  c #302115",
"m  c #090607",
"M  c #1F1915",
"N  c #020101",
"B  c #78522E",
"V  c black",
"C  c #51131A",
"Z  c #010001",
"A  c #69441E",
"S  c #A36629",
"D  c #333031",
"F  c #982A2E",
"G  c #945E27",
"H  c black",
"J  c #75471E",
"K  c #171210",
"L  c #453321",
"P  c #342516",
"I  c #716E6C",
"U  c #651C21",
"Y  c None",
"T  c #392717",
"R  c #38312E",
"E  c #31302D",
"W  c #51361C",
"Q  c #6B1C22",
"!  c #1E1C1B",
"~  c #A6A299",
"^  c #601920",
"/  c #332419",
"(  c #181413",
")  c #615F60",
"_  c #92262B",
"`  c #544539",
"'  c #782429",
"]  c #412D1C",
"[  c #111010",
"{  c #A19D93",
"}  c #7C7972",
"|  c #21090C",
" . c #4C484C",
".. c #89847C",
"X. c #1B1C20",
"o. c #3E3C3E",
"O. c #5B3E22",
"+. c #908E8C",
"@. c #885729",
"#. c #010101",
"$. c #4F4B48",
"%. c #7D542E",
"&. c #4F3B2C",
"*. c #9A622B",
"=. c #735130",
"-. c #4C3521",
";. c #310E11",
":. c #817C78",
">. c black",
",. c #242942",
"<. c #462C16",
"1. c #160306",
"2. c #030202",
"3. c #8E8984",
"4. c #603C18",
"5. c #AC712E",
"6. c #4A3C31",
"7. c #040202",
"8. c #382E27",
"9. c #6A4826",
"0. c #322316",
"q. c #731E25",
"w. c #322821",
"e. c #58131A",
"r. c black",
"t. c #4B311A",
"y. c #1E1212",
"u. c #493F38",
"i. c #979388",
"p. c #554E4A",
"a. c gray1",
"s. c #24060A",
"d. c #715455",
"f. c #CCC7AA",
"g. c #2F1C0E",
"h. c #020202",
"j. c #333B52",
"k. c #151C2C",
"l. c #8A511F",
"z. c #E4DEB5",
"x. c #120706",
"c. c #271C11",
"v. c #60442C",
"b. c #50191F",
"n. c #0F0306",
"m. c #C1BDAC",
"M. c #030305",
"N. c #B1AD94",
"B. c #1E2737",
"V. c #99373A",
"C. c #6C2A2B",
"Z. c #1A1512",
"A. c #B6742C",
"S. c #D4D0B1",
"D. c #BAB3A8",
"F. c #75605D",
"G. c #3C3E4A",
"H. c #842B2F",
"J. c #020304",
"K. c #7F5227",
"L. c #48372A",
"P. c #0A0405",
"I. c #23100C",
"U. c #382120",
"Y. c #1B090A",
"T. c #5C4126",
"R. c #231A14",
"E. c #C6C4AC",
"W. c #23080A",
"Q. c #21272F",
"!. c #BDB697",
"~. c #8B342E",
"^. c #2B1313",
"/. c #3B2125",
"(. c #503032",
"). c #231F1D",
"_. c #2A0A0C",
"`. c #060607",
"'. c #070606",
"]. c #624C4C",
"[. c #A54032",
"{. c #150F09",
"}. c gray1",
"|. c #1B1E1F",
" X c #533B26",
".X c #434348",
"XX c #B15C36",
"oX c #090707",
"OX c #86491F",
"+X c #404C5E",
"@X c #22180E",
"#X c #070D15",
"$X c #362415",
"%X c #76534F",
"&X c #252C34",
"*X c gray5",
"=X c #88736A",
"-X c #050A0F",
";X c #B6B0A3",
":X c #120F0E",
">X c #3D2A18",
",X c #0F0E0F",
"<X c #170407",
"1X c #0F0A08",
"2X c #16070A",
/* pixels */
"                                                                                                                                ",
"                                                                                                                                ",
"                                                                                                                                ",
"                                                                                                                                ",
"                                                                                                                                ",
"                                                                                                                                ",
"                                                            V H H V                                                             ",
"                                                          2 {.c.c.{.2                                                           ",
"                                              V M.`.oXN N $X9.5.5.9.$XN N oX`.M.V                                               ",
"                                            #.1X0.O.L K K A J J J J A K K L O.0.1X#.                                            ",
"                                    H 2 J.x.c.A S l.] M 4.5.G l.l.G 5.4.M ] l.S A c.x.J.2 H                                     ",
"                                M.J.:XT W J G G <.I.n O.K.A 4.4.4.4.A K.O.n I.<.G G J W T :XJ.M.                                ",
"                        2 #.0 a.Z.w.&.B g J ] 3 4 t.O./ K O o n.n.o O K / O.t.4 3 ] J g B &.w.Z.a.0 #.2                         ",
"                V H >.h.'.o n -.9.B %.9.T o $ - o 4 * % ; > - w w - > ; % * 4 o - $ o T 9.%.B 9.-.n o '.h.>.H V                 ",
"                P.Z.( p % / W A J A -.M # O @ 8.1 & + + 7 U.H.F F H.U.7 + + & 1 8.@ O # M -.A J A W / % p ( Z.P.                ",
"                N 4 1 + 1 q 8 4 4 8 # @ 6 R & + a + + + U.~.XX[.[.XX~.U.+ + + a + & R 6 @ # 8 4 4 8 q 1 + 1 4 N                 ",
"                N . o ; + 1 R 8 o @ - $ ; i $.+ t i a & n g < -.-.< g n & a i t + $.i ; $ - @ o 8 R 1 + ; o . N                 ",
"                h.. . e @ # o o o o # = * a a + a t a & p T.&.T.T.&.T.p & a t a + a a * = # o o o o # @ e . . h.                ",
"                H N . - q y y > R ; ; # X 6 7 7 & & 7 1 4 / < 5.5.< / 4 1 7 & & 7 7 6 X # ; ; R > y y q - . N H                 ",
"                  r.a.o > 8.v 1 7 & + ; e = q 7 7 7 7 ; 4 W A.OXOXA.W 4 ; 7 7 7 7 q = e ; + & 7 1 v 8.> o a.r.                  ",
"                    >.O ; v v & + & + & o X - @ @ @ @ 4 : K @.A.A.@.K : 4 @ @ @ @ - X o & + & + & v v ; O >.                    ",
"                    2 R.` u.& d d ` + + 8 8 y @ = . . . . . @XO.O.@X. . . . . = @ y 8 8 + + ` d d & u.` R.2                     ",
"                    2 g.@.=.d 9 9 9 d + 6 % & > X . . . . . . . . . . . . . . X > & % 6 + d 9 9 9 d =.@.g.2                     ",
"                    2 g.@.*.u =.%.u d + % % & q . . . . . . . . . . . . . . . . q & % % + d u %.=.u *.@.g.2                     ",
"                    2 0.B S < g < 9 d + * 6 v 6 . . . . . . . . . . . . . . . . 6 v 6 * + d 9 < g < S B 0.2                     ",
"                    2 0.B g S S @.9 9 ` * 6 * # $ X . . . . . . . . . . . . X $ # * 6 * ` 9 9 @.S S g B 0.2                     ",
"                    2 R.%.< *.G u 9 d a * 6 o e O X . . . . . . . . . . . . X O e o 6 * a d 9 u G *.< %.R.2                     ",
"                    2 ( u *.*.g 9 9 9 ` * 6 o e $ X . . . . . . . . . . . . X $ e o 6 * ` 9 9 9 g *.*.u ( 2                     ",
"                    2 [ 6.g *.G < u B u * % 4 o - X . . . . . . . . . . . . X - o 4 % * u B u < G *.g 6.[ 2                     ",
"                    2 [ y &.%.< g < u u / % @ p # X . . . . . . . . . . . . X # p @ % / u u < g < %.&.y [ 2                     ",
"          H Z Z Z Z >.[ q 8 x ] v.g < u P 3 M h O X . . . . . . . . . . . . X O h M 3 P u < g v.] x 8 q [ >.Z Z Z Z H           ",
"        *XQ.+Xj.,.,.: : k - #  .q W @.B P y p h O X . . . . . . . . . . . . X O h p y P B @.W q  .# - k : : ,.,.j.+XQ.*X        ",
"      -XB.G.j.k.k &Xk # O $ O t s 3  X%.T y x h O X . . . . . . . . . . . . X O h x y T %. X3 s t O $ O # k &Xk k.j.G.B.-X      ",
"    }.B.k.X X q z { N.i.s 8 - $  .) 8 v.T y x P O X . . . . . . . . . . . . X O P x y T v.8 )  .$ - 8 s i.N.{ z q X X k.B.}.    ",
"  V #X,.X . o f ;XS.z.z.S...q . O I j x w.8.x >X$ X . . . . . . . . . . . . X $ >Xx 8.w.x j I O . q ..S.z.z.S.;Xf o . X ,.#XV   ",
"  , ! O X 5 $.{ m.N.!.f.f.E...$ . 5 z 8 r L./ T O X . . . . . . . . . . . . X O T / L.r 8 z 5 . $ ..E.f.f.!.N.m.{ $.5 X O ! ,   ",
"  , ).- # R t +.3.s } +.{ ~ 3.r . = i j @ L.P n o X . . . . . . . . . . . . X o n P L.@ j i = . r 3.~ { +.} s 3.+.t R # - ).,   ",
"  , ! # > k ) f I 5 6 i ~ { :.i = . D t M 6.P n O X . . . . . . . . . . . . X O n P 6.M t D . = i :.{ ~ i 6 5 I f ) k > # ! ,   ",
"  , ! # r # o.$.i : O $ I ) - .XO : r t 4 u.n y.o X . . . . . . . . . . . . X o y.n u.4 t r : O .X- ) I $ O : i $.o.# r # ! ,   ",
"  , ! $ 4 $ e O f 5 r 5 +.f 4 ) @ : j  .4 7 x h O X . . . . . . . . . . . . X O h x 7 4  .j : @ ) 4 f +.5 r 5 f O e $ 4 $ ! ,   ",
"  , [ = r 5 = s +.z } ~ i ; } ..@ 4 i * o 1 3 >XO X . . . . . . . . . . . . X O >X3 1 o * i 4 @ ..} ; i ~ } z +.s = 5 r = [ ,   ",
"  , 1.;.y.; - t f z +.D.6 # :.> @ $.5 = = 5 3 <.O X . . . . . . . . . . . . X O <.3 5 = = 5 $.@ > :.# 6 D.+.z f t - ; y.;.1.,   ",
"  , s.q.b X.# = = # z m...3.q - ; q e r @ 8.3 t.O X . . . . . . . . . . . . X O t.3 8.@ r e q ; - q 3...m.z # = = # X.b q.s.,   ",
"  , s.' ' I.: * ; 6 } ~ E.D.@ x % = 6 p.q y 3 <.O X . . . . . . . . . . . . X O <.3 y q p.6 = % x @ D.E.~ } 6 ; * : I.' ' s.,   ",
"  , 1.e.F q.| r z o.I s s } 4 > e o 1 p.; % x h O X . . . . . . . . . . . . X O h x % ; p.1 o e > 4 } s s I o.z r | q.F e.1.,   ",
"  2 1.Y e._ ' ;.D 5 k j j j @ ; = - 7 p.D * p h O X . . . . . . . . . . . . X O h p * D p.7 - = ; @ j j j k 5 D ;.' _ e.Y 1.2   ",
"r.x.Y Y w w C C 2X&Xo $ o.X.- o X 3 1 + 6 * 8 M O X . . . . . . . . . . . . X O M 8 * 6 + 1 3 X o - X.o.$ o &X2XC C w w Y Y x.r.",
"0 b ^ w ^ c w U b. ..XX . = 8 . = % v & * o # e O X . . . . . . . . . . . . X O e # o * & v % = . 8 = . X .X .b.U w c ^ w ^ b 0 ",
"0 w l w Q _ U q.F U b C | y.1 D : 8 R 7 8 e o = $ X . . . . . . . . . . . . X $ = o e 8 7 R 8 : D 1 y.| C b U F q.U _ Q w l w 0 ",
"0 w F c c l F U Q V.' U Q c /.z j o > 7 @ $ o = . . . . . . . . . . . . . . . . = o $ @ 7 > o j z /.c Q U ' V.Q U F l c c F w 0 ",
"#._.l q.w Y C.=X%XC.V.l Q ^ b 8 s % > 7 8 @ O . . = $ $ : : : X X : : : $ $ = . . O @ 8 7 > % s 8 b ^ Q l V.C.%X=XC.Y w q.l _.#.",
"  P.C _ l c w (.f ].b.c b ;.| . 5 D q 1 @ @ - . o 6 r 3 r r % r r % r r 3 r 6 o . - @ @ 1 q D 5 . | ;.b c b.].f (.w c l _ C P.  ",
"  H <XY Q _ H.%XF.F.d.7 | C C n.e # 6 > - # $ # ; & 6.-.6.+ + + + + + 6.-.6.& ; # $ # - > 6 # e n.C C | 7 d.F.F.%XH._ Q Y <XH   ",
"    H Z m W.^.E E E E |.m Y.Y.2.2.m m m 2.m ,Xy L L L L L v R R R R v L L L L L y ,Xm 2.m m m 2.2.Y.Y.m |.E E E E ^.W.m Z H     ",
"                                            #.7.7.7.7.7.7.0 0 0 0 0 0 7.7.7.7.7.7.#.                                            ",
"                                                                                                                                ",
"                                                                                                                                ",
"                                                                                                                                ",
"                                                                                                                                ",
"                                                                                                                                ",
"                                                                                                                                ",
"                                                                                                                                ",
"                                                                                                                                ",
"                                                                                                                                "
};
