/* XPM */
static char *Grass[] = {
/* columns rows colors chars-per-pixel */
"128 128 218 2",
"   c #126E32",
".  c #126E33",
"X  c #126F33",
"o  c #136F33",
"O  c #136F34",
"+  c #137034",
"@  c #147034",
"#  c #157136",
"$  c #157236",
"%  c #167337",
"&  c #167438",
"*  c #177438",
"=  c #177538",
"-  c #177539",
";  c #187539",
":  c #18763A",
">  c #19773A",
",  c #19773B",
"<  c #1A783B",
"1  c #1B793C",
"2  c #1B793D",
"3  c #1B7A3D",
"4  c #1C7A3D",
"5  c #1C7B3E",
"6  c #1D7B3F",
"7  c #1D7C3F",
"8  c #1E7D40",
"9  c #1E7E40",
"0  c #1E7E41",
"q  c #1F7E41",
"w  c #1F7F41",
"e  c #1F7F42",
"r  c #207F42",
"t  c #208042",
"y  c #208043",
"u  c #218043",
"i  c #218143",
"p  c #218144",
"a  c #218244",
"s  c #228244",
"d  c #228245",
"f  c #228345",
"g  c #238345",
"h  c #238346",
"j  c #238446",
"k  c #248447",
"l  c #248547",
"z  c #258547",
"x  c #258548",
"c  c #258648",
"v  c #258748",
"b  c #258749",
"n  c #268749",
"m  c #268849",
"M  c #26884A",
"N  c #27884A",
"B  c #27894A",
"V  c #27894B",
"C  c #28894B",
"Z  c #288A4B",
"A  c #288A4C",
"S  c #298A4C",
"D  c #298B4C",
"F  c #298B4D",
"G  c #2A8C4D",
"H  c #2A8C4E",
"J  c #2A8D4E",
"K  c #2B8D4E",
"L  c #2B8D4F",
"P  c #2B8E4F",
"I  c #2C8E4F",
"U  c #2C8F50",
"Y  c #2D8F51",
"T  c #2D9051",
"R  c #2D9151",
"E  c #2D9152",
"W  c #2E9152",
"Q  c #2E9252",
"!  c #2E9253",
"~  c #2F9253",
"^  c #2F9353",
"/  c #2F9354",
"(  c #309354",
")  c #309454",
"_  c #309455",
"`  c #319555",
"'  c #319556",
"]  c #319656",
"[  c #329656",
"{  c #329657",
"}  c #329757",
"|  c #339757",
" . c #339758",
".. c #339858",
"X. c #349858",
"o. c #349859",
"O. c #349959",
"+. c #359A5A",
"@. c #359B5A",
"#. c #359B5B",
"$. c #369B5B",
"%. c #369C5B",
"&. c #369C5C",
"*. c #379C5C",
"=. c #379D5C",
"-. c #379D5D",
";. c #389D5D",
":. c #389E5D",
">. c #389E5E",
",. c #399F5E",
"<. c #399F5F",
"1. c #39A05F",
"2. c #3AA05F",
"3. c #3AA060",
"4. c #3AA160",
"5. c #3BA161",
"6. c #3BA261",
"7. c #3CA261",
"8. c #3CA362",
"9. c #3CA462",
"0. c #3CA463",
"q. c #3DA463",
"w. c #3DA563",
"e. c #3DA564",
"r. c #3EA564",
"t. c #3EA664",
"y. c #3EA665",
"u. c #3FA665",
"i. c #3FA765",
"p. c #3FA766",
"a. c #40A766",
"s. c #40A866",
"d. c #40A867",
"f. c #40A967",
"g. c #41A967",
"h. c #41A968",
"j. c #41AA68",
"k. c #42AA68",
"l. c #42AA69",
"z. c #42AB69",
"x. c #43AB69",
"c. c #43AB6A",
"v. c #43AC6A",
"b. c #44AC6A",
"n. c #44AD6B",
"m. c #45AE6C",
"M. c #45AF6C",
"N. c #45AF6D",
"B. c #46AF6D",
"V. c #46B06D",
"C. c #46B06E",
"Z. c #47B06E",
"A. c #47B16E",
"S. c #47B16F",
"D. c #48B16F",
"F. c #48B26F",
"G. c #48B270",
"H. c #48B370",
"J. c #49B370",
"K. c #49B371",
"L. c #49B471",
"P. c #4AB471",
"I. c #4AB472",
"U. c #4AB572",
"Y. c #4BB572",
"T. c #4BB573",
"R. c #4BB673",
"E. c #4CB673",
"W. c #4CB674",
"Q. c #4CB774",
"!. c #4CB874",
"~. c #4CB875",
"^. c #4DB875",
"/. c #4DB975",
"(. c #4DB976",
"). c #4EB976",
"_. c #4EBA76",
"`. c #4EBA77",
"'. c #4FBA77",
"]. c #4FBB77",
"[. c #4FBB78",
"{. c #50BB78",
"}. c #50BC78",
"|. c #50BC79",
" X c #50BD79",
".X c #51BD79",
"XX c #51BD7A",
"oX c #51BE7A",
"OX c #52BE7A",
"+X c #52BE7B",
"@X c #52BF7B",
"#X c #53BF7B",
"$X c #53BF7C",
"%X c #53C07C",
"&X c #54C07C",
"*X c #54C07D",
"=X c #54C17D",
"-X c #54C27D",
";X c #54C27E",
":X c #55C27E",
">X c #55C37E",
",X c #55C37F",
"<X c #56C37F",
"1X c #56C47F",
"2X c #56C480",
"3X c #57C480",
"4X c #57C580",
"5X c #57C581",
"6X c #58C681",
"7X c #58C682",
"8X c #58C782",
"9X c #59C782",
"0X c #59C783",
"qX c #59C883",
"wX c #5AC984",
"eX c #5BCB86",
"rX c #5CCB86",
"tX c #5DCC87",
/* pixels */
"tXeXqX<X[.J.a.+.H t - X X - t H $.z.J.).'.J.z.$.I t - X X - 7 H +.u.G.[.,X6XwX9X6X2X-X-X@X-X@X@X-X@X-X-X@X-X-X@X-X@X-X-X-X-X2X6XwXwX6X,X[.J.a.} Z 7 - X o ; t P $.z.G.'.'.J.z.+.H r - o X % 7 Z +.u.G.[.2X6XwX9X6X2X,X-X-X@X-X@X-X-X@X-X-X@X-X-X@X-X-X@X-X-X@X-X",
"eXwX6X-X[.J.u.+.H a ; $ $ ; a H $.z.J.).).J.a.$.H a ; $ o ; e Z } u.G.'.-X6X6X6X6X2X-X-X-X-X-X-X@X-X@X-X-X@X@X-X@X-X@X-X-X-X,X6X6X6X2X-X[.G.u.+.Z t - $ o ; a P $.a.G.).'.G.z.$.H a ; o $ ; r Z +.u.G.'.-X6X6X6X6X2X-X-X@X-X@X-X@X-X-X@X-X@X@X-X-X@X-X@X-X@X@X-X",
"qX6X<X@X).Z.u.+.H a < - $ < a H +.p.G.R.).Z.a.$.I a < $ $ < t H ..u.n.).@X,X2X6X2X,X-X-X-X@X@X-X-X-X@X@X-X-X-X@X@X-X-X@X-X-X-X2X6X2X,X@X).Z.u.+.H a ; % % < a H $.z.G.R.R.G.z.$.I a < % % , a Z } u.Z.'.@X,X2X2X2X,X-X-X-X-X@X@X@X-X-X@X@X-X-X@X-X@X-X-X@X-X-X@X",
"<X-X@X[.R.n.7.+.H j < ; - < j E $.u.Z.J.J.n.u.+.I j 4 ; ; < a H } u.n.R.[.@X-X-X-X-X-X@X@X-X-X@X-X@X-X-X@X@X-X-X-X@X-X-X@X-X-X-X-X-X@X[.R.n.4.} H a < ; ; 4 a I $.u.n.R.J.n.u.+.I a 4 ; ; < a H } 7.n.R.[.@X-X,X-X-X@X-X@X-X-X-X-X-X@X-X-X-X@X-X@X-X-X@X-X@X-X-X",
"[.[.).R.S.z.4...I j 7 < 4 7 c E +.8.z.Z.Z.z.8.+.E c 7 < < 7 c H } 4.z.G.).[.[.@X@X@X@X-X@X-X-X-X-X@X-X-X-X@X-X-X-X-X@X@X@X-X@X@X@X[.'.R.G.z.4.} H c 7 < < 7 c E +.8.z.n.n.z.7.+.E c 7 4 4 7 c H } 4.z.G.R.[.[.@X@X-X@X@X@X-X-X-X-X@X-X@X-X-X@X-X-X@X@X-X-X@X-X-X",
"J.G.Z.n.z.u.:...E N j t t a N E +.4.u.z.z.u.1.+.E Z j t t a N I } $.u.z.n.J.R.).[.[.@X@X@X-X-X-X-X-X-X-X-X-X-X-X-X-X-X-X@X@X[.'.'.R.G.Z.z.u.:.' I N a r a a Z E +.4.u.z.z.u.4.+.E N a r a a c I } $.u.z.Z.J.R.'.[.[.@X@X-X@X-X-X-X-X-X-X@X-X-X-X-X-X-X-X@X-X-X@X",
"a.a.u.7.7.:.+.' E H N c N N H ^ ' $.4.7.4.1.$...E H N c c N Z E / +.:.7.a.z.n.G.R.'.[.@X-X-X-X,X-X,X,X-X-X,X-X-X-X-X-X-X@X[.).R.G.n.z.a.7.:.+./ I Z N c c Z H ^ } $.4.7.7.4.$...^ P B c c B Z I / +.:.7.u.z.n.G.R.'.[.@X@X-X-X,X,X,X-X,X-X-X-X-X-X@X-X@X-X@X@X-X",
"+.+.+...+.' ' ' E E E I I E E ' ' ..+.+.+.+...' ' E E I E H E E ^ ' } +.$.4.u.z.Z.J.'.[.@X-X-X,X,X,X,X,X,X,X,X,X,X-X-X-X[.).J.n.z.u.4.$.+.' / ^ E E E I I I ^ / ' } +.+.+.+.} ' / E E I I I E E ^ / } +.$.4.u.z.n.R.'.[.@X-X,X,X,X,X,X,X,X,X,X,X-X-X-X-X@X-X-X@X",
"H H H H H E E ^ ' ' ....+.' ' ' ' ' E E E E / ' ' ' ......' ' E E E I I ^ } $.7.z.Z.R.[.@X-X,X2X2X2X2X,X,X2X2X2X2X,X-X@X[.).Z.z.7.$.' ^ E I I E ^ ' } } +.} } ' ' ^ E E ^ ^ ^ ' ' } } } } ' ' ^ E E I E ^ } $.7.z.A.R.[.@X-X,X2X2X2X,X,X,X,X,X,X-X-X-X-X@X-X-X@X",
"t t a j c C H E ' +.:.4.4.:.$...E H H N N H H E ..$.:.1.4.:.+.' E Z N c N H ' $.u.n.R.'.@X-X,X2X2X2X2X,X,X,X2X2X2X,X-X@X[.J.n.u.$.' H c c Z Z I ' +.:.4.4.:.$.} ^ I Z N N Z P ^ } $.<.4.4.:.+.' I Z N c c H ' $.8.n.R.[.@X-X,X2X2X2X2X,X,X,X-X,X-X-X-X@X-X@X@X-X",
"- ; < 4 7 j Z E ..1.u.a.a.u.1...E N j a t j C E +.1.u.z.z.u.1...E c a a a c Z ' :.z.G.).@X-X,X2X,X-X-X-X-X-X,X2X2X,X-X@X'.G.z.4.} H c a r a B E } :.u.z.z.u.4.+.E Z a a r c Z E +.<.u.z.z.u.:.} I B a a a c H ' :.z.G.'.@X-X,X2X,X,X-X-X-X-X-X-X-X-X-X-X-X-X-X@X",
"X $ $ ; 4 t C E $.u.v.Z.Z.v.8.+.E c 7 4 4 7 j E +.8.z.Z.Z.v.8.+.E c r 4 7 a N ^ $.u.G.).@X-X,X-X-X-X@X@X@X@X-X-X-X-X-X@X).A.a.:.^ N a 7 4 a c E $.u.z.n.n.z.7.+.E c 7 < < 7 c I +.8.z.A.n.z.u.$.E c r 4 4 a N ^ $.a.G.).@X-X-X-X-X-X@X@X@X@X@X@X@X@X@X-X@X@X-X-X",
"X o $ ; 4 a Z ' 1.z.S.J.J.Z.u.+.H j < ; - < j I +.u.n.J.J.Z.a.:./ Z a 7 4 a N ^ :.u.G.).@X-X@X-X@X[.'.).).'.[.@X@X-X-X[.'.G.u.$.^ B a 7 6 a N / :.z.G.J.J.n.u.$.I a 4 ; - 4 a I +.u.n.R.R.Z.z.:.' B r 6 7 a N ^ :.z.G.).[.-X-X-X[.[.[.'.).'.'.[.[.@X@X@X-X@X-X-X",
"$ - < 4 t c E +.8.v.J.).).G.u.+.H a < $ $ < a H +.p.Z.).).J.n.8.} P c t a c Z ' 4.z.G.).[.@X[.[.).R.G.G.G.G.J.).[.[.@X[.'.G.z.<.' Z j a a c P } 4.n.J.).).Z.u.+.H a , $ $ , a P +.u.G.R.).J.z.7.} P c a a j H ' :.z.G.).[.@X[.[.).R.G.G.A.A.J.R.'.[.[.@X@X-X-X-X",
"7 7 t a c I ' 1.a.G.).[.).Z.u.+.H t ; o o - 7 H +.u.S.).'.).Z.a.:.' H N N Z E +.u.n.J.'.[.[.'.J.A.n.z.a.a.z.n.A.R.).[.[.'.J.n.7.+.^ Z N N H ' :.z.n.R.'.).G.u.+.H r - o o - r H +.u.G.).'.R.n.z.:.' H N c Z / $.7.n.R.'.[.[.'.R.A.v.z.u.z.z.n.Z.J.).[.@X@X-X-X-X",
"N N H H E ' :.u.n.J.).[.).Z.u.+.Z 7 - X X - t Z +.u.G.).[.[.J.n.u.$.} ^ ^ ' +.4.z.Z.R.'.[.).R.n.z.7.:.:.$.4.8.z.Z.R.).[.'.R.G.z.4.$.' ^ ^ ' $.u.n.R.'.'.).A.u.+.H 7 % X o % 7 Z +.u.Z.).[.'.R.n.u.$.} ^ ^ ' $.4.z.n.R.'.[.'.J.Z.z.u.4.$.$.<.7.z.n.J.).[.@X-X,X,X",
"' ' ' +.$.4.u.n.J.).[.@X).S.u...Z 7 ; o X - 7 Z +.u.Z.).[.[.).J.n.u.4.$.:.<.u.z.n.J.'.[.'.R.Z.z.4.+.' ^ ^ ' $.7.z.G.R.'.[.).R.Z.z.7.:.$.:.<.u.z.G.).'.@X'.A.u.} Z 7 % o X % 7 Z } u.A.).[.[.).G.n.u.4.$.$.:.7.z.Z.J.'.[.'.R.n.z.4.$.' E ^ ' $.4.z.n.R.[.@X-X,X2X",
"7.4.u.u.a.z.Z.J.).[.@X[.).n.u.} H 7 - o o - 7 H ..8.n.).[.@X[.).J.n.z.a.u.z.n.A.J.'.[.[.'.J.n.u.$.^ H c N Z ^ $.7.n.J.'.[.[.).R.G.n.z.a.z.z.n.G.).[.[.[.).Z.u.} H 7 - o o - r Z ' u.Z.).[.@X[.).G.n.z.a.z.z.n.A.R.'.[.[.'.R.n.8.+.^ Z N c Z ^ $.u.n.J.'.@X-X2X2X",
"n.Z.n.Z.Z.J.).'.[.@X@X[.).Z.8.+.H t ; $ $ < t H ..8.Z.).[.@X@X[.'.R.G.G.G.G.R.).[.[.@X[.).G.z.<.' H j a a j Z ' <.z.G.'.[.@X[.[.).R.J.G.G.J.R.'.[.@X-X[.).Z.u.} Z a ; $ $ ; a Z } u.Z.R.@X@X@X[.'.R.G.G.A.G.R.).[.[.[.@X'.G.z.<.' H c a a c H } <.z.Z.).@X-X2X2X",
").).).).).[.[.[.@X-X@X[.).Z.u.+.H a 4 ; ; < a H +.u.Z.).[.@X-X-X@X[.'.'.).'.[.@X-X-X-X@X).G.a.:.^ N a 7 4 a N ^ $.a.G.'.[.-X@X-X[.[.[.'.'.[.[.@X@X-X-X[.).n.u.+.I a 4 ; ; 4 a P +.u.Z.).[.-X-X@X@X[.'.).'.'.[.@X@X-X-X[.).G.a.:.^ c a 6 7 a B / :.z.A.).@X-X2X6X",
"[.[.@X@X@X@X-X-X<X-X-X[.).Z.a.$.E c 7 5 4 7 c E $.u.S.).-X-X-X<X-X-X@X@X@X@X@X-X-X-X-X[.'.G.a.$.E N a 4 4 a N E :.a.G.).@X-X-X-X-X-X@X@X@X@X-X-X,X-X-X@X).A.u.$.E c 7 4 4 7 c E $.u.G.).@X-X-X-X,X-X@X@X@X@X-X-X,X,X-X@X'.G.a.$.^ c r 6 7 a Z / :.a.G.).@X-X2X6X",
"-X<X-X2X-X-X2X2X2X2X<X@X'.J.z.:.' H c a a c H ' 1.z.J.'.@X-X2X2X2X2X-X-X-X,X2X2X2X2X-X@X'.G.z.:.' H c a a c H ' :.z.G.).@X-X,X2X,X2X,X-X-X,X,X,X2X2X-X@X'.G.z.:.' P c a a c H ' :.z.G.'.@X-X2X2X2X,X,X-X,X,X,X,X2X,X-X@X[.G.z.:.' H c a a c P } 4.z.G.'.[.,X,X6X",
"6X2X6X2X2X6X6X2X2X2X-X@X'.J.v.8.$.' H Z H H ' $.8.v.J.[.@X-X2X2X6X2X6X2X2X6X6X6X2X2X-X@X'.J.n.7.$./ H Z Z H / +.7.v.J.[.@X,X2X2X6X2X6X2X2X6X6X2X2X2X,X@X'.J.n.u.$./ P Z Z I ' $.7.n.R.[.@X-X2X6X6X6X2X2X2X6X2X6X2X2X-X@X[.J.z.u.$./ P Z B P / $.u.z.R.'.@X-X,X2X",
"qXqXqX6X6X6X6X6X6X2X-X-X[.).Z.z.7.$...' ' } $.7.z.Z.).[.@X<X2X2X6X6X6X6X6X6X6X6X6X2X-X-X[.R.G.z.7.$.' ' ' } $.4.z.Z.).[.@X,X2X6X6X6X6X6X6X6X6X6X6X2X-X-X[.R.A.z.7.$.} ' ' } $.7.z.A.R.[.@X-X2X6X6X6X6X6X6X6X6X6X6X2X,X@X[.R.Z.z.4.$.} ' ' } $.8.z.Z.R.[.@X-X,X2X",
"6XqX6X6X6X6X6X6X2X2X-X@X[.'.J.Z.z.u.4.:.:.4.u.z.n.J.'.[.-X-X2X2X6X6X6X6X6X6X6X6X2X2X-X@X[.).J.Z.z.u.4.:.4.4.u.z.Z.J.'.[.-X-X2X2X6X6X6X6X6X6X6X6X2X2X-X-X@X).J.n.z.u.4.:.:.4.u.z.n.G.).[.-X-X,X2X6X6X6X6X6X6X6X6X2X2X,X-X[.'.J.n.z.u.4.<.<.7.u.z.n.R.).[.-X-X-X,X",
"6X6X6X6X6X2X2X2X2X2X-X-X@X[.).J.Z.n.z.z.z.z.v.Z.J.).[.[.-X-X2X2X2X2X2X6X2X2X2X2X2X2X-X@X@X[.).J.Z.v.z.z.z.z.n.n.J.).[.@X-X-X-X2X2X2X2X2X6X2X2X2X2X,X-X@X@X[.).J.Z.n.z.z.z.z.n.Z.J.).[.@X@X-X,X,X2X2X2X2X2X6X2X,X,X,X-X@X@X[.).J.Z.n.v.z.z.z.n.G.R.).[.@X@X-X-X-X",
"-X2X-X2X-X2X-X-X-X-X-X-X@X[.[.[.J.J.J.G.S.G.J.).).[.[.@X-X-X-X-X-X,X-X-X,X-X-X,X-X-X-X-X@X@X[.'.R.J.J.G.G.G.R.R.'.[.[.@X@X-X-X-X-X-X,X,X-X-X,X,X-X-X-X@X@X[.[.).R.J.G.G.G.G.R.R.).[.@X@X-X-X-X-X-X,X,X-X,X,X,X-X-X-X-X-X@X[.[.'.R.J.G.G.G.G.R.R.).[.@X@X-X@X-X-X",
"[.@X@X[.@X[.@X-X@X@X@X-X@X@X@X[.[.[.'.).).).[.[.[.@X-X-X@X@X-X@X@X@X@X@X@X@X@X@X@X-X@X-X@X@X@X[.'.).).).R.).).'.[.[.-X@X-X@X-X@X@X@X@X@X@X@X@X@X@X-X@X-X@X@X@X[.[.'.).).).'.'.[.[.@X@X@X@X-X@X-X@X@X@X@X@X@X@X@X-X@X@X-X@X@X@X[.'.'.).R.R.).).'.[.[.@X@X@X-X-X-X",
").).).).).).[.[.[.@X@X@X@X@X-X@X-X@X@X[.[.@X@X@X@X@X-X@X@X-X@X[.[.[.'.'.'.'.[.[.[.@X@X-X@X@X[.[.'.).).R.).).).'.[.@X@X@X-X@X@X[.[.[.'.).).).'.[.[.@X-X@X-X@X-X@X-X@X@X@X[.@X@X@X-X@X-X@X@X@X@X[.[.[.).).).'.'.[.[.@X@X@X@X@X@X[.'.'.R.).).R.'.'.[.@X@X-X-X@X-X-X",
"n.n.n.n.G.G.J.).).[.[.-X-X-X-X-X-X-X-X2X-X-X<X-X-X-X-X-X@X[.[.'.R.J.G.G.G.J.J.R.'.[.[.@X-X@X[.[.).R.J.G.G.G.R.R.[.[.@X@X@X@X[.).R.R.G.Z.G.G.R.R.).[.[.@X@X-X-X-X-X-X-X-X-X,X-X-X-X,X-X-X@X@X[.).R.J.G.G.G.G.R.R.'.[.@X@X@X@X[.'.R.R.G.G.G.J.R.R.'.[.[.@X-X-X-X-X",
"7.8.u.u.u.z.v.Z.J.).[.@X@X-X-X<X2X-X2X<X2X2X2X2X2X2X<X-X-X[.).J.n.n.z.z.a.z.v.Z.R.).@X@X-X[.'.R.G.n.v.z.z.v.n.J.R.[.[.@X@X[.'.R.G.v.z.z.a.z.z.n.G.).'.@X-X-X-X,X,X,X,X,X,X2X2X2X2X2X,X-X@X[.'.R.A.n.z.a.a.z.n.A.R.).[.@X@X[.'.R.J.n.n.z.z.z.n.G.R.'.[.-X-X,X2X2X",
"' ' ' +.$.:.7.z.n.J.).[.@X-X2X-X2X2X<X2X2X2X2X2X6X6X2X-X-X[.J.Z.z.7.:.$.:.:.u.z.Z.R.[.@X[.[.).G.v.a.7.:.4.7.a.n.G.).[.@X@X[.R.Z.z.u.:.$.$.<.7.a.n.J.).[.@X-X,X,X2X2X,X2X2X2X2X6X6X2X2X-X@X[.R.n.z.8.<.:.$.<.8.z.A.).[.@X@X[.).G.n.u.7.<.<.4.z.z.G.R.[.@X,X2X2X6X",
"N Z H H E ' +.4.z.n.R.[.-X-X2X2X2X-X2X2X2X2X2X6X6X6X2X-X@X).G.z.4.+.' ^ E ' $.7.v.G.).[.[.'.J.n.u.:.} ' ' } :.u.v.J.'.[.[.'.J.v.u.$.' ^ ^ ' +.<.z.n.R.[.@X,X,X2X2X,X,X,X2X2X2X6X6X6X2X,X@X).A.z.4.$.' ^ ^ } $.8.n.G.'.[.@X'.J.n.u.:.+./ ' } :.u.z.G.'.@X-X2X9X9X",
"7 7 t a c H ' +.u.v.J.'.[.2X-X2X2X2X-X-X-X,X2X6X6X2X2X-X[.R.n.u.+.^ H N N H ' :.u.Z.).[.[.).Z.z.:.' I Z Z I ' :.a.Z.).[.'.).Z.u.$./ H B c Z ^ $.7.n.G.'.@X-X,X2X,X,X,X-X,X,X2X2X6X6X,X-X[.R.n.8.$.^ H c c P / :.a.n.R.[.[.R.A.a.:.' I Z Z P ' $.a.n.).[.-X,X6X9X",
"- ; < 4 t c H ' :.z.G.).[.-X2X2X2X-X-X-X-X-X-X2X2X2X-X-X'.J.z.:.' H c t a c H } 7.z.J.'.).G.v.4...P c a a c H ..7.z.J.'.).J.v.4.} P c r a c Z ' <.z.G.'.@X-X,X2X,X,X-X-X-X,X,X,X,X2X,X@X[.G.z.:.' P c a r c P } 7.n.J.'.'.J.n.7.} P c a a c P } 4.z.G.[.@X,X6X6X",
"X o $ ; < a Z ' :.a.G.).@X-X2X-X,X-X-X-X-X-X-X-X-X-X@X[.).n.u.+.E N t 5 4 a Z ' :.z.Z.J.J.Z.z.:.^ Z a 7 7 a Z / :.z.G.J.R.n.z.:.^ Z a 6 6 r c ^ $.u.A.).@X-X,X,X,X,X-X-X@X-X-X,X,X-X-X[.R.A.u.$.I c r 6 6 a B / $.z.A.R.R.Z.z.$./ B a 6 6 a B ^ :.u.A.R.[.@X-X,X",
"X X $ ; 4 a Z ' :.a.G.).@X-X2X2X2X-X-X@X-X-X-X@X@X[.[.R.G.v.4.+.P c t 5 5 t c E +.8.z.Z.S.v.8.+.E c a 7 4 t N E +.u.z.n.Z.v.u.+.E c a 6 6 a c ^ $.a.G.).@X-X,X,X,X,X-X@X@X@X-X@X@X[.'.R.G.z.4.+.P c r 6 6 a c ^ +.8.c.n.Z.z.u.$.E c a 4 6 r c E +.7.z.G.R.'.'.[.",
"$ - < 4 7 c H } 1.z.G.'.@X-X2X2X2X-X-X-X@X[.[.[.).).G.Z.z.u.:.' H c a 7 r a N E +.4.u.z.z.u.4.+.E N a 7 r a N I ..:.u.z.a.u.:.' I c a r r c P ' 4.z.G.'.@X-X,X,X2X,X-X-X@X@X[.[.).R.G.A.z.u.$.' P c a 7 7 a Z I +.<.u.z.z.u.<.} E Z a 7 r a B I } $.u.z.n.G.G.J.",
"5 7 a a N H / $.8.v.J.[.@X-X-X2X2X-X-X-X[.[.).R.G.n.z.u.4.$.+.^ P Z c c c c H E ' +.:.7.4.:.+.' E Z c c c c Z E ' +.$.4.4.:.+.' I Z c c c H ^ $.8.n.G.'.@X-X,X2X,X,X-X@X@X[.).R.G.n.z.u.7.:.} ^ P B c c c c Z ^ } $.<.4.4.:.$.' E Z N c c c Z I ' +.:.4.4.u.u.u.",
"N N Z H E ' +.4.a.Z.R.[.@X-X<X2X2X-X-X-X[.'.J.n.z.7.:.$.} ' E E I I H H H I E E ' } } +.+...' ' ^ E I H H P I E ^ ' ' } ' ' ^ E I P P P E ' $.4.z.A.R.[.@X,X,X,X2X,X-X@X[.'.G.n.z.u.<.$.} ' / E I P P H P I I ^ / } } +.+.} } ' ^ I I P H P I E ^ ^ ' } } } +.+.",
"' ' ' +.$.:.8.a.n.J.).[.-X-X-X2X2X2X-X-X[.R.Z.z.7.$.' E I P H E E ^ ' ' } ' ' ' ^ E E I E E E ^ ' ' ' } } ' ' E E E I H H H I I E ^ } } $.<.u.z.n.R.'.[.@X,X,X2X2X,X-X@X'.R.G.z.7.$.' E I P P I E / ' } } ' ' / ^ ^ I E E E ^ ^ / ' ' } } ' ' ^ E I I H H Z Z H ",
"7.8.8.u.a.z.v.Z.J.).[.[.-X-X-X2X2X-X-X[.[.J.n.8.+./ H c c c Z I ' +.:.:.4.:.+.' E H Z N c Z H E ' $.:.4.4.:.+.' E Z c c c c Z P / } $.4.u.z.n.A.R.'.'.@X@X-X,X,X2X,X-X@X'.J.c.8.$./ Z B c c Z I / +.:.<.4.$.$.} E H Z c c Z H E } $.:.<.<.:.+.' E Z c c a r a 7 ",
"n.Z.n.Z.G.G.J.).).[.[.@X-X-X-X2X2X2X-X@X'.G.z.4.' H j t 7 a N I ' :.u.z.z.u.4...E C a t t j Z E ..:.u.z.z.u.:.} I N a 7 7 a c H ' $.u.z.A.G.R.).[.[.@X@X-X-X,X,X,X,X,X@X'.G.z.<.' Z c r 7 a c I } :.u.a.z.u.<.} E Z a a a a B E } 4.u.z.z.u.<.} E Z a 7 < , ; - ",
").).).).).).'.[.[.@X-X-X@X-X-X2X2X2X-X@X'.G.u.$.^ N a 7 5 a c E +.u.v.Z.n.z.8.+.I c 7 4 < 7 c I +.7.z.G.n.v.u.+.E c a 4 7 t c I +.4.z.G.R.'.[.@X@X@X@X@X@X-X,X,X2X,X-X@X'.G.a.$.^ B r 6 7 a c ^ $.u.n.n.Z.z.7.+.I c 7 < < 7 c I +.8.z.A.n.z.u.$.^ B a < ; $ o o ",
"[.[.@X@X@X@X@X@X@X@X-X@X-X-X-X-X2X-X-X[.).Z.a.:.E N t 7 5 a N / :.z.n.R.J.Z.u.+.I a < - ; 4 a I +.u.n.J.J.Z.z.:.' Z a 5 4 a c E $.u.A.R.[.@X-X-X-X-X-X-X-X-X-X,X,X,X-X@X).A.a.$.^ c a 6 6 a B ^ :.z.A.R.J.n.u.+.I a 4 ; - < a I +.u.n.R.R.Z.z.<.} Z a 6 ; % o o ",
"-X-X-X-X-X-X-X-X-X@X-X-X-X-X-X-X2X,X-X@X).G.z.:.' H j a a c P ..7.n.J.).R.Z.u.+.H a < $ $ < a P +.u.Z.R.).J.v.7...H c a a j H ' <.z.G.'.-X,X,X,X,X,X-X@X@X-X-X,X,X,X-X@X).G.z.<.' Z h a r c P +.7.z.J.).).G.u.+.P a ; $ % < a P +.u.G.R.).G.z.8.+.I c 7 4 , - % ",
"<X2X2X2X-X-X-X-X-X-X-X@X-X-X-X2X-X,X-X@X'.J.z.7.+.E Z N N H ' :.a.G.).).).Z.u.+.H r - o o ; r H +.u.G.).[.).G.a.:.' H N N H ^ $.u.n.R.[.-X2X6X2X,X,X-X-X-X-X-X,X,X,X-X@X[.J.z.7.+.^ Z c B H ' :.a.A.R.'.).G.u.+.H a ; o o ; r P +.u.G.).'.).n.z.<.} P c a a 7 7 ",
"2X2X2X2X2X2X2X2X-X-X-X-X@X-X-X-X-X-X-X-X[.R.Z.a.4.+.' ^ ^ ' $.u.n.J.'.[.).G.u.+.H 7 - X o ; 7 Z +.u.Z.).[.).J.n.u.$.} E ^ ' $.4.z.G.).@X,X2X2X2X,X,X-X-X@X-X-X-X,X-X-X@X[.R.n.z.4.$.' ^ ^ } $.u.n.R.'.[.).A.u.+.Z 7 - o o % 7 Z ..u.A.).[.'.R.n.u.:.} E P Z Z c ",
"2X-X2X<X-X2X-X<X-X-X@X@X-X-X-X-X-X-X-X[.[.).J.n.a.7.:.$.:.4.u.n.G.).[.@X'.S.u...H 7 - X X % 7 H +.u.G.).[.[.).G.n.u.4.:.$.4.u.a.n.R.'.@X-X,X,X,X,X,X-X@X-X-X-X-X-X-X-X@X[.'.G.n.z.7.<.$.$.4.u.n.G.).[.[.).G.u.} Z 7 % o o ; r Z } u.Z.).@X[.).G.n.u.4.$.+.} } ' ",
"2X-X<X-X-X-X-X-X-X-X-X-X@X-X@X-X-X-X-X-X@X[.).J.Z.n.z.a.a.z.n.J.).[.[.@X).Z.u.} Z 7 ; o o - r Z ' u.n.).[.@X[.).J.n.z.a.u.z.n.Z.J.'.[.@X-X,X,X,X,X-X-X-X@X-X-X-X-X-X-X@X@X'.).G.n.n.a.z.a.z.n.J.).[.@X@X).n.u.+.H 7 - o o ; 7 Z ..u.n.).[.@X[.).J.n.z.u.u.8.7.4.",
"-X-X-X-X-X-X-X-X-X-X-X-X-X-X@X-X-X@X-X@X-X[.[.).R.J.G.G.G.G.R.'.[.[.-X[.).Z.u.} Z a ; $ $ ; a Z ..7.Z.).[.@X[.[.).R.G.G.G.G.J.R.).'.@X@X-X-X-X-X-X-X-X-X@X-X@X-X-X@X-X-X@X[.[.'.R.G.G.G.G.G.R.).[.@X@X[.).n.8.} Z a , $ $ , r Z } u.A.).[.@X@X[.'.R.R.A.A.n.n.n.",
"-X@X-X@X@X-X@X-X@X-X@X@X@X-X-X-X-X-X-X@X@X@X@X[.[.'.).).).'.[.@X@X-X-X[.).n.u.+.P a 4 ; - < a P +.u.Z.).@X-X-X-X@X[.'.).).).[.[.[.@X@X-X@X-X@X-X-X@X-X@X-X-X@X-X-X-X@X@X@X@X@X[.[.'.'.).'.'.[.@X@X-X@X@X).A.u.+.P a 4 ; ; < a P +.u.n.).@X@X-X@X@X[.'.'.).).).'.",
"-X@X@X-X-X-X@X-X-X-X@X-X@X-X@X-X-X-X-X@X-X@X@X@X@X@X@X@X@X@X-X-X-X-X-X@X).Z.u.$.E c 7 4 4 7 c E $.u.Z.).[.-X-X-X-X-X@X@X@X[.@X@X@X-X@X-X@X-X-X-X-X@X-X@X@X-X-X@X-X@X-X-X-X@X@X@X@X@X@X@X@X@X-X-X,X,X-X@X).A.u.$.E c 7 6 < r c E $.a.G.).@X-X,X,X-X@X@X@X@X[.@X@X",
"@X-X-X@X-X@X-X-X-X-X-X-X-X-X-X-X@X@X-X-X-X-X-X-X-X-X-X-X-X-X-X2X2X,X-X@X).G.z.4.' H c a a c H ' 4.z.G.'.-X-X2X2X2X-X-X-X-X-X-X-X-X-X-X@X@X-X@X-X-X-X-X-X-X-X-X-X-X@X-X@X-X-X-X-X-X,X,X,X-X,X,X,X,X,X-X@X'.G.z.:.' H c a a c H ' <.z.G.'.[.-X,X2X,X,X,X-X-X-X-X-X",
"-X-X-X-X-X-X-X-X-X-X-X-X-X-X-X-X-X-X-X@X-X-X-X-X2X2X2X2X6X6X6X6X6X2X-X@X[.J.z.8.$.' H Z Z I ' $.7.n.J.[.@X-X,X2X2X2X,X,X2X,X-X,X-X-X@X-X-X@X-X-X-X-X-X,X-X-X-X-X-X-X-X-X-X-X-X,X,X2X2X2X2X2X6X6X6X2X-X@X[.R.n.7.$.' P Z Z I / $.8.n.R.[.@X-X,X2X2X2X2X,X,X,X,X,X",
"-X@X@X-X@X@X-X-X-X-X2X2X-X2X2X-X-X-X-X-X-X-X-X2X2X2X6X6X6X6X6X6X6X2X-X-X[.R.Z.z.7.$...' ' ..$.4.z.Z.).[.@X-X,X2X2X2X2X2X,X2X,X,X-X-X-X-X-X-X-X-X-X,X,X,X,X,X,X-X-X-X@X-X@X-X,X,X2X2X6X6X6X6X6X6X2X,X,X@X[.).n.z.7.$.} ' ' } $.4.z.n.R.[.-X-X,X,X2X2X,X2X2X2X2X2X",
"@X-X@X-X-X-X-X-X-X2X2X-X2X-X-X-X-X-X-X@X-X-X-X2X2X2X6X6X6X6X6X6X2X2X-X-X[.'.J.Z.z.u.4.:.:.4.u.z.n.J.'.[.@X-X-X2X2X2X,X,X-X,X,X-X-X-X-X-X-X@X-X-X,X,X,X,X,X,X,X,X-X-X-X-X-X-X,X,X,X6X6X6X6X6X6X6X2X2X-X@X@X).G.n.z.u.<.:.:.4.u.z.n.G.'.[.@X-X-X,X,X,X,X,X,X,X,X,X",
"-X@X@X-X@X-X-X-X-X-X-X2X2X-X2X-X-X-X-X-X-X-X-X-X,X2X2X2X2X6X2X2X2X-X-X@X-X[.).J.Z.v.z.z.z.z.v.Z.J.).[.@X@X-X-X-X-X,X-X-X-X-X-X-X-X-X@X-X-X-X-X-X,X-X,X,X,X,X,X,X-X-X-X@X-X-X-X,X,X,X2X2X2X2X2X,X2X,X,X@X@X'.).R.G.n.z.z.z.z.n.G.R.).'.@X-X-X-X-X,X,X-X-X,X,X,X,X",
"@X-X-X-X-X-X-X-X-X-X-X-X-X-X-X-X-X-X-X@X@X-X-X-X-X-X-X-X-X-X,X-X-X-X-X-X@X[.[.).R.J.G.G.G.G.J.).'.[.[.-X-X-X-X-X-X-X-X-X-X-X-X-X-X@X-X@X@X-X-X-X-X-X-X-X-X-X-X-X-X-X-X-X@X-X-X-X,X-X-X-X,X,X-X,X,X-X-X-X@X@X'.).R.J.G.G.A.G.J.R.).[.@X@X@X-X-X-X-X-X-X-X-X-X-X-X",
"-X@X-X@X@X-X@X-X@X-X[.@X@X@X@X@X@X@X@X-X-X@X-X-X-X@X@X@X@X@X@X-X@X@X-X@X@X@X@X[.[.'.).).).'.'.[.[.[.@X-X@X-X@X-X@X-X-X-X-X@X-X@X-X-X-X@X-X@X-X@X@X@X[.@X[.@X@X@X@X@X@X-X-X@X@X@X@X@X@X@X@X@X@X-X@X-X@X@X@X@X@X[.[.'.'.'.).'.[.[.[.@X@X@X@X-X-X-X-X-X@X-X@X-X@X-X",
"-X-X-X-X@X@X@X[.[.'.).).).'.'.[.[.@X@X@X-X@X@X[.[.'.'.).).).[.[.[.@X-X@X-X@X-X@X-X@X@X@X@X[.@X@X-X@X-X@X-X-X@X-X-X@X-X-X@X-X-X-X-X@X-X@X-X@X@X[.[.'.'.).'.'.'.[.[.@X@X@X@X@X@X[.[.[.'.'.).'.'.[.[.@X@X@X-X@X@X@X@X@X@X@X[.@X@X@X@X@X-X@X@X-X@X@X-X-X@X-X-X-X@X-X",
"-X-X-X-X-X[.[.'.).J.G.G.G.G.J.R.'.[.@X@X-X[.[.[.).J.G.Z.G.G.J.J.'.[.[.-X-X-X-X-X-X-X-X-X-X,X-X-X-X-X@X-X-X@X-X-X-X-X@X-X@X-X-X-X-X-X-X-X@X@X'.).R.G.G.G.G.G.R.R.'.[.@X@X@X@X[.).R.R.G.A.G.G.G.R.'.[.@X@X-X-X,X,X-X,X-X-X,X-X-X-X-X-X-X-X-X-X-X-X@X@X-X-X-X@X@X-X",
"2X2X-X-X@X[.).J.Z.n.z.a.a.z.v.Z.R.'.[.@X@X[.[.J.Z.v.z.z.a.z.v.Z.J.).[.@X-X,X2X2X2X2X2X-X2X-X,X-X-X-X-X@X@X@X-X@X@X-X@X@X-X-X-X-X,X,X,X-X@X[.).R.A.n.z.u.u.z.n.A.R.'.[.@X@X[.'.R.A.c.z.a.a.z.n.n.J.'.[.-X-X,X,X2X2X2X,X,X,X,X,X-X-X-X-X@X-X@X@X-X-X@X-X@X@X-X-X@X",
"6X6X2X-X@X[.R.Z.z.8.:.:.:.1.u.z.Z.R.[.@X[.[.).Z.z.u.:.$.:.:.8.z.Z.R.[.@X-X2X2X6X6X2X2X2X2X,X,X-X-X-X-X-X-X-X@X-X-X@X-X-X-X-X-X-X,X,X,X-X@X'.R.n.z.8.<.:.$.<.u.z.G.R.[.@X@X[.R.A.z.u.4.$.$.<.u.z.n.R.'.@X,X2X2X6X2X6X2X2X,X,X,X-X-X-X-X-X-X@X-X@X-X-X@X-X-X@X-X-X",
"9X9X2X@X@X'.G.z.8.$.} ^ ^ } $.8.c.G.'.@X@X'.G.c.8.$.} ^ ^ } $.4.z.G.Q.@X,X2X2X9X9X2X,X,X,X,X,X-X,X-X,X@X@X-X@X-X@X,X@X-X@X,X,X2X2X2X2X,X@X).A.z.4.$.' ^ ^ ' $.8.c.G.'.@X[.'.G.n.8.$.} ^ ^ ' $.4.z.A.).@X-X2X6X6X6X2X2X,X,X,X,X-X-X,X-X@X-X-X@X-X-X@X-X-X@X-X-X@X",
"9X9X2X,X@XR.n.u.$.^ H n n H } -.p.B.R.'.'.R.A.p.<.^ H B n Z ^ $.8.n.R.@X,X2X5X5X2X2X,X,X,X,X@X,X@X,X@X,X,X@X,X@X@X@X-X@X-X,X,X,X2X6X,X-X@XR.n.u.$.^ P c c P / :.a.B.R.[.[.R.B.u.:./ P B B H ^ $.u.n.R.@X-X,X6X2X2X2X,X,X,X,X,X-X-X@X-X-X@X-X-X@X@X-X@X-X-X@X@X-X",
"9X2X,X@X'.G.c.<.} P c a r c P } 7.c.P.Q.Q.R.c.7.} P c r r c H } <.z.P.'.@X,X,X2X2X,X,X@X@X,X@X,X-X@X-X@X@X@X@X-X,X@X@X,X@X,X,X,X,X,X,X@X'.G.z.<./ H c a r c P } 7.c.G.'.'.R.c.7.} P c r a h Z ' <.z.G.[.@X,X,X2X,X,X,X,X-X-X-X-X@X-X@X-X-X@X@X-X-X-X@X@X-X-X-X-X",
",X,X@X@XR.n.p.$.^ n r 6 6 a n ^ $.z.B.R.R.B.a.<.^ B a 6 6 e n Y $.u.B.R.[.@X@X,X,X,X,X@X,X@X,X@X@X,X@X,X@X,X-X@X@X-X-X@X,X@X@X,X,X,X@X[.).n.u.$.E c r 6 6 a Z / $.z.A.R.R.n.z.$./ n a 6 6 a n E $.u.n.R.[.@X-X,X-X,X@X@X-X@X-X@X-X-X@X-X-X@X-X-X@X-X-X-X@X@X-X@X",
"@X'.'.R.A.c.8...I n r 6 6 r n ^ $.u.c.B.B.c.8.$.^ n r 6 6 e c P } 7.c.G.R.[.@X@X@X@X@X-X,X@X,X-X,X@X-X@X@X@X,X,X,X,X@X@X@X@X@X@X@X[.[.).G.z.4. .I c r 7 6 a c ^ $.u.z.n.A.c.8.$.^ c a 6 6 7 c I +.4.z.G.R.[.@X@X@X@X-X@X@X-X@X-X-X@X-X-X@X-X-X@X-X@X@X-X-X-X@X-X",
"A.G.A.n.z.u.<.} I B a e e a B Y ..<.u.z.z.p.<...I n a e e a c P } $.8.z.n.G.R.'.'.[.@X@X@X@X@X,X-X-X,X,X,X@X,X@X,X@X-X-X@X@X@X'.'.R.G.n.z.u.:.' P c a 7 7 a B I } <.u.z.z.u.<.} E n a 7 r a c P ' $.u.c.A.G.R.).'.[.@X@X@X-X-X-X-X,X@X-X-X-X-X@X-X-X-X@X@X-X-X@X",
"u.u.u.7.4.$...^ I Z c c h n Z I } $.<.4.4.<.$.} ^ H n c h c B P ^ } $.8.u.z.n.A.R.R.'.@X@X,X,X,X,X,X,X-X,X,X,X,X,X,X-X@X@X'.'.R.G.n.z.u.4.$.+.^ P Z c h c c Z ^ } $.<.4.4.<.$.} E Z B c c c Z I ^ } $.4.u.z.n.G.R.'.[.@X-X-X,X,X,X,X,X,X-X-X-X-X-X-X-X-X-X@X-X@X",
"} +.} } } } / ^ ^ P P P P P ^ ^ / } } ..} } } ^ ^ I P P H P P P ^ ^ } } $.<.u.z.B.R.R.@X@X,X,X,X,X,X,X,X,X,X,X,X,X,X,X@X[.'.P.n.z.8.<.$.} ' ^ I I P P P P I I ^ / } } +.+.} } ^ ^ I I P P Z I I E ^ ' } $.<.8.z.B.G.'.[.@X-X,X,X,X,X,X,X,X,X,X,X-X-X-X@X-X-X@X-X",
"Z H Z P H P I ^ ^ ^ } } } } } ^ ^ ^ ^ I I ^ Y ^ ^ } } } } } ^ ^ P P P P ^ } $.4.z.B.R.[.@X,X,X,X,X,X,X,X,X2X2X2X,X,X,X@X[.R.B.z.7.$.' E I P P E E / } } } } ' / ^ ^ I I E E ^ ^ / / } } } } ^ ^ I P P P ^ ' $.4.z.n.R.@X@X-X,X2X2X2X,X,X,X,X,X,X-X-X@X-X-X@X-X@X",
"7 e a a h n H I } $.$.<.<.<.$.} ^ P Z n n Z H ^ } $.$.<.4.$.$./ I B c c c Z ^ $.8.c.R.'.@X,X,X,X2X,X,X,X,X,X2X2X2X,X,X@X'.R.n.8.$./ Z B c c Z I / +.$.<.<.:.$.} E P Z c c Z P ^ } $.:.<.<.$.+./ I Z c c n Z ^ $.8.c.R.'.@X-X,X2X2X2X,X,X,X,X-X,X-X-X-X-X@X-X-X-X",
"- , , < 7 h B ^ ..<.u.z.z.u.<.} I B a r e h n ^ } <.u.z.z.u.<.} I n a e e c H } <.z.G.'.@X,X,X,X2X,X,X,X,X,X,X,X,X,X-X@X'.G.z.<.} Z c 7 7 a n I } <.u.z.z.u.<.} ^ B a a r c Z I +.<.u.z.z.8.<.} I c a 7 r c Z ' <.z.G.'.@X-X,X,X,X,X-X-X-X-X,X-X-X-X@X-X-X@X@X-X",
"o o % % 4 r n ^ $.8.c.B.n.c.8.$.P c 7 4 < 7 c P $.8.z.B.n.c.8.$.^ c r 6 6 r c ^ $.p.G.R.@X@X,X,X,X@X@X@X@X@X@X,X,X,X@X@X'.A.p.$.^ B a 6 6 a c E $.8.z.B.n.z.8.$.I c 7 < < 7 c I +.8.z.G.n.c.8.$.^ c a 7 6 a B ^ $.a.A.).@X-X,X,X-X-X@X@X@X@X@X@X@X@X-X@X@X-X-X@X",
"o o % : 4 a Z } <.z.A.R.R.n.8.$.P h 4 % , < h P $.8.n.R.R.B.a.<.^ B a 7 7 a n ^ $.z.A.'.@X@X@X@X@X[.'.'.'.'.[.@X@X@X-X@X'.A.p.<.^ Z a 6 6 a B / $.z.n.R.R.n.u.$.P a 4 % - 4 a P +.u.n.R.R.A.a.:./ Z r 6 7 a B ^ $.z.A.'.[.-X@X@X@X[.[.'.'.'.'.[.[.@X@X@X-X-X-X@X",
"% % , 4 e c P +.8.c.P.Q.R.A.u.+.P a , % % , r P $.p.A.Q.Q.R.c.7.} P c r a h Z } <.z.G.'.'.@X@X'.'.R.G.G.A.G.R.'.'.@X@X[.'.G.z.<.' Z h a r c P } 8.n.R.).R.A.u.$.P a , % $ , a P +.u.A.R.R.R.n.8.} P c a r c Z } :.z.G.'.[.@X@X[.R.R.G.G.A.G.G.R.'.'.@X@X@X-X-X,X",
"6 7 e a c P } <.z.A.R.'.'.A.u.$.Z e % o o , e H } p.A.R.'.R.A.p.<.' P n n Z ^ $.8.c.R.'.[.[.'.R.B.n.z.a.p.z.c.A.R.'.[.[.'.G.c.8.$.^ Z B B P ' $.a.A.R.'.).A.u.+.P r - o o ; r H +.u.G.).'.R.G.a.<.' P c c Z ^ $.8.n.R.'.[.[.'.R.A.n.z.p.a.z.n.n.G.R.[.@X@X-X-X,X",
"n B Z P ^ } $.u.n.R.'.'.'.A.u.$.Z e % o o % e Z $.p.A.'.@X'.R.c.u.$.} ^ ^ } $.4.z.B.R.'.'.'.R.B.z.8.<.$.$.<.8.z.n.R.'.'.'.R.B.z.4.$.' ^ ^ } $.u.n.R.'.[.).A.u.+.Z 7 % o o % 7 Z +.u.A.).'.'.R.n.u.$.' ^ ^ } $.4.z.n.R.'.[.'.R.n.z.u.<.$.:.<.8.z.n.R.R.@X@X@X,X,X",
"} } } ..$.4.p.n.G.'.'.'.'.A.u.} Z e % o o % 7 Z $.u.B.'.@X'.R.G.c.p.4.$.$.4.8.z.n.R.'.'.'.R.A.z.4.$.} ^ ^ } $.<.z.A.R.'.'.'.R.n.z.8.<.$.:.<.u.c.G.).[.[.'.A.u.} Z 7 % o o % 7 Z +.u.B.).[.[.'.G.n.u.4.$.$.<.8.z.n.R.'.[.'.R.n.z.4.$./ ^ ^ } $.4.a.B.R.[.@X-X,X,X",
"7.7.8.u.p.c.n.P.'.'.@X@X'.n.u...Z e - o o % e Z } u.A.Q.'.@X[.'.G.n.z.z.a.z.n.G.R.'.'.@X'.G.n.8.$.^ Z n n Z ^ $.8.c.R.'.[.'.'.R.A.n.z.a.a.z.n.G.).[.@X[.).A.u. .Z r - o o % r Z } 8.A.).[.@X[.R.G.n.z.a.a.z.n.G.R.'.[.[.'.R.n.8.$.^ Z c n Z ^ $.8.n.G.'.@X,X,X2X",
"n.n.B.B.A.P.R.Q.'.@X@X[.'.B.u.} Z r , % % , r Z } u.B.'.@X@X@X@X'.R.G.A.A.G.R.R.'.@X@X[.'.G.z.<.} Z h a a h H } <.z.G.'.@X@X@X'.).R.G.A.G.J.R.'.[.@X@X@X).A.u.} Z a , % $ , a Z } u.n.'.@X@X@X[.'.R.G.G.G.G.R.R.[.@X@X[.'.G.z.<.} Z c a a c H } 4.z.G.).@X-X2X6X",
"'.'.R.'.Q.'.@X@X@X,X@X@XQ.B.8.$.P a < : - < h P $.u.B.Q.@X@X@X@X@X[.'.'.'.'.'.@X@X@X@X@X'.G.a.$.^ n a 6 6 a n ^ $.a.G.R.@X@X@X@X@X'.'.'.'.[.[.@X@X-X@X[.R.A.u.} I a < ; ; 4 a P +.u.G.R.@X@X@X-X@X[.'.'.'.'.'.@X@X@X-X[.).A.z.$.^ n a 6 6 a B / :.a.G.'.@X,X,X6X",
"@X@X@X@X@X@X,X,X,X,X@X@X'.A.p.$.I c e < 6 7 c I $.u.A.'.@X@X,X,X,X@X@X@X@X@X,X,X,X,X@X@X'.A.p.$.^ c r 6 6 r c ^ $.z.G.'.@X@X,X,X-X-X@X@X@X@X-X-X,X,X-X@X'.B.u.$.E c 7 4 < 7 n ^ $.u.A.).@X-X,X,X,X-X@X@X@X@X-X,X,X,X-X@X'.A.a.$.^ n r 6 7 a Z / :.a.A.).@X-X,X6X",
"@X,X,X,X,X,X,X2X,X,X,X@X'.G.z.<.} P c a a c P } <.z.G.'.@X,X,X2X,X,X,X,X,X,X,X,X,X,X,X@X'.A.z.<.} H c a a c H } <.z.G.'.@X,X,X2X,X,X,X,X,X,X,X,X2X,X-X@X'.G.z.<.' P c a a c Z } <.z.G.'.@X,X,X2X,X,X,X,X,X,X,X,X,X,X-X@X'.G.z.<.' P c a a c P } 4.z.G.'.[.,X2X2X",
"5X5X5X2X,X2X2X2X2X2X,X@X'.R.c.8.$./ P Z Z P ^ $.7.n.R.'.@X,X,X2X5X2X5X,X,X2X5X5X2X2X,X@X'.R.c.8.$.^ P Z Z P ^ $.7.n.R.'.@X,X,X5X2X6X2X6X6X2X2X6X2X2X,X@X'.G.n.u.$./ I Z Z P ' $.8.c.R.[.@X-X2X2X6X2X2X2X2X2X6X2X6X,X,X@X[.R.c.8.$.^ P Z Z P ' $.u.c.R.'.@X-X,X2X",
"9X9X9X9X2X9X9X5X5X2X,X@X'.R.B.z.8.$.} ^ } } $.4.z.n.R.'.@X,X2X5X9X5X9X9X9X5X9X5X5X2X,X@X'.R.B.z.7.$.} / / } $.4.a.B.R.[.@X,X,X2X6X6X6X6X6X6X6X6X6X,X,X-X[.R.A.z.8.$.} / ' +.$.4.z.A.R.[.@X-X2X6X6X6X6X9X6X6X9X6X6X,X,X@X[.R.B.z.4.$.} / / } $.8.z.A.R.[.@X,X,X2X",
"9X9X9X9X9X9X9X5X2X,X,X@X@XR.R.n.z.8.4.-.<.4.u.z.n.R.'.[.@X,X2X2X2X9X9X2X5X9X5X9X2X2X,X@X@X'.G.n.z.8.4.<.<.4.u.z.B.G.R.@X@X,X,X,X6X6X9X6X9X6X6X6X2X2X,X@X@X).G.n.z.u.4.<.:.4.8.z.n.J.'.[.@X,X,X2X6X6X9X6X6X9X6X6X2X,X,X-X[.'.R.n.z.u.4.<.<.4.u.z.n.R.'.[.-X-X,X,X",
"5X5X2X2X2X2X,X,X2X,X,X@X@X'.R.P.A.n.c.z.z.z.n.A.R.R.'.@X@X,X,X,X2X2X,X,X2X2X2X,X,X,X,X@X@X'.Q.R.A.n.c.z.z.c.n.G.R.'.[.@X@X,X,X,X,X2X2X2X2X2X2X2X,X,X-X-X@X[.).G.B.n.z.z.z.z.n.A.J.).[.@X@X-X,X2X2X,X2X,X,X2X2X,X,X,X,X@X@X[.R.R.A.n.c.z.z.c.n.A.R.).[.@X@X-X-X-X",
",X,X@X,X,X,X,X,X,X,X,X,X@X[.[.'.R.R.G.A.A.A.R.R.'.'.@X@X,X@X,X,X,X,X,X,X,X,X,X,X,X,X@X,X@X@X'.'.R.R.R.G.G.G.R.R.'.'.@X@X-X-X,X,X,X-X,X,X,X-X,X,X,X,X-X@X@X[.'.).R.G.G.A.G.G.R.R.'.'.@X@X-X-X-X-X,X,X,X,X,X,X,X,X,X-X-X@X@X@X'.'.R.R.G.G.G.G.R.R.).'.[.@X@X-X-X-X",
"@X@X@X@X@X@X@X@X@X@X@X@X@X@X@X@X[.'.'.'.'.'.'.'.'.@X@X@X,X@X@X@X@X@X@X@X@X@X@X@X@X,X@X@X@X@X@X[.'.'.R.R.R.'.R.'.[.[.@X@X@X@X-X@X@X@X@X@X@X@X@X@X@X@X@X-X@X@X@X@X[.'.'.'.'.'.'.[.[.@X@X@X@X-X@X-X@X@X@X@X@X@X@X@X@X-X@X-X@X@X[.[.'.R.).R.R.'.).'.'.@X@X@X@X-X@X-X",
"R.Q.'.Q.'.'.'.'.@X@X@X@X@X@X,X@X@X@X@X@X@X@X@X@X@X@X@X-X@X@X@X[.[.'.'.'.'.'.'.[.@X@X@X@X@X@X[.[.'.'.R.R.R.'.'.'.[.@X@X@X@X@X@X[.[.'.'.'.).'.'.[.[.@X@X@X@X-X@X@X@X@X@X@X@X@X@X@X@X-X@X@X-X@X@X[.[.'.'.'.).'.'.[.[.@X@X@X@X@X@X[.'.).R.R.R.'.'.'.[.@X@X@X-X-X@X,X",
"n.B.B.A.A.G.P.R.R.'.@X@X,X@X@X,X,X,X,X@X@X,X,X,X,X,X,X@X@X@X'.'.R.R.G.A.A.G.P.R.'.'.@X@X@X@X@X'.R.R.R.G.G.G.R.Q.'.@X@X@X@X@X'.'.R.R.G.G.A.G.R.R.).[.@X@X@X-X-X-X,X,X-X,X-X-X-X,X-X,X-X-X@X@X'.).R.G.G.A.A.G.R.R.'.[.@X@X@X@X[.'.).R.R.G.G.G.R.R.'.[.@X@X-X-X-X,X",
"7.8.8.u.p.z.c.B.P.R.'.@X@X,X,X,X,X,X,X,X,X,X2X2X2X,X,X,X@X@XQ.R.A.c.z.p.p.z.n.B.P.'.@X@X@X@X'.R.G.B.c.z.z.c.B.G.R.'.[.@X@X@X'.R.A.c.z.a.u.z.z.n.G.).'.@X@X-X,X,X,X,X,X,X,X,X2X2X,X,X,X,X@X[.'.R.A.n.z.p.a.z.n.A.R.'.[.@X@X@X'.R.G.n.c.z.z.c.n.G.R.'.[.-X,X,X,X,X",
"} } } ..$.<.8.z.n.P.R.@X@X,X,X,X2X2X2X,X,X2X2X5X5X2X,X,X@X'.R.n.z.8.<.$.<.<.8.z.B.R.'.[.@X@XR.A.c.p.7.<.<.7.a.n.G.R.'.@X@X'.R.A.z.u.<.$.$.<.8.a.n.G.).[.@X,X,X,X,X,X2X,X,X,X2X6X6X2X2X,X@X'.R.n.z.8.<.<.$.<.8.z.A.R.[.@X@X[.).G.n.u.7.<.<.8.a.c.A.R.'.@X,X2X2X9X",
"n B Z P ^ } $.<.z.B.R.'.@X,X,X2X2X2X,X,X,X,X2X5X9X5X2X,X@XQ.A.z.4.$.} ^ ^ } $.8.c.G.'.@X@X'.P.n.u.$.} } / ..<.u.n.P.'.@X@XR.G.c.8.$.} ^ ^ / $.<.z.n.R.[.@X,X,X2X,X,X,X,X,X2X2X9X9X2X,X,X@X'.A.z.4.$.} ^ ^ } $.8.n.G.'.@X[.'.R.c.u.:.} ' / } <.u.c.G.'.@X,X2X9X9X",
"7 7 r a c H ^ $.8.c.P.'.@X,X,X,X,X,X,X,X,X,X2X2X5X5X2X@X@XR.c.u.$.^ Z B n H } $.p.B.R.'.[.R.A.p.<.} P Z Z I } $.p.A.R.[.[.R.B.p.:./ H n n Z ^ +.4.z.R.'.@X,X,X2X,X,X,X,X,X,X,X2X2X6X,X,X[.R.n.8.$.^ Z n n P ' $.a.n.R.[.[.R.A.a.:.' P Z Z P ' $.a.n.R.@X@X2X9X9X",
"% - , 4 7 c P } <.z.A.'.@X,X,X,X,X,X,X,X,X,X,X,X2X2X,X@X'.P.z.<.' Z c a a c P } 4.z.P.'.'.G.c.4.} P c a a c P } 8.n.R.R.'.P.c.8.} P c r a h Z } <.z.G.'.@X-X,X2X,X,X-X-X,X,X,X,X2X2X,X@X'.G.z.<.' H c a r c P } 4.n.G.'.'.R.c.4.} P c a a c P } 4.c.G.[.@X,X2X9X",
"o o % % 6 a B ^ -.p.A.'.@X@X,X,X,X,X,X@X@X,X@X,X,X$X@X@XR.n.u.$.^ c r 7 6 a n ^ <.z.B.P.R.n.z.<.^ B a 6 6 a B / $.z.B.R.R.B.z.$.^ B a 6 6 a c ^ $.p.G.R.@X-X,X,X,X,X-X-X-X@X-X,X,X,X@X@XR.B.u.$.I n r 6 6 a B / <.a.A.R.R.B.a.<./ B a 6 6 a B ^ $.a.A.R.[.@X,X,X",
"o o % - 4 r Z ^ $.z.A.'.@X,X,X,X,X,X@X@X$X$X@X@X@X@X'.R.G.z.4.} P c e 6 6 r c ^ $.8.z.B.B.c.u.$.^ c r 6 6 r n ^ $.8.c.A.B.c.8.$.^ n r 6 6 a n ^ $.p.A.'.@X@X,X2X,X,X,X@X@X@X@X@X@X@X'.R.G.z.4.} I c r 7 6 r n ^ $.u.z.n.B.c.u.$.^ c a 6 6 r n E $.4.c.G.R.'.'.[.",
"% % , 4 e c P } <.z.G.'.@X,X,X2X,X,X,X,X@X@X@X'.R.R.P.B.c.u.$.} P c a 7 e a B I } <.u.z.z.u.<.} I B h 7 e a n I } <.u.a.z.u.<.} P c a r r c H } 4.z.G.'.@X-X,X,X,X,X,X@X@X@X@X'.R.R.G.B.z.u.:.} P c a 7 7 h B I } <.u.z.z.u.<.} E n a 7 7 a n I } :.u.z.n.A.G.G.",
"6 7 e h c H ^ $.7.c.R.'.@X@X,X2X,X,X,X@X@X'.'.R.G.n.c.u.7.$...^ P B c h c c Z ^ } $.<.4.4.<.$.} ^ Z c c c c Z Y } +.$.<.<.$.+.^ I Z c c c Z ^ $.u.n.G.'.@X,X,X2X,X,X-X@X@X'.'.R.G.n.z.u.8.$.} ^ P Z c h c n Z ^ } $.<.4.4.<.$.} ^ Z c c c c Z I / +.$.4.8.8.p.u.",
"B B Z P Y } $.4.z.B.R.'.@X,X,X,X,X,X@X@X@XQ.R.n.z.u.<.$.../ ^ ^ P P P P P P I ^ ' } } +.+.} } ^ ^ I P H P P I ^ ^ / } } } } ^ ^ I P P I ^ / $.4.z.A.R.[.@X,X,X,X,X,X,X@X[.'.G.n.z.u.<.$.} / ^ ^ I P H P P I I ^ ' }  . .+.} } / ^ I I P P P I ^ ^ ^ } } } +.} +.",
"} } } ..$.<.8.z.n.R.Q.@X@X,X,X,X2X,X,X@X'.R.n.z.4.$.} I P P P P ^ ^ / } } } } ^ ^ ^ ^ Y ^ I ^ ^ ' ' } } } } ^ ^ ^ I P P P H P I ^ ^ } } $.<.8.z.B.R.'.[.@X,X,X,X,X,X,X@X'.R.B.z.4.$.} ^ P P P I ^ ^ ' } } } ' ^ ^ ^ I I E E ^ ^ / / } } } } / ^ E I I P Z Z Z Z ",
"7.7.8.u.u.z.c.B.P.R.'.@X@X,X,X,X2X,X$X@X'.R.c.7.$.^ H n c c Z P ^ $.<.<.4.$.$.} I P B c c B H Y } $.<.<.<.$.$./ P Z c c c c B P ^ } $.4.u.z.n.G.R.R.'.@X@X-X,X,X2X,X@X@X'.R.c.8.$.^ Z n c c Z I / +.$.<.<.:.$.} ^ Z Z n n Z Z ^ } $.:.<.<.$.$.} ^ Z c c a a r r ",
"n.n.n.A.A.G.R.R.'.'.[.@X$X,X,X,X,X,X@X@X'.G.z.<.} H h e e a n I } <.8.z.z.u.<.} I Z h e e a n ^ +.<.8.z.z.u.<.} Y n a 7 7 a c P ' :.u.z.B.G.R.'.'.@X@X@X@X-X,X,X2X,X,X@X'.G.z.<.} Z c r 7 a B I } <.u.z.z.u.<.} I Z h r a a n ^  .<.u.z.z.u.<.} E Z a 7 < , ; - ",
"'.'.R.'.'.'.'.[.@X@X@X@X@X@X,X,X2X,X,X@X'.G.z.$.^ c a 6 6 e n ^ $.8.c.A.n.c.8.$.I c e < 6 7 c I $.8.c.n.B.c.8.$.^ c a 6 6 e c P } 4.z.G.R.'.[.@X@X@X@X@X-X-X,X,X2X,X,X@X'.G.a.$.^ B r 6 6 r c ^ $.8.n.n.B.z.8.+.I c e < < 7 c I $.8.c.A.n.z.u.$.^ n a < ; % o o ",
"@X@X@X@X@X@X@X@X@X@X@X,X@X,X,X,X2X,X,X@X'.A.p.$.^ n r 6 6 a n ^ <.a.A.R.R.n.8.$.I a 4 - % 4 h P $.8.n.R.R.A.z.<.^ B r 6 6 r n ^ $.u.B.R.@X@X-X,X,X-X@X-X-X@X-X,X,X,X@X@X'.A.p.$.^ n a 6 6 r Z / <.a.A.R.G.n.u.+.I h < ; - < a I $.u.n.G.R.n.z.<.} Z a 6 ; $ o o ",
",X@X,X,X,X@X@X,X,X@X@X,X,X@X,X,X,X,X@X@X'.G.z.-.} H l a a c P ..7.n.P.R.R.A.u.+.P a , % % , a P $.u.G.R.R.P.c.8.} P c a r c Z } <.z.G.'.@X,X,X,X,X,X,X@X-X-X-X,X,X,X,X@X'.A.z.<./ Z h a a c P } 8.n.G.'.R.G.u.+.P a , % % , r P $.u.G.R.).R.n.8.$.I c 7 6 , % % ",
",X,X2X,X,X,X,X$X,X$X,X@X@X,X,X,X,X,X,X@X'.R.c.8...^ H n n P } -.p.A.R.'.'.A.u.$.H a % o o - e P +.p.A.R.'.R.A.a.<.' P c B Z ^ $.u.n.R.@X,X2X2X2X,X,X,X@X@X,X-X,X,X,X-X@X'.R.c.7.$.^ Z c B P ' :.a.B.R.[.'.A.u.+.Z r , o o ; r P +.u.G.'.'.R.n.z.<.' P c a r 7 7 ",
",X,X2X,X,X,X,X,X@X,X@X,X,X@X@X,X,X,X$X@X[.R.B.p.4. .^ ^ ^ } $.u.n.R.'.'.'.G.u.+.Z 7 % o o - 7 Z } u.G.'.@X'.P.n.u.$.} ^ ^ } $.4.z.A.R.@X,X2X2X2X,X,X,X-X-X@X-X-X,X,X,X@X[.R.n.a.<.$.' ^ ^ } $.u.n.R.'.[.'.G.u.+.Z r % o o % 7 H  .u.A.).[.'.R.n.u.:.} ^ I Z B B ",
",X,X,X,X,X,X,X,X,X$X,X$X$X,X,X$X,X,X@X@X'.'.G.n.z.7.-.$.-.<.u.c.G.'.[.@X'.B.u.} Z e % o o % 7 H } u.A.'.@X[.'.G.n.u.4.$.$.<.8.z.n.R.'.@X-X,X,X,X,X,X-X@X-X,X-X-X-X-X@X@X@XR.G.n.z.8.<.$.$.4.u.n.G.'.[.[.'.A.u.+.Z r % o o % e Z  .u.A.'.[.[.'.G.n.a.4.$.+.} } / ",
",X,X,X,X$X,X,X$X,X,X$X,X,X$X$X,X@X,X,X@X@X'.R.P.n.c.z.p.a.c.n.P.R.'.@X[.'.B.u.} Z e - o o % 7 Z } u.B.R.[.@X'.R.G.n.z.p.a.z.c.B.R.'.[.@X-X,X,X,X,X,X,X@X-X@X@X-X-X-X-X@X@X[.R.G.n.n.z.a.a.z.n.P.R.'.@X@XR.A.8.} Z 7 % o o , 7 Z } u.A.R.@X[.'.R.R.n.z.p.u.8.8.8.",
"$X,X,X,X,X$X$X,X@X$X$X$X@X$X$X,X,X@X@X@X@X@X'.Q.R.R.G.A.A.P.R.'.@X@X@X@XR.B.u.} Z r , $ % , r Z ..u.A.'.@X@X@X[.'.R.G.A.G.G.R.R.'.'.@X@X-X-X-X-X@X,X@X,X@X-X-X-X-X-X,X@X@X@X'.'.R.G.G.G.A.G.R.R.[.@X@X[.'.B.8.} P r , % % ; r Z  .8.A.'.@X@X@X@X'.R.P.A.A.n.n.n.",
"$X@X$X@X,X$X,X@X@X,X,X$X@X,X@X,X@X,X@X,X@X@X@X@X[.'.'.'.'.'.'.@X@X@X@X[.'.B.u.} P a 4 % - 6 a H } u.B.R.@X@X-X@X@X[.'.'.'.'.'.'.[.@X@X@X@X,X@X-X,X@X-X@X,X@X,X@X-X-X@X@X@X@X@X[.'.'.'.'.'.'.@X@X@X-X@X@X'.B.u.+.P a < - , < a P $.u.A.R.@X@X@X@X@X[.'.'.'.'.R.'.",
",X,X$X$X@X$X,X,X$X$X,X@X$X,X@X$X,X@X,X@X$X$X@X@X@X@X@X@X@X@X@X,X,X,X,X@X'.A.p.$.^ c e 6 < r c ^ $.p.A.'.@X@X,X,X,X@X@X@X@X@X@X@X@X-X@X-X@X-X@X-X-X@X-X@X@X-X-X@X-X@X-X-X@X-X@X@X@X@X@X@X@X@X-X,X,X,X-X@X'.A.u.$.E c r 6 6 7 c E $.u.G.'.@X@X,X,X,X@X@X@X@X@X[.@X",
"@X$X@X,X,X@X@X$X,X@X@X,X@X,X$X,X,X$X$X@X$X,X,X@X@X,X$X,X,X,X,X,X,X,X-X@X'.G.z.<.} P c a a c P } <.z.G.'.@X,X,X,X,X,X,X,X,X@X@X,X@X-X-X@X@X-X,X@X@X,X@X-X-X@X@X-X-X@X@X-X-X@X-X-X-X,X@X-X-X,X,X,X,X,X-X@X'.G.z.<.} Z c a a c P } <.z.G.'.@X-X,X,X,X,X,X,X-X-X-X-X",
",X@X$X,X$X,X@X,X,X@X$X,X@X$X$X@X@X@X$X,X,X$X,X,X,X,X,X,X,X,X,X,X,X,X,X@X'.G.n.u.$.} P Z H I } $.u.n.R.'.@X,X,X2X2X2X,X,X,X,X,X-X,X-X@X,X-X-X@X-X-X@X@X-X-X@X-X@X-X-X-X@X-X-X-X-X-X,X,X,X,X,X,X2X,X,X-X@X[.R.c.u.$.} I Z Z I } $.8.n.R.[.@X-X,X,X,X,X2X,X2X,X,X,X",
"@X,X$X$X@X,X$X$X@X,X$X@X,X@X,X,X$X,X,X@X@X,X,X$X,X,X,X2X,X,X2X2X,X,X-X@X@XR.A.z.7.$...} } } $.8.z.A.R.'.@X,X,X,X2X,X,X,X,X,X,X,X,X-X,X@X@X-X-X@X@X,X-X@X-X-X@X,X@X-X@X-X-X@X-X-X,X,X,X,X,X,X2X2X,X,X,X@X[.R.A.z.8.$.+.} } +.$.8.z.A.R.[.@X,X,X,X2X,X,X2X,X,X2X,X",
"$X,X$X$X,X,X$X$X,X@X,X,X@X$X@X$X$X@X@X,X,X@X,X,X,X,X,X,X,X,X,X,X,X,X@X@X@X'.R.n.z.u.4.<.<.7.u.z.n.R.'.[.@X-X,X,X,X,X,X,X,X,X,X-X,X-X,X@X@X-X@X-X-X@X@X-X@X@X-X@X-X@X-X-X@X,X-X-X,X,X,X,X,X,X,X,X,X,X-X@X@X'.G.n.z.u.4.<.<.8.u.z.n.R.'.[.@X,X,X,X,X,X,X,X,X,X,X,X",
"$X@X,X$X@X$X@X,X$X@X@X$X@X,X,X$X,X,X$X$X@X,X@X$X,X$X$X,X,X,X,X,X,X,X,X@X@X'.R.R.A.n.c.z.z.z.n.A.R.R.'.@X-X,X@X,X,X,X,X-X-X,X,X-X@X,X@X,X,X@X,X@X@X-X-X-X-X-X@X-X-X@X@X-X@X-X-X,X-X-X-X,X,X-X,X,X,X,X,X@X@X'.).R.G.n.c.z.z.z.n.G.R.R.'.@X@X@X-X,X,X,X-X,X,X,X,X,X",
",X,X$X@X$X@X$X,X$X,X@X,X$X,X@X@X@X$X,X@X$X,X@X,X@X,X@X,X$X,X$X,X,X-X,X@X@X[.[.'.R.R.A.G.G.G.R.R.'.'.@X@X@X-X,X-X,X-X-X-X@X,X-X-X-X-X-X@X@X-X@X-X,X@X,X@X@X-X,X@X@X-X-X@X-X-X@X@X@X-X-X-X@X,X-X-X-X,X@X-X@X@X'.'.R.R.G.G.G.G.G.R.'.'.@X@X-X-X,X-X,X,X-X-X-X,X-X-X",
"@X$X$X,X,X,X$X$X@X,X$X@X,X@X$X,X@X,X@X,X$X@X,X$X,X@X,X@X,X@X,X@X@X,X@X-X@X@X@X[.'.'.'.'.'.'.'.'.[.@X@X@X-X@X,X@X@X,X@X-X-X@X@X-X-X@X@X-X-X@X-X-X@X-X@X-X-X-X@X-X-X@X-X-X@X-X-X-X-X@X-X@X-X@X-X-X-X@X-X@X@X@X@X[.[.'.'.R.'.'.'.[.[.@X@X@X-X@X@X-X-X@X@X-X@X@X-X@X",
",X$X$X$X$X$X$X,X@X$X,X,X@X,X,X$X,X,X@X$X@X$X,X@X$X@X,X$X@X@X$X,X-X@X,X@X@X-X@X@X@X@X@X@X@X@X@X@X@X@X@X-X@X,X@X,X-X@X-X@X@X,X@X-X@X@X-X@X@X-X-X@X,X@X-X@X@X-X@X-X-X-X@X@X@X-X-X@X-X@X-X-X-X-X@X-X-X-X@X-X@X-X@X@X@X@X@X@X@X@X@X@X@X@X@X-X-X@X-X-X@X-X-X@X-X-X@X-X",
"$X@X,X,X$X,X$X@X,X$X@X$X$X$X@X@X@X$X@X,X,X$X@X,X,X,X@X@X$X,X$X@X@X-X@X-X,X@X-X-X,X-X,X@X,X,X@X-X,X@X,X@X-X@X-X@X-X@X@X,X-X@X-X-X-X-X@X,X-X@X@X-X@X-X@X,X,X@X@X-X@X-X-X-X-X@X-X-X@X-X-X@X@X-X-X@X@X@X-X@X-X@X@X,X,X,X-X-X@X-X-X,X,X-X@X-X@X-X-X@X-X@X-X-X@X-X-X@X",
"$X,X@X$X,X$X,X$X,X@X@X,X,X@X@X,X,X$X$X,X,X@X@X,X@X$X$X,X,X$X,X@X,X@X-X@X@X,X,X,X,X,X,X,X,X2X,X,X,X,X@X-X-X-X@X-X@X-X@X-X@X-X-X@X-X@X-X@X@X,X-X@X-X@X-X@X@X-X-X@X-X@X@X-X-X@X-X@X@X-X-X@X-X@X@X-X-X@X-X-X@X-X,X,X,X,X,X,X,X2X,X,X,X-X,X-X@X-X-X@X-X@X-X@X@X-X-X@X",
"$X@X,X$X$X@X,X$X@X,X$X$X@X,X,X$X@X@X,X@X$X@X,X$X@X,X@X,X@X@X,X$X@X-X@X-X@X,X,X,X2X2X2X9X9X2X2X,X,X,X,X,X@X@X-X@X-X@X,X@X,X@X@X,X@X,X@X-X-X@X-X-X@X,X@X-X-X@X-X-X-X@X-X-X@X-X-X@X-X-X@X-X-X@X-X-X@X-X@X-X-X-X,X,X,X2X9X6X6X6X2X,X,X,X,X@X-X-X@X-X@X-X-X@X-X-X@X-X"
};
