/* XPM */
static char *result[] = {
/* columns rows colors chars-per-pixel */
"64 64 133 2 ",
"   c #343535",
".  c #353535",
"X  c #353536",
"o  c #363536",
"O  c #343636",
"+  c #353636",
"@  c gray21",
"#  c #363637",
"$  c #3A3636",
"%  c #3F3535",
"&  c #3D3635",
"*  c #3C3536",
"=  c #373738",
"-  c #3E3B3B",
";  c #3D3B3D",
":  c #433434",
">  c #473535",
",  c #443636",
"<  c #4B3434",
"1  c #4D3434",
"2  c #403838",
"3  c #433C3C",
"4  c #443F3F",
"5  c #493939",
"6  c #513332",
"7  c #553232",
"8  c #503636",
"9  c #543535",
"0  c #5C3332",
"q  c #593535",
"w  c #5A3536",
"e  c #52393A",
"r  c #5E3A3A",
"t  c #702F2F",
"y  c #7B2E2E",
"u  c #752F30",
"i  c #603332",
"p  c #653030",
"a  c #613535",
"s  c #663434",
"d  c #693535",
"f  c #6C3434",
"g  c #623938",
"h  c #653B3B",
"j  c #6C3F3E",
"k  c #703435",
"l  c #743535",
"z  c #7B3433",
"x  c #793635",
"c  c #773939",
"v  c #733D3D",
"b  c #444343",
"n  c #484645",
"m  c #4D4B4B",
"M  c #714647",
"N  c #774544",
"B  c #7E4141",
"V  c #7E4B4B",
"C  c #822D2D",
"Z  c #8B2C2C",
"A  c #912B2B",
"S  c #9B292A",
"D  c #982A2A",
"F  c #813231",
"G  c #823434",
"H  c #8A3334",
"J  c #8F3434",
"K  c #8C3736",
"L  c #803B3B",
"P  c #893C3C",
"I  c #963030",
"U  c #953434",
"Y  c #973737",
"T  c #993434",
"R  c #963E3E",
"E  c #A02929",
"W  c #A62928",
"Q  c #A62D2D",
"!  c #AC2B2B",
"~  c #B52C2D",
"^  c #BA2E2E",
"/  c #A43131",
"(  c #A13434",
")  c #AD3334",
"_  c #A83434",
"`  c #A0393A",
"'  c #AB3A3A",
"]  c #AB3F3F",
"[  c #B03232",
"{  c #B73333",
"}  c #B43334",
"|  c #BB3333",
" . c #B43939",
".. c #C72F2F",
"X. c #C03030",
"o. c #C03333",
"O. c #C33333",
"+. c #C53333",
"@. c #C73232",
"#. c #CC3232",
"$. c #CE3233",
"%. c #C83334",
"&. c #CB3434",
"*. c #C13838",
"=. c #C13B3B",
"-. c #D03232",
";. c #D13333",
":. c #D43232",
">. c #D73232",
",. c #DA3232",
"<. c #DC3232",
"1. c #DE3637",
"2. c #D63939",
"3. c #894040",
"4. c #9F4545",
"5. c #865253",
"6. c #8F5554",
"7. c #975758",
"8. c #9E5C5C",
"9. c #AD4746",
"0. c #B54142",
"q. c #B64747",
"w. c #BC4040",
"e. c #A65B5B",
"r. c #BE6868",
"t. c #CE4141",
"y. c #CF4849",
"u. c #D74040",
"i. c #DA4949",
"p. c #CD6D6E",
"a. c #D57070",
"s. c #E77475",
"d. c None",
/* pixels */
"d.d.d.d.d.d.d.d.d.d.d.d.d.d.d.d.d.d.d.d.d.d.d.d.d.d.d.d.d.d.d.d.d.d.d.d.d.d.d.d.d.d.d.d.d.d.d.d.d.d.d.d.d.d.d.d.d.d.d.d.d.d.d.d.",
"d.d.d.d.d.d.d.d.d.d.d.d.d.d.d.d.d.d.d.d.d.d.d.d.d.d.d.d.d.d.d.d.d.d.d.d.d.d.d.d.d.d.d.d.d.d.d.d.d.d.d.d.d.d.d.d.d.d.d.d.d.d.d.d.",
"d.d.d.d.d.d.d.d.d.d.d.d.d.d.d.d.d.d.d.d.d.d.d.d.d.d.d.d.d.d.d.d.d.d.d.d.d.d.d.d.d.d.d.d.d.d.d.d.d.d.d.d.d.d.d.d.d.d.d.d.d.d.d.d.",
"d.d.d.d.d.d.d.d.d.d.d.d.d.d.d.d.d.d.d.d.d.d.d.X X d.d.d.d.d.d.d.d.d.d.d.d.d.d.d.d.d.d.d.d.d.d.d.d.d.d.d.d.d.d.d.d.d.d.d.d.d.d.d.",
"d.d.d.d.d.d.d.d.d.d.d.+ d.d.d.d.d.d.d.d.d.d.d.d.@ @ d.d.d.d.d.d.d.d.d.d.d.d.d.d.d.d.d.d.d.d.d.d.d.d.d.d.d.d.d.d.d.d.d.d.d.d.d.d.",
"d.d.d.d.d.d.d.d.d.d.d.X d.d.d.d.d.d.d.d.d.d.d.d.+ & @ d.d.d.d.d.d.d.d.d.d.d.d.d.d.d.d.d.d.d.d.d.d.d.d.d.d.d.d.d.d.d.o d.d.d.d.d.",
"d.d.d.d.d.d.d.d.d.d.d.@ d.d.d.d.d.d.d.d.d.d.d.d.@ r h @ . d.d.d.d.d.d.d.d.d.d.d.d.d.d.d.d.d.d.d.d.d.d.d.d.d.d.d.d.@ @ d.d.d.d.d.",
"d.d.d.d.d.d.d.d.d.d.d.+ d.d.d.d.d.d.d.d.d.d.d.d.@ 2 L h & X d.d.d.d.d.d.d.d.d.d.d.d.d.d.d.d.d.d.d.d.d.d.d.d.d.d.X @ @ d.d.d.d.d.",
"d.d.d.d.d.X d.d.d.d.X @ d.d.d.d.d.d.d.d.d.d.d.d.+ + d ` L , + + d.d.d.d.d.d.d.d.d.d.d.d.d.d.d.d.d.d.d.d.d.d.d.X 8 9 X d.d.d.d.d.",
"d.d.d.d.d.X d.d.d.d.+ @ X d.d.d.d.d.d.d.d.d.d.d.d.+ < ) } J q @ @ + d.d.d.d.d.d.d.d.d.d.d.d.d.d.d.d.d.d.d.d.  8 U a X d.d.d.d.d.",
"d.d.d.d.d.@ d.d.d.d.@ @ o d.d.d.d.d.d.d.d.d.d.d.d.+ @ H O.#.) f & O + # + d.d.d.d.d.d.d.d.d.d.d.d.d.d.d.d.# g Y ( 8 X d.d.d.d.d.",
"d.d.d.d.X @ d.d.d.d.@ @ + d.d.d.d.d.d.d.d.d.d.d.d.@ O 9 _ { +.) G 8 @ O @ @ + @ X @   X X + . X X . X @ 2 c  .) J * d.d.d.d.d.d.",
"d.d.d.d.# @ X d.d.d.X @ @ d.d.d.d.d.d.d.d.d.d.d.d.d.@ @ k _ [ ;.-._ z 9 $ + O , 3.3.P P L c s < $ O O e R { o._ a X d.d.d.d.d.d.",
"d.d.d.d.@ @ X d.d.d.X @ @ @ d.d.d.d.d.d.d.d.d.d.d.d.+ @ % U ) { o.;.#.+.U k w l 2.1.&.;.<.$.%.O.T s & & k _ | J : d.d.d.d.d.d.d.",
"d.d.d.d.+ @ + d.d.d.d.@ @ + d.d.d.d.d.d.d.d.d.d.d.d.@ + + a } | @.:.-.@.%.| +.;.,.,.-.o.:.>.,.<.<.;._ q @ 1 G a X d.d.d.d.d.d.d.",
"d.d.d.d.@ @ @ d.d.d.d.X @ @ X d.d.d.d.d.d.d.d.d.d.X & 7 $ @ l o.+.+.o.O.#.:.o.;.,.<.<.<.,.,.,.,.,.<.$.| k + @ + d.d.d.d.d.d.d.d.",
"d.d.d.X @ @ @ o d.d.d.+ @ @ @ d.d.d.d.d.d.d.d.d.d.X f / t , > _ | #.-.,.,.#.%.>.1.t.0.w.:.<.,.,.,.<.%.| O.a + + d.d.d.d.d.d.d.d.",
"d.d.d.X @ @ + + d.d.d.d.+ @ @ X d.d.d.d.d.d.d.d.d.@ T z w l ( ;.>.,.:.>.,.,.,.<.t.N 7.e.R @.,.>.,.] B V K } < + X d.d.d.d.d.d.d.",
"d.d.d.d.@ 2 e @ @ d.d.d.X @ @ @ d.d.d.d.d.d.d.d.d.* / t e v w T >.,.#.o.:.,.,.1.R 6.s.a.7.U :.~ } N p.a.N } G + = d.d.d.d.d.d.d.",
"d.d.d.d.+ 5 4.e O X d.d.X @ @ + @ d.d.d.d.d.d.d.d.: [ C 9  .P < ( <.,.%.o.:.,.1.L e.a.V 5.T :.! I 7.r.6.V { { : + d.d.d.d.d.d.d.",
"d.d.d.d.+ 2 q.` % @ d.d.d.+ @ & + X d.d.d.d.d.d.d.: | Q > k K P 0 o.<.<.,.,.,.<.` M r.8.v o.>.~ / j 8.5.P :.$.w + d.d.d.d.d.d.d.",
"d.d.d.d.+ $ 4.u.l @ X d.d.@ @ j 5 O X d.d.d.d.d.d.* ) ..0 s l l ( o.<.,.<.<.<.$.%._ K Y o.<.<.X.^ ( l K %.,.>.d O d.d.d.d.d.d.d.",
"d.d.d.d.o O B i.) > + d.d.@ O j 4.5 O @   d.d.d.d.@ H -.u 0 T U <.<.>.:.<.) / X.{ +.:.,.>.:.:.-.-.<.>.:.o.-.>.f O d.d.d.d.d.d.d.",
"d.d.d.d.. O h y.*.k + @ d.d.+ 5 9.Y a $ O @ X d.d.@ q } Z 1 ) >.-.o.$.o.<.R : i y y Z Z F y y C I ~ :.>.:.<.$.w O d.d.d.d.d.d.d.",
"d.d.d.d.d.+ , q.t.) 1 + + d.@ $ R =.} J q $ O + @ + $ J X.t f [ f a #.o.:.*., O $ $ - 3 3 4 3 3 2 6 [ <.,.<.[ : @ d.d.d.d.d.d.d.",
"d.d.d.d.d.# + 3.i.*.U % + X X O v =.| %.| J 9 $ O + O < [ ~ p 6 p / ,.O.$.&.8 n n - $ 3 3 3 5 e 5 e | <.,.#.u + X d.d.d.d.d.d.d.",
"d.d.d.d.d.X O r i.=.O.z $ @ @ + e w.| @.%.$.O.( k > + O 0 / Q I X.o.#.:.:.>.k b m b - - 2 2 2 l } | >.>...A : + d.d.d.d.d.d.d.d.",
"d.d.d.d.d.d.@ & 9.t.#.| s @ @ @ $ ] $.+.%.-.,.<.>.| z , O q ( %.>.:.| :.:.:.) , b n n m m b @ q ;.>...~ D 7 @ X d.d.d.d.d.d.d.d.",
"d.d.d.d.d.d.X O j y.;.o.} s @ + O P ;.$.#.>.,.,.,.<.>._ < O 8 T +.:.>.>.@.{ #.J w 5 5 3 3 3 2 l ~ ! E Z 7 @ @ d.d.d.d.d.d.d.d.d.",
"d.d.d.d.d.d.d.+ , q.1.%.O.O.k @ O e ' %.,.>.,.,.,.,.,.<.) q + % a H _ | @.#.-.-.X.[ / I I Z A E S Z t > @ + d.d.d.d.d.d.d.d.d.d.",
"d.d.d.d.d.d.d.o O B u.-.-.:.$.z $ O % d ( $.<.,.,.,.,.,.>.Q 7 + O @ % 6 p u C Z A D S S A Z C u 0 : @ + X d.d.d.d.d.d.d.d.d.d.d.",
"d.d.d.d.d.d.d.d.+ , 0.>.>.#.,.;.T 8 @ O $ a ( ;.<.<.,.,...W Z % @ @ O + O O @ & % : > > : % $ @ + + + d.d.d.d.d.d.d.d.d.d.d.d.d.",
"d.d.d.d.d.d.d.d.o O v 2.<.$.:.<.<.O.U a & O $ a U +.,.:.! W S < + @ h R G d 9 > , : , , , $ + @ . d.d.d.d.d.d.d.d.d.d.d.d.d.d.d.",
"d.d.d.d.d.d.d.d.d.+ 2 ' <.:.$.,.,.<.<.;.( a $ O @ 8 G Q W E y $ @ L u.1.,.:.$.o.| | { } { ( 9 + + d.d.d.d.d.d.d.d.d.d.d.d.d.d.d.",
"d.d.d.d.d.d.d.d.d.X O g &.>.#.,.,.,.:.:.<.-.( f : O + < p 7 % O a &.<.,.,.,.>.>.<.<.<.,.<.<.( & @ d.d.d.d.d.d.d.d.d.d.d.d.d.d.d.",
"d.d.d.d.d.d.d.d.d.d.@ $ U <.$.-.,.,.:.#.$.>.<.:.} z , O O + + + H <.,.>.:.U s f J %.<.,.,.,.;.a O + d.d.d.d.d.d.d.d.d.d.d.d.d.d.",
"d.d.d.d.d.d.d.d.d.d.X O 9 O.,.#.-.>.,.,.:.#.$.:.,.>.) i $ + @ @ T <.,.;.H & O O + a +.<.,.,.,.G O + d.d.d.d.d.d.d.d.d.d.d.d.d.d.",
"d.d.d.d.d.d.d.d.d.d.d.@ + H ,.>.-.#.#.;.;.:.:.-.#.X.~ E y 1 + & ) <.<.+.1 O h v & O J <.,.,.<.G + + d.d.d.d.d.d.d.d.d.d.d.d.d.d.",
"d.d.d.d.d.d.d.d.d.d.d.X O 8 O.<.,.,.:.;.-.#.#.>.X.E D E W y @ : { <.,.U @ 2 0.2.q O z ;.>.,.,.x O @ d.d.d.d.d.d.d.d.d.d.d.d.d.d.",
"d.d.d.d.d.d.d.d.d.d.d.d.@ @ J ,.:.$.-.>.,.<.$.X.W E D E E C @ % [ :.o.9 O h 2.#.9 O H :.:.<.:.f O X d.d.d.d.d.d.d.d.d.d.d.d.d.d.",
"d.d.d.d.d.d.d.d.d.d.d.d.+ O a %.:.>.-.$.,.,.@.! E D S Z p 1 @ @ J <.J @ & ' <.{ , @ ( ,.>.>.^ 6 + X d.d.d.d.d.d.d.d.d.d.d.d.d.d.",
"d.d.d.d.d.d.d.d.d.d.d.d.d.+ , { #.>.<.#.>.:.X.E D S y : + + @ O a o.q O d :.:.F + > o.<...~ Z % + d.d.d.d.d.d.d.d.d.d.d.d.d.d.d.",
"d.d.d.d.d.d.d.d.d.d.d.d.d.@ $ ( :.;.<.$.>.-.~ S S C : + X X X @ & a $ & _ <.~ 6 O i X.^ W D 0 + o d.d.d.d.d.d.d.d.d.d.d.d.d.d.d.",
"d.d.d.d.d.d.d.d.d.d.d.d.d.o + H >.#.,.#.>.@.! D A 1 + + d.d.d.X @ + + > } ^ C & + 7 C y i 6 @ + d.d.d.d.d.d.d.d.d.d.d.d.d.d.d.d.",
"d.d.d.d.d.d.d.d.d.d.d.d.d.  + k >.-.;.#.<.X.E D i + @ + d.d.d.d.+ @ + @ 1 7 : @ @ + @ $ + + + X d.d.d.d.d.d.d.d.d.d.d.d.d.d.d.d.",
"d.d.d.d.d.d.d.d.d.d.d.d.d.X O w ;.-.#.>.>.! D C % @ @ d.d.d.d.d.X @ & % O O + @ @ @ @ @ @ + d.d.d.d.d.d.d.d.d.d.d.d.d.d.d.d.d.d.",
"d.d.d.d.d.d.d.d.d.d.d.d.d.d.+ < o.#.>.<...S D p + @ X d.d.d.d.d.X + x ) t % + @ + O + X d.d.d.d.d.d.d.d.d.d.d.d.d.d.d.d.d.d.d.d.",
"d.d.d.d.d.d.d.d.d.d.d.d.d.d.+ $ ( $.<.:.Q S A < + @ d.d.d.d.d.d.+ + q F u : + @ e r $ @ d.d.d.d.d.d.d.d.d.d.d.d.d.d.d.d.d.d.d.d.",
"d.d.d.d.d.d.d.d.d.d.d.d.d.d.o + H >.-.~ S S Z : + d.d.d.d.d.d.d.X @ O @ @ O + O B t.9 O d.d.d.d.d.d.d.d.d.d.d.d.d.d.d.d.d.d.d.d.",
"d.d.d.d.d.d.d.d.d.d.d.d.d.d.X O G :.X.W E D C $ + d.d.d.d.d.d.d.X @ > < , w 9 O a ;.k O X d.d.d.d.d.d.d.d.d.d.d.d.d.d.d.d.d.d.d.",
"d.d.d.d.d.d.d.d.d.d.d.d.d.d.X O G -.~ S D E u @ X d.d.d.d.d.d.d.+ $ T +.o.$.G O 9 &.z O X d.d.d.d.d.d.d.d.d.d.d.d.d.d.d.d.d.d.d.",
"d.d.d.d.d.d.d.d.d.d.d.d.d.d.+ O G ..E S E A 6 + + d.d.d.d.d.d.d.+ < O.<.<.<.H O 9 %.k O + d.d.d.d.d.d.d.d.d.d.d.d.d.d.d.d.d.d.d.",
"d.d.d.d.d.d.d.d.d.d.d.d.d.d.X @ F W S Z t < @ @ d.d.d.d.d.d.d.X O a ;.,.<.,.z O 0 +.w O X d.d.d.d.d.d.d.d.d.d.d.d.d.d.d.d.d.d.d.",
"d.d.d.d.d.d.d.d.d.d.d.d.d.d.= @ t y 6 % @ + @ d.d.d.d.d.d.d.d.X O s :.,.,.^ 7 O l | > + d.d.d.d.d.d.d.d.d.d.d.d.d.d.d.d.d.d.d.d.",
"d.d.d.d.d.d.d.d.d.d.d.d.d.d.= @ : $ O @ X . d.d.d.d.d.d.d.d.d.d.O 9 %.<.#.A % @ H I $ @ d.d.d.d.d.d.d.d.d.d.d.d.d.d.d.d.d.d.d.d.",
"d.d.d.d.d.d.d.d.d.d.d.d.d.d.; @ + @ X d.d.d.d.d.d.d.d.d.d.d.d.d.@ $ U @.Q i + % C 0 + = d.d.d.d.d.d.d.d.d.d.d.d.d.d.d.d.d.d.d.d.",
"d.d.d.d.d.d.d.d.d.d.d.d.d.d.@ @ + d.d.d.d.d.d.d.d.d.d.d.d.d.d.d.+ + % 6 < @ @ $ : @ + d.d.d.d.d.d.d.d.d.d.d.d.d.d.d.d.d.d.d.d.d.",
"d.d.d.d.d.d.d.d.d.d.d.d.d.d.+ + d.d.d.d.d.d.d.d.d.d.d.d.d.d.d.d.d.= + + + @ @ @ + @ X d.d.d.d.d.d.d.d.d.d.d.d.d.d.d.d.d.d.d.d.d.",
"d.d.d.d.d.d.d.d.d.d.d.d.d.d.@ X d.d.d.d.d.d.d.d.d.d.d.d.d.d.d.d.d.d.d.d.d.d.d.d.d.d.d.d.d.d.d.d.d.d.d.d.d.d.d.d.d.d.d.d.d.d.d.d.",
"d.d.d.d.d.d.d.d.d.d.d.d.d.d.X d.d.d.d.d.d.d.d.d.d.d.d.d.d.d.d.d.d.d.d.d.d.d.d.d.d.d.d.d.d.d.d.d.d.d.d.d.d.d.d.d.d.d.d.d.d.d.d.d.",
"d.d.d.d.d.d.d.d.d.d.d.d.d.d.d.d.d.d.d.d.d.d.d.d.d.d.d.d.d.d.d.d.d.d.d.d.d.d.d.d.d.d.d.d.d.d.d.d.d.d.d.d.d.d.d.d.d.d.d.d.d.d.d.d.",
"d.d.d.d.d.d.d.d.d.d.d.d.d.d.d.d.d.d.d.d.d.d.d.d.d.d.d.d.d.d.d.d.d.d.d.d.d.d.d.d.d.d.d.d.d.d.d.d.d.d.d.d.d.d.d.d.d.d.d.d.d.d.d.d.",
"d.d.d.d.d.d.d.d.d.d.d.d.d.d.d.d.d.d.d.d.d.d.d.d.d.d.d.d.d.d.d.d.d.d.d.d.d.d.d.d.d.d.d.d.d.d.d.d.d.d.d.d.d.d.d.d.d.d.d.d.d.d.d.d.",
"d.d.d.d.d.d.d.d.d.d.d.d.d.d.d.d.d.d.d.d.d.d.d.d.d.d.d.d.d.d.d.d.d.d.d.d.d.d.d.d.d.d.d.d.d.d.d.d.d.d.d.d.d.d.d.d.d.d.d.d.d.d.d.d."
};
